/* XPM */
static const char *bitcoin16[] = {
/* columns rows colors chars-per-pixel */
"16 16 134 2 ",
"   c #FC6C00",
".  c #FC6D00",
"X  c #FC6E00",
"o  c #FC6F00",
"O  c #FC6F01",
"+  c #FC7001",
"@  c #FC7002",
"#  c #FC7103",
"$  c #FC7104",
"%  c #FC7205",
"&  c #FC7206",
"*  c #FC7307",
"=  c #FD7307",
"-  c #FC7308",
";  c #FC7409",
":  c #FC740A",
">  c #FC750B",
",  c #FC760D",
"<  c #FD770E",
"1  c #FC7711",
"2  c #FC7811",
"3  c #FD7A13",
"4  c #FC7A14",
"5  c #FD7A14",
"6  c #FD7B16",
"7  c #FC7F1D",
"8  c #FC8223",
"9  c #FC8323",
"0  c #FC8224",
"q  c #FC8324",
"w  c #FC8325",
"e  c #FC8428",
"r  c #FC8528",
"t  c #FD8528",
"y  c #FC8529",
"u  c #FC862A",
"i  c #FC862B",
"p  c #FC872C",
"a  c #FC892E",
"s  c #FC892F",
"d  c #FC8930",
"f  c #FC8931",
"g  c #FC8B31",
"h  c #FC8B32",
"j  c #FD8B32",
"k  c #FC8B33",
"l  c #FC8B34",
"z  c #FC8D35",
"x  c #FC8D37",
"c  c #FC8E39",
"v  c #FC8F3A",
"b  c #FD8F3A",
"n  c #FC913E",
"m  c #FD933F",
"M  c #FC9342",
"N  c #FC9444",
"B  c #FC9544",
"V  c #FC9647",
"C  c #FC9748",
"Z  c #FD9749",
"A  c #FC9B50",
"S  c #FC9B53",
"D  c #FC9C51",
"F  c #FC9D53",
"G  c #FC9E53",
"H  c #FC9D55",
"J  c #FC9E54",
"K  c #FC9F55",
"L  c #FC9E56",
"P  c #FCA058",
"I  c #FCA25C",
"U  c #FCA25D",
"Y  c #FCA35E",
"T  c #FCA45F",
"R  c #FCA560",
"E  c #FDA560",
"W  c #FCA561",
"Q  c #FDA561",
"!  c #FCA562",
"~  c #FCA663",
"^  c #FCA763",
"/  c #FCA866",
"(  c #FCA867",
")  c #FCA968",
"_  c #FDA968",
"`  c #FCA969",
"'  c #FDAA68",
"]  c #FCAA69",
"[  c #FDAA69",
"{  c #FCAA6A",
"}  c #FCAA6B",
"|  c #FCAB6B",
" . c #FDAB6C",
".. c #FCAC6D",
"X. c #FDAC6D",
"o. c #FCAD6E",
"O. c #FCB074",
"+. c #FCB176",
"@. c #FCBD8B",
"#. c #FCBD8C",
"$. c #FCC08F",
"%. c #FCC090",
"&. c #FCC193",
"*. c #FCC396",
"=. c #FCC497",
"-. c #FCC69B",
";. c #FCC9A0",
":. c #FCCEAA",
">. c #FCD2B1",
",. c #FCD6B8",
"<. c #FCDABF",
"1. c #FCDBC0",
"2. c #FCE0CB",
"3. c #FCE5D3",
"4. c #FCE7D6",
"5. c #FCEADC",
"6. c #FCECE0",
"7. c #FCEDE1",
"8. c #FCF2E9",
"9. c #FCF2EA",
"0. c #FCF4EE",
"q. c #FCF5F0",
"w. c #FCF6F1",
"e. c #FCF7F3",
"r. c #FCF7F4",
"t. c #FCF8F5",
"y. c #FCF9F6",
"u. c #FCFAF8",
"i. c #FCFBFA",
"p. c #FCFCFB",
"a. c gray99",
"s. c #FCFDFD",
"d. c #FCFEFF",
"f. c None",
/* pixels */
"f.f.f.f.f.f.f.p p f.f.f.f.f.f.f.",
"f.f.f.f.z ^ ..) ) ..^ l f.f.f.f.",
"f.f.f.L ) a > + . > a ) D f.f.f.",
"f.f.L P h #.$.%.%.+.w > T S f.f.",
"f.v / = 9 >.d.t.w.d.2.9 > ) h f.",
"f./ r . . Z w...h @.p.^ . h Y f.",
"w ) = + . Z w.L 6 ) 8.V . < / f.",
"z Y . + . Z 1.*.;.:.3.h . + ^ r ",
"z Y . + . Z <.%.-.=.i.,.3 + ^ r ",
"w ) = + . V w.S 1 p 4.0.a > ) f.",
"f./ r . + ^ r.+.n ) 8.5.7 z Y f.",
"f.v ) - v 7.d.t.r.i.7.^ 6 ..r f.",
"f.f.D ^ r Y T ^ ^ D w 6 ) V f.f.",
"f.f.f.D  .h < = = 3 n  .M f.f.f.",
"f.f.f.f.h ^ ..) ) ) L f.f.f.f.f.",
"f.f.f.f.f.f.f.f.f.f.f.f.f.f.f.f."
};
