/* XPM */
static const char *bitcoin32[] = {
/* columns rows colors chars-per-pixel */
"32 32 114 2 ",
"   c #FC6E00",
".  c #FC7002",
"X  c #FC740B",
"o  c #FC7710",
"O  c #FC7A14",
"+  c #FC7D1B",
"@  c #FC801F",
"#  c #FC8324",
"$  c #FC8629",
"%  c #FC892E",
"&  c #FC8B31",
"*  c #FC8E39",
"=  c #FC913D",
"-  c #FC9443",
";  c #FD9749",
":  c #FC9A4D",
">  c #FC9D53",
",  c #FCA25B",
"<  c #FCA763",
"1  c #FCAC6D",
"2  c #FDAE71",
"3  c #FDB175",
"4  c #FCB37B",
"5  c #FDB780",
"6  c #FDB984",
"7  c #FCBD8B",
"8  c #FCC294",
"9  c #FCC599",
"0  c #FDC89F",
"q  c #FDC89F",
"w  c #FDCAA2",
"e  c #FCCAA3",
"r  c #FDCAA3",
"t  c #FCCBA4",
"y  c #FDCBA4",
"u  c #FDCBA5",
"i  c #FCCCA5",
"p  c #FDCCA5",
"a  c #FCCCA7",
"s  c #FCCCA8",
"d  c #FCCEA9",
"f  c #FCCFAB",
"g  c #FCCFAC",
"h  c #FDCFAC",
"j  c #FCD0AC",
"k  c #FCD0AE",
"l  c #FCD1AF",
"z  c #FCD1B0",
"x  c #FCD2B0",
"c  c #FCD2B1",
"v  c #FDD2B1",
"b  c #FCD2B2",
"n  c #FDD2B2",
"m  c #FCD3B3",
"M  c #FDD4B4",
"N  c #FDD4B5",
"B  c #FCD5B6",
"V  c #FDD5B6",
"C  c #FDD3B2",
"Z  c #FCD6B8",
"A  c #FCD7B9",
"S  c #FCD7BA",
"D  c #FDD7BA",
"F  c #FDD7B9",
"G  c #FCD8BB",
"H  c #FCD8BC",
"J  c #FDD9BC",
"K  c #FCD8BD",
"L  c #FDD9BD",
"P  c #FCDABF",
"I  c #FDDABF",
"U  c #FDDAC0",
"Y  c #FDDBC0",
"T  c #FDDBC1",
"R  c #FDDCC2",
"E  c #FCDCC3",
"W  c #FCDEC7",
"Q  c #FDDCC2",
"!  c #FCDFC9",
"~  c #FCE0C9",
"^  c #FCE3CF",
"/  c #FCE4D1",
"(  c #FCE9DB",
")  c #FCEADC",
"_  c #FCEBDD",
"`  c #FCEDE0",
"'  c #FCEEE4",
"]  c #FDF0E6",
"[  c #FCF1E8",
"{  c #FCF2E9",
"}  c #FCF2EA",
"|  c #FCF4EE",
" . c #FCF5EE",
".. c #FCF5EF",
"X. c #FCF5F0",
"o. c #FCF6F1",
"O. c #FCF7F2",
"+. c #FCF7F3",
"@. c #FCF7F4",
"#. c #FCF8F4",
"$. c #FCF9F6",
"%. c #FCF9F7",
"&. c #FCFAF8",
"*. c #FCFAF9",
"=. c #FCFBF9",
"-. c #FCFBFA",
";. c gray99",
":. c #FCFCFD",
">. c #FCFDFD",
",. c #FCFDFE",
"<. c #FCFEFF",
"1. c #FCFFFF",
"2. c None",
"3. c black",
/* pixels */
"2.2.2.2.2.2.2.2.2.2.2.2.2.2.2.2.2.2.2.2.2.2.2.2.2.2.2.2.2.2.2.2.",
"2.2.2.2.2.2.2.2.2.2.2.2.  . X X X X     2.2.2.2.2.2.2.2.2.2.2.2.",
"2.2.2.2.2.2.2.2.2.  X & 1 9 z A A z 9 1 & X   2.2.2.2.2.2.2.2.2.",
"2.2.2.2.2.2.2.2.X ; y T 0 1 : - - : 1 0 E e - . 2.2.2.2.2.2.2.2.",
"2.2.2.2.2.2.  # 9 I 1 @ .             . # 1 T 8 +   2.2.2.2.2.2.",
"2.2.2.2.2.  = I 7 +                         @ 9 M %   2.2.2.2.2.",
"2.2.2.2.  = E < . + * * * * * * * * # X       . 2 I %   2.2.2.2.",
"2.2.2.  $ I ,     4 @...............' I , X     . 2 z + 2.2.2.2.",
"2.2.2.X y 4 . .   1 [ ;.;.;.;.;.;.;.;.;.#.7 X     X 9 7   2.2.2.",
"2.2.  , z o   .   X % A ;.;.&.&.&.&.;.;.;.#.,   .   # I *   2.2.",
"2.2.o M :     . . .   4 ;.;.e : : > 9 o.;.;.d .   .   2 9   2.2.",
"2.  : z X . . . . .   4 ;.;.4       . 8 ;.;.I X   .   # A # 2.2.",
"2.  7 4   . . . . .   4 ;.;.4   X .   1 ;.;.y . . . . . 9 ,   2.",
"2.X z -   . . . . .   4 ;.;.4 + > . = ~ ;...:   . . .   1 7   2.",
"2.+ I $   . . . . .   4 ;.#.> 2 E & A ;.;.7 .   . . .   : e . 2.",
"2.# I +   . . . . .   4 _ 2 4 [ ;.d , k &.( 1 . . . .   * k X 2.",
"2.# I +   . . . . .   4 ) 1 3 [ ;.g , d #.;.#.<   . .   * k X 2.",
"2.+ I $   . . . . .   4 ;.o.: 1 T # 9 #.;.;.;.^ +   .   : i . 2.",
"2.X z -   . . . . .   4 ;.;.4 + :   o > ` ;.;.o.=   .   1 7   2.",
"2.  7 4   . . . . .   4 ;.;.4   X .     9 ;.;.&.:     . e ,   2.",
"2.  ; M o   . . . .   4 ;.;.4         # ! ;.;.o.*     % I # 2.2.",
"2.2.o z ,   . . . . + z ;.;.z 1 1 1 7 / ;.;.;.T o     7 6   2.2.",
"2.2.  > G +       , ^ &.;.;.;.;.;.;.;.;.;.;.] :     = T $ 2.2.2.",
"2.2.2.X 9 8 X     5 ;.;.;.;.;.;.;.;.;.;.&.W : .   + M <   2.2.2.",
"2.2.2.2.+ M 4 .   , z k k k k k k k i 7 > O     O e 7 X 2.2.2.2.",
"2.2.2.2.  % I 4 X   . . . . . . . . .         # i 9 o 2.2.2.2.2.",
"2.2.2.2.2.  $ z 0 $     . . . . . . . .   . : A 6 o 2.2.2.2.2.2.",
"2.2.2.2.2.2.  O 6 E 4 % X           . O : 0 M > . 2.2.2.2.2.2.2.",
"2.2.2.2.2.2.2.2.. * 8 T z 7 3 1 1 5 0 A g < O   2.2.2.2.2.2.2.2.",
"2.2.2.2.2.2.2.2.2.2.. # : 3 7 8 7 4 , & X   2.2.2.2.2.2.2.2.2.2.",
"2.2.2.2.2.2.2.2.2.2.2.2.2.            2.2.2.2.2.2.2.2.2.2.2.2.2.",
"2.2.2.2.2.2.2.2.2.2.2.2.2.2.2.2.2.2.2.2.2.2.2.2.2.2.2.2.2.2.2.2."
};
