/* XPM */
static const char *bitcoin256[] = {
/* columns rows colors chars-per-pixel */
"256 256 153 2 ",
"   c #F76A00",
".  c #FC6F01",
"X  c #FA6F09",
"o  c #FD7001",
"O  c #F7760F",
"+  c #FB740B",
"@  c #FC780E",
"#  c #F77513",
"$  c #FB7513",
"%  c #FB7914",
"&  c #FB7D1B",
"*  c #FA7F21",
"=  c #FC811E",
"-  c #FB8224",
";  c #F7842E",
":  c #FB852B",
">  c #FB892D",
",  c #FB8731",
"<  c #F78A36",
"1  c #FB8B34",
"2  c #FB8E3A",
"3  c #FC913D",
"4  c #FB8F40",
"5  c #FB9444",
"6  c #FC9847",
"7  c #FA964A",
"8  c #FB994C",
"9  c #F79D56",
"0  c #FC9C53",
"q  c #FC9E59",
"w  c #FCA056",
"e  c #FCA25C",
"r  c #FCA563",
"t  c #FCA865",
"y  c #FCA768",
"u  c #FCAB6C",
"i  c #FCAD72",
"p  c #FBAF78",
"a  c #FCB175",
"s  c #FCB37B",
"d  c #FDB87D",
"f  c #FCB682",
"g  c #FCB985",
"h  c #FCBD8B",
"j  c #FCBE92",
"k  c #FCC08E",
"l  c #FCC294",
"z  c #FCC59B",
"x  c #FDC89E",
"c  c #FCC7A1",
"v  c #FCCBA4",
"b  c #FCCEAA",
"n  c #FCD1AF",
"m  c #FDD0AD",
"M  c #FDD1AD",
"N  c #FDCFB0",
"B  c #FCD2B0",
"V  c #FDD3B2",
"C  c #FCD4B4",
"Z  c #FCD5B7",
"A  c #FCD6B6",
"S  c #FCD6B7",
"D  c #FCD4B4",
"F  c #FCD5B8",
"G  c #FCD7B8",
"H  c #FDD6B9",
"J  c #FCD7B9",
"K  c #FDD7B9",
"L  c #FDD6B9",
"P  c #FDD8B9",
"I  c #FDD9BA",
"U  c #FDD8BB",
"Y  c #FDD9BB",
"T  c #FCD8BC",
"R  c #FDD8BC",
"E  c #FDDABD",
"W  c #FDD9BD",
"Q  c #FDDDC4",
"!  c #FCDDC6",
"~  c #FDDDC6",
"^  c #FDDEC6",
"/  c #FDDFC6",
"(  c #FCDFC7",
")  c #FCDDC4",
"_  c #FDDFC8",
"`  c #FDDCC9",
"'  c #FDE2CC",
"]  c #FDE5D1",
"[  c #FDE5D3",
"{  c #FDE6D4",
"}  c #FDE6D5",
"|  c #FDE7D5",
" . c #FDE5D3",
".. c #FDE8D6",
"X. c #FDE8D7",
"o. c #FDE7D8",
"O. c #FDE9D8",
"+. c #FDE8D9",
"@. c #FDEADB",
"#. c #FDEBDC",
"$. c #FDECDF",
"%. c #FDEADC",
"&. c #FDECE0",
"*. c #FDEDE1",
"=. c #FDEFE3",
"-. c #FDEFE4",
";. c #FDEEE2",
":. c #FDF1E7",
">. c #FDF0E6",
",. c #FDF2E9",
"<. c #FDF3EC",
"1. c #FDF4EC",
"2. c #FDF4ED",
"3. c #FDF4EE",
"4. c #FDF5EE",
"5. c #FDF3EC",
"6. c #FDF5F0",
"7. c #FDF6F0",
"8. c #FDF7F2",
"9. c #FDF7F2",
"0. c #FDF8F3",
"q. c #FDF8F4",
"w. c #FDF9F5",
"e. c #FEF8F5",
"r. c #FDF9F6",
"t. c #FDFAF7",
"y. c #FDF9F5",
"u. c #FDFAF8",
"i. c #FDFBF8",
"p. c #FDFBF9",
"a. c #FDFBFA",
"s. c #FEFBFA",
"d. c #FDFCFA",
"f. c #FDFCFB",
"g. c gray99",
"h. c #FDFCFC",
"j. c #FCFDFC",
"k. c #FDFDFC",
"l. c #FCFCFD",
"z. c #FDFCFD",
"x. c #FCFDFD",
"c. c #FDFDFD",
"v. c #FCFDFE",
"b. c #FDFDFE",
"n. c #FCFEFE",
"m. c #FDFEFE",
"M. c #FCFEFF",
"N. c #FDFEFF",
"B. c #FDFFFF",
"V. c #FEFEFE",
"C. c #FCFCFC",
"Z. c None",
"A. c black",
/* pixels */
"Z.Z.Z.Z.Z.Z.Z.Z.Z.Z.Z.Z.Z.Z.Z.Z.Z.Z.Z.Z.Z.Z.Z.Z.Z.Z.Z.Z.Z.Z.Z.Z.Z.Z.Z.Z.Z.Z.Z.Z.Z.Z.Z.Z.Z.Z.Z.Z.Z.Z.Z.Z.Z.Z.Z.Z.Z.Z.Z.Z.Z.Z.Z.Z.Z.Z.Z.Z.Z.Z.Z.Z.Z.Z.Z.Z.Z.Z.Z.Z.Z.Z.Z.Z.Z.Z.Z.Z.Z.Z.Z.Z.Z.Z.Z.Z.Z.Z.Z.Z.Z.Z.Z.Z.Z.Z.Z.Z.Z.Z.Z.Z.Z.Z.Z.Z.Z.Z.Z.Z.Z.Z.Z.Z.Z.Z.Z.Z.Z.Z.Z.Z.Z.Z.Z.Z.Z.Z.Z.Z.Z.Z.Z.Z.Z.Z.Z.Z.Z.Z.Z.Z.Z.Z.Z.Z.Z.Z.Z.Z.Z.Z.Z.Z.Z.Z.Z.Z.Z.Z.Z.Z.Z.Z.Z.Z.Z.Z.Z.Z.Z.Z.Z.Z.Z.Z.Z.Z.Z.Z.Z.Z.Z.Z.Z.Z.Z.Z.Z.Z.Z.Z.Z.Z.Z.Z.Z.Z.Z.Z.Z.Z.Z.Z.Z.Z.Z.Z.Z.Z.Z.Z.Z.Z.Z.Z.Z.Z.Z.Z.Z.Z.Z.Z.Z.Z.Z.Z.Z.Z.Z.Z.Z.Z.Z.Z.Z.Z.Z.Z.Z.Z.Z.Z.Z.Z.",
"Z.Z.Z.Z.Z.Z.Z.Z.Z.Z.Z.Z.Z.Z.Z.Z.Z.Z.Z.Z.Z.Z.Z.Z.Z.Z.Z.Z.Z.Z.Z.Z.Z.Z.Z.Z.Z.Z.Z.Z.Z.Z.Z.Z.Z.Z.Z.Z.Z.Z.Z.Z.Z.Z.Z.Z.Z.Z.Z.Z.Z.Z.Z.Z.Z.Z.Z.Z.Z.Z.Z.Z.Z.Z.Z.Z.Z.Z.Z.Z.Z.Z.Z.Z.Z.Z.Z.Z.Z.Z.Z.Z.Z.Z.Z.Z.Z.Z.Z.Z.Z.Z.Z.Z.Z.Z.Z.Z.Z.Z.Z.Z.Z.Z.Z.Z.Z.Z.Z.Z.Z.Z.Z.Z.Z.Z.Z.Z.Z.Z.Z.Z.Z.Z.Z.Z.Z.Z.Z.Z.Z.Z.Z.Z.Z.Z.Z.Z.Z.Z.Z.Z.Z.Z.Z.Z.Z.Z.Z.Z.Z.Z.Z.Z.Z.Z.Z.Z.Z.Z.Z.Z.Z.Z.Z.Z.Z.Z.Z.Z.Z.Z.Z.Z.Z.Z.Z.Z.Z.Z.Z.Z.Z.Z.Z.Z.Z.Z.Z.Z.Z.Z.Z.Z.Z.Z.Z.Z.Z.Z.Z.Z.Z.Z.Z.Z.Z.Z.Z.Z.Z.Z.Z.Z.Z.Z.Z.Z.Z.Z.Z.Z.Z.Z.Z.Z.Z.Z.Z.Z.Z.Z.Z.Z.Z.Z.Z.Z.Z.Z.Z.Z.Z.Z.Z.Z.",
"Z.Z.Z.Z.Z.Z.Z.Z.Z.Z.Z.Z.Z.Z.Z.Z.Z.Z.Z.Z.Z.Z.Z.Z.Z.Z.Z.Z.Z.Z.Z.Z.Z.Z.Z.Z.Z.Z.Z.Z.Z.Z.Z.Z.Z.Z.Z.Z.Z.Z.Z.Z.Z.Z.Z.Z.Z.Z.Z.Z.Z.Z.Z.Z.Z.Z.Z.Z.Z.Z.Z.Z.Z.Z.Z.Z.Z.Z.Z.Z.Z.Z.Z.Z.Z.Z.Z.Z.Z.Z.Z.Z.Z.Z.Z.Z.Z.Z.Z.Z.Z.Z.Z.Z.Z.Z.Z.Z.Z.Z.Z.Z.Z.Z.Z.Z.Z.Z.Z.Z.Z.Z.Z.Z.Z.Z.Z.Z.Z.Z.Z.Z.Z.Z.Z.Z.Z.Z.Z.Z.Z.Z.Z.Z.Z.Z.Z.Z.Z.Z.Z.Z.Z.Z.Z.Z.Z.Z.Z.Z.Z.Z.Z.Z.Z.Z.Z.Z.Z.Z.Z.Z.Z.Z.Z.Z.Z.Z.Z.Z.Z.Z.Z.Z.Z.Z.Z.Z.Z.Z.Z.Z.Z.Z.Z.Z.Z.Z.Z.Z.Z.Z.Z.Z.Z.Z.Z.Z.Z.Z.Z.Z.Z.Z.Z.Z.Z.Z.Z.Z.Z.Z.Z.Z.Z.Z.Z.Z.Z.Z.Z.Z.Z.Z.Z.Z.Z.Z.Z.Z.Z.Z.Z.Z.Z.Z.Z.Z.Z.Z.Z.Z.Z.Z.Z.Z.",
"Z.Z.Z.Z.Z.Z.Z.Z.Z.Z.Z.Z.Z.Z.Z.Z.Z.Z.Z.Z.Z.Z.Z.Z.Z.Z.Z.Z.Z.Z.Z.Z.Z.Z.Z.Z.Z.Z.Z.Z.Z.Z.Z.Z.Z.Z.Z.Z.Z.Z.Z.Z.Z.Z.Z.Z.Z.Z.Z.Z.Z.Z.Z.Z.Z.Z.Z.Z.Z.Z.Z.Z.Z.Z.Z.Z.Z.Z.Z.Z.Z.Z.Z.Z.Z.Z.Z.Z.Z.Z.Z.Z.Z.Z.Z.Z.Z.Z.Z.Z.Z.Z.Z.Z.Z.Z.Z.Z.Z.Z.Z.Z.Z.Z.Z.Z.Z.Z.Z.Z.Z.Z.Z.Z.Z.Z.Z.Z.Z.Z.Z.Z.Z.Z.Z.Z.Z.Z.Z.Z.Z.Z.Z.Z.Z.Z.Z.Z.Z.Z.Z.Z.Z.Z.Z.Z.Z.Z.Z.Z.Z.Z.Z.Z.Z.Z.Z.Z.Z.Z.Z.Z.Z.Z.Z.Z.Z.Z.Z.Z.Z.Z.Z.Z.Z.Z.Z.Z.Z.Z.Z.Z.Z.Z.Z.Z.Z.Z.Z.Z.Z.Z.Z.Z.Z.Z.Z.Z.Z.Z.Z.Z.Z.Z.Z.Z.Z.Z.Z.Z.Z.Z.Z.Z.Z.Z.Z.Z.Z.Z.Z.Z.Z.Z.Z.Z.Z.Z.Z.Z.Z.Z.Z.Z.Z.Z.Z.Z.Z.Z.Z.Z.Z.Z.Z.Z.",
"Z.Z.Z.Z.Z.Z.Z.Z.Z.Z.Z.Z.Z.Z.Z.Z.Z.Z.Z.Z.Z.Z.Z.Z.Z.Z.Z.Z.Z.Z.Z.Z.Z.Z.Z.Z.Z.Z.Z.Z.Z.Z.Z.Z.Z.Z.Z.Z.Z.Z.Z.Z.Z.Z.Z.Z.Z.Z.Z.Z.Z.Z.Z.Z.Z.Z.Z.Z.Z.Z.Z.Z.Z.Z.Z.Z.Z.Z.Z.Z.Z.Z.Z.Z.Z.Z.Z.Z.Z.Z.Z.Z.Z.Z.Z.Z.Z.Z.Z.Z.Z.Z.Z.Z.Z.Z.Z.Z.Z.Z.Z.Z.Z.Z.Z.Z.Z.Z.Z.Z.Z.Z.Z.Z.Z.Z.Z.Z.Z.Z.Z.Z.Z.Z.Z.Z.Z.Z.Z.Z.Z.Z.Z.Z.Z.Z.Z.Z.Z.Z.Z.Z.Z.Z.Z.Z.Z.Z.Z.Z.Z.Z.Z.Z.Z.Z.Z.Z.Z.Z.Z.Z.Z.Z.Z.Z.Z.Z.Z.Z.Z.Z.Z.Z.Z.Z.Z.Z.Z.Z.Z.Z.Z.Z.Z.Z.Z.Z.Z.Z.Z.Z.Z.Z.Z.Z.Z.Z.Z.Z.Z.Z.Z.Z.Z.Z.Z.Z.Z.Z.Z.Z.Z.Z.Z.Z.Z.Z.Z.Z.Z.Z.Z.Z.Z.Z.Z.Z.Z.Z.Z.Z.Z.Z.Z.Z.Z.Z.Z.Z.Z.Z.Z.Z.Z.Z.",
"Z.Z.Z.Z.Z.Z.Z.Z.Z.Z.Z.Z.Z.Z.Z.Z.Z.Z.Z.Z.Z.Z.Z.Z.Z.Z.Z.Z.Z.Z.Z.Z.Z.Z.Z.Z.Z.Z.Z.Z.Z.Z.Z.Z.Z.Z.Z.Z.Z.Z.Z.Z.Z.Z.Z.Z.Z.Z.Z.Z.Z.Z.Z.Z.Z.Z.Z.Z.Z.Z.Z.Z.Z.Z.Z.Z.Z.Z.Z.Z.Z.Z.Z.Z.Z.Z.Z.Z.Z.Z.Z.Z.Z.Z.Z.Z.Z.Z.Z.Z.Z.Z.Z.Z.Z.Z.Z.Z.Z.Z.Z.Z.Z.Z.Z.Z.Z.Z.Z.Z.Z.Z.Z.Z.Z.Z.Z.Z.Z.Z.Z.Z.Z.Z.Z.Z.Z.Z.Z.Z.Z.Z.Z.Z.Z.Z.Z.Z.Z.Z.Z.Z.Z.Z.Z.Z.Z.Z.Z.Z.Z.Z.Z.Z.Z.Z.Z.Z.Z.Z.Z.Z.Z.Z.Z.Z.Z.Z.Z.Z.Z.Z.Z.Z.Z.Z.Z.Z.Z.Z.Z.Z.Z.Z.Z.Z.Z.Z.Z.Z.Z.Z.Z.Z.Z.Z.Z.Z.Z.Z.Z.Z.Z.Z.Z.Z.Z.Z.Z.Z.Z.Z.Z.Z.Z.Z.Z.Z.Z.Z.Z.Z.Z.Z.Z.Z.Z.Z.Z.Z.Z.Z.Z.Z.Z.Z.Z.Z.Z.Z.Z.Z.Z.Z.Z.Z.",
"Z.Z.Z.Z.Z.Z.Z.Z.Z.Z.Z.Z.Z.Z.Z.Z.Z.Z.Z.Z.Z.Z.Z.Z.Z.Z.Z.Z.Z.Z.Z.Z.Z.Z.Z.Z.Z.Z.Z.Z.Z.Z.Z.Z.Z.Z.Z.Z.Z.Z.Z.Z.Z.Z.Z.Z.Z.Z.Z.Z.Z.Z.Z.Z.Z.Z.Z.Z.Z.Z.Z.Z.Z.Z.Z.Z.Z.Z.Z.Z.Z.Z.Z.Z.Z.Z.Z.Z.Z.Z.Z.Z.Z.Z.Z.Z.Z.Z.Z.Z.Z.Z.Z.Z.Z.Z.Z.Z.Z.Z.Z.Z.Z.Z.Z.Z.Z.Z.Z.Z.Z.Z.Z.Z.Z.Z.Z.Z.Z.Z.Z.Z.Z.Z.Z.Z.Z.Z.Z.Z.Z.Z.Z.Z.Z.Z.Z.Z.Z.Z.Z.Z.Z.Z.Z.Z.Z.Z.Z.Z.Z.Z.Z.Z.Z.Z.Z.Z.Z.Z.Z.Z.Z.Z.Z.Z.Z.Z.Z.Z.Z.Z.Z.Z.Z.Z.Z.Z.Z.Z.Z.Z.Z.Z.Z.Z.Z.Z.Z.Z.Z.Z.Z.Z.Z.Z.Z.Z.Z.Z.Z.Z.Z.Z.Z.Z.Z.Z.Z.Z.Z.Z.Z.Z.Z.Z.Z.Z.Z.Z.Z.Z.Z.Z.Z.Z.Z.Z.Z.Z.Z.Z.Z.Z.Z.Z.Z.Z.Z.Z.Z.Z.Z.Z.Z.Z.",
"Z.Z.Z.Z.Z.Z.Z.Z.Z.Z.Z.Z.Z.Z.Z.Z.Z.Z.Z.Z.Z.Z.Z.Z.Z.Z.Z.Z.Z.Z.Z.Z.Z.Z.Z.Z.Z.Z.Z.Z.Z.Z.Z.Z.Z.Z.Z.Z.Z.Z.Z.Z.Z.Z.Z.Z.Z.Z.Z.Z.Z.Z.Z.Z.Z.Z.Z.Z.Z.Z.Z.Z.Z.Z.Z.Z.Z.Z.Z.Z.Z.Z.Z.Z.Z.Z.Z.Z.Z.Z.Z.Z.Z.Z.Z.Z.Z.Z.Z.Z.Z.Z.Z.Z.Z.Z.Z.Z.Z.Z.Z.Z.Z.Z.Z.Z.Z.Z.Z.o . . . . . . . . . o o . . . . . . Z.Z.Z.Z.Z.Z.Z.Z.Z.Z.Z.Z.Z.Z.Z.Z.Z.Z.Z.Z.Z.Z.Z.Z.Z.Z.Z.Z.Z.Z.Z.Z.Z.Z.Z.Z.Z.Z.Z.Z.Z.Z.Z.Z.Z.Z.Z.Z.Z.Z.Z.Z.Z.Z.Z.Z.Z.Z.Z.Z.Z.Z.Z.Z.Z.Z.Z.Z.Z.Z.Z.Z.Z.Z.Z.Z.Z.Z.Z.Z.Z.Z.Z.Z.Z.Z.Z.Z.Z.Z.Z.Z.Z.Z.Z.Z.Z.Z.Z.Z.Z.Z.Z.Z.Z.Z.Z.Z.Z.Z.Z.Z.Z.Z.Z.Z.Z.Z.Z.",
"Z.Z.Z.Z.Z.Z.Z.Z.Z.Z.Z.Z.Z.Z.Z.Z.Z.Z.Z.Z.Z.Z.Z.Z.Z.Z.Z.Z.Z.Z.Z.Z.Z.Z.Z.Z.Z.Z.Z.Z.Z.Z.Z.Z.Z.Z.Z.Z.Z.Z.Z.Z.Z.Z.Z.Z.Z.Z.Z.Z.Z.Z.Z.Z.Z.Z.Z.Z.Z.Z.Z.Z.Z.Z.Z.Z.Z.Z.Z.Z.Z.Z.Z.Z.Z.Z.Z.Z.Z.Z.Z.Z.Z.Z.Z.Z.Z.Z.Z.Z.Z.Z.Z.Z.Z.Z.Z.Z.Z.Z.o o o o o . . . o o . . . . . . . . . . . . . . . . . . . . . o o o o o Z.Z.Z.Z.Z.Z.Z.Z.Z.Z.Z.Z.Z.Z.Z.Z.Z.Z.Z.Z.Z.Z.Z.Z.Z.Z.Z.Z.Z.Z.Z.Z.Z.Z.Z.Z.Z.Z.Z.Z.Z.Z.Z.Z.Z.Z.Z.Z.Z.Z.Z.Z.Z.Z.Z.Z.Z.Z.Z.Z.Z.Z.Z.Z.Z.Z.Z.Z.Z.Z.Z.Z.Z.Z.Z.Z.Z.Z.Z.Z.Z.Z.Z.Z.Z.Z.Z.Z.Z.Z.Z.Z.Z.Z.Z.Z.Z.Z.Z.Z.Z.Z.Z.Z.Z.Z.Z.Z.Z.Z.",
"Z.Z.Z.Z.Z.Z.Z.Z.Z.Z.Z.Z.Z.Z.Z.Z.Z.Z.Z.Z.Z.Z.Z.Z.Z.Z.Z.Z.Z.Z.Z.Z.Z.Z.Z.Z.Z.Z.Z.Z.Z.Z.Z.Z.Z.Z.Z.Z.Z.Z.Z.Z.Z.Z.Z.Z.Z.Z.Z.Z.Z.Z.Z.Z.Z.Z.Z.Z.Z.Z.Z.Z.Z.Z.Z.Z.Z.Z.Z.Z.Z.Z.Z.Z.Z.Z.Z.Z.Z.Z.Z.Z.Z.Z.Z.Z.Z.Z.Z.Z.Z.Z.Z.Z.Z.o o o o o o o o o . . . o o o . . . . . . . . . . . . . . . . . . . . . . . . . . . . . . . o Z.Z.Z.Z.Z.Z.Z.Z.Z.Z.Z.Z.Z.Z.Z.Z.Z.Z.Z.Z.Z.Z.Z.Z.Z.Z.Z.Z.Z.Z.Z.Z.Z.Z.Z.Z.Z.Z.Z.Z.Z.Z.Z.Z.Z.Z.Z.Z.Z.Z.Z.Z.Z.Z.Z.Z.Z.Z.Z.Z.Z.Z.Z.Z.Z.Z.Z.Z.Z.Z.Z.Z.Z.Z.Z.Z.Z.Z.Z.Z.Z.Z.Z.Z.Z.Z.Z.Z.Z.Z.Z.Z.Z.Z.Z.Z.Z.Z.Z.Z.Z.Z.Z.Z.",
"Z.Z.Z.Z.Z.Z.Z.Z.Z.Z.Z.Z.Z.Z.Z.Z.Z.Z.Z.Z.Z.Z.Z.Z.Z.Z.Z.Z.Z.Z.Z.Z.Z.Z.Z.Z.Z.Z.Z.Z.Z.Z.Z.Z.Z.Z.Z.Z.Z.Z.Z.Z.Z.Z.Z.Z.Z.Z.Z.Z.Z.Z.Z.Z.Z.Z.Z.Z.Z.Z.Z.Z.Z.Z.Z.Z.Z.Z.Z.Z.Z.Z.Z.Z.Z.Z.Z.Z.Z.Z.Z.Z.Z.Z.Z.Z.Z.Z.Z.Z.o o . . . . . o o o o o o o o . o o o o . . . . . . . . . . . . . . . . . . . . o o o . . . . . . . . . . . o o Z.Z.Z.Z.Z.Z.Z.Z.Z.Z.Z.Z.Z.Z.Z.Z.Z.Z.Z.Z.Z.Z.Z.Z.Z.Z.Z.Z.Z.Z.Z.Z.Z.Z.Z.Z.Z.Z.Z.Z.Z.Z.Z.Z.Z.Z.Z.Z.Z.Z.Z.Z.Z.Z.Z.Z.Z.Z.Z.Z.Z.Z.Z.Z.Z.Z.Z.Z.Z.Z.Z.Z.Z.Z.Z.Z.Z.Z.Z.Z.Z.Z.Z.Z.Z.Z.Z.Z.Z.Z.Z.Z.Z.Z.Z.Z.Z.Z.Z.Z.",
"Z.Z.Z.Z.Z.Z.Z.Z.Z.Z.Z.Z.Z.Z.Z.Z.Z.Z.Z.Z.Z.Z.Z.Z.Z.Z.Z.Z.Z.Z.Z.Z.Z.Z.Z.Z.Z.Z.Z.Z.Z.Z.Z.Z.Z.Z.Z.Z.Z.Z.Z.Z.Z.Z.Z.Z.Z.Z.Z.Z.Z.Z.Z.Z.Z.Z.Z.Z.Z.Z.Z.Z.Z.Z.Z.Z.Z.Z.Z.Z.Z.Z.Z.Z.Z.Z.Z.Z.Z.Z.Z.Z.Z.Z.Z.Z.. . . . . . . . . . . o o o o o o o o . o . . . . . . . . . . . . . . . . o . . . . . o o o o . . . . . . . . . . . . . . o o o Z.Z.Z.Z.Z.Z.Z.Z.Z.Z.Z.Z.Z.Z.Z.Z.Z.Z.Z.Z.Z.Z.Z.Z.Z.Z.Z.Z.Z.Z.Z.Z.Z.Z.Z.Z.Z.Z.Z.Z.Z.Z.Z.Z.Z.Z.Z.Z.Z.Z.Z.Z.Z.Z.Z.Z.Z.Z.Z.Z.Z.Z.Z.Z.Z.Z.Z.Z.Z.Z.Z.Z.Z.Z.Z.Z.Z.Z.Z.Z.Z.Z.Z.Z.Z.Z.Z.Z.Z.Z.Z.Z.Z.Z.Z.Z.",
"Z.Z.Z.Z.Z.Z.Z.Z.Z.Z.Z.Z.Z.Z.Z.Z.Z.Z.Z.Z.Z.Z.Z.Z.Z.Z.Z.Z.Z.Z.Z.Z.Z.Z.Z.Z.Z.Z.Z.Z.Z.Z.Z.Z.Z.Z.Z.Z.Z.Z.Z.Z.Z.Z.Z.Z.Z.Z.Z.Z.Z.Z.Z.Z.Z.Z.Z.Z.Z.Z.Z.Z.Z.Z.Z.Z.Z.Z.Z.Z.Z.Z.Z.Z.Z.Z.Z.Z.Z.Z.Z.Z.Z.. . . . . . . . . . . . . . . o o o o o o o o . . . . . . . . . . . . . . . . . o o o o . o o o o o . . . . o o o . . . . . o . . . . . . o Z.Z.Z.Z.Z.Z.Z.Z.Z.Z.Z.Z.Z.Z.Z.Z.Z.Z.Z.Z.Z.Z.Z.Z.Z.Z.Z.Z.Z.Z.Z.Z.Z.Z.Z.Z.Z.Z.Z.Z.Z.Z.Z.Z.Z.Z.Z.Z.Z.Z.Z.Z.Z.Z.Z.Z.Z.Z.Z.Z.Z.Z.Z.Z.Z.Z.Z.Z.Z.Z.Z.Z.Z.Z.Z.Z.Z.Z.Z.Z.Z.Z.Z.Z.Z.Z.Z.Z.Z.Z.Z.Z.Z.",
"Z.Z.Z.Z.Z.Z.Z.Z.Z.Z.Z.Z.Z.Z.Z.Z.Z.Z.Z.Z.Z.Z.Z.Z.Z.Z.Z.Z.Z.Z.Z.Z.Z.Z.Z.Z.Z.Z.Z.Z.Z.Z.Z.Z.Z.Z.Z.Z.Z.Z.Z.Z.Z.Z.Z.Z.Z.Z.Z.Z.Z.Z.Z.Z.Z.Z.Z.Z.Z.Z.Z.Z.Z.Z.Z.Z.Z.Z.Z.Z.Z.Z.Z.Z.Z.Z.Z.Z.Z.Z.o o . . . . . . . . . . . . . . o o o o o o o o o o . . . . o o o o o . . . . . . . o o o o o o o o o . . . . . . o o o o o . o o o o o o . . . . o o o o Z.Z.Z.Z.Z.Z.Z.Z.Z.Z.Z.Z.Z.Z.Z.Z.Z.Z.Z.Z.Z.Z.Z.Z.Z.Z.Z.Z.Z.Z.Z.Z.Z.Z.Z.Z.Z.Z.Z.Z.Z.Z.Z.Z.Z.Z.Z.Z.Z.Z.Z.Z.Z.Z.Z.Z.Z.Z.Z.Z.Z.Z.Z.Z.Z.Z.Z.Z.Z.Z.Z.Z.Z.Z.Z.Z.Z.Z.Z.Z.Z.Z.Z.Z.Z.Z.Z.Z.Z.",
"Z.Z.Z.Z.Z.Z.Z.Z.Z.Z.Z.Z.Z.Z.Z.Z.Z.Z.Z.Z.Z.Z.Z.Z.Z.Z.Z.Z.Z.Z.Z.Z.Z.Z.Z.Z.Z.Z.Z.Z.Z.Z.Z.Z.Z.Z.Z.Z.Z.Z.Z.Z.Z.Z.Z.Z.Z.Z.Z.Z.Z.Z.Z.Z.Z.Z.Z.Z.Z.Z.Z.Z.Z.Z.Z.Z.Z.Z.Z.Z.Z.Z.Z.Z.Z.Z.Z.. . . . . . . . . o o o o o o o o o o o . o o o o o o o . . . . . o o o o o o . . . . . . . o o o o o o o . . . . . . . o o o o o o o o o o o o o o . . . . o o o o Z.Z.Z.Z.Z.Z.Z.Z.Z.Z.Z.Z.Z.Z.Z.Z.Z.Z.Z.Z.Z.Z.Z.Z.Z.Z.Z.Z.Z.Z.Z.Z.Z.Z.Z.Z.Z.Z.Z.Z.Z.Z.Z.Z.Z.Z.Z.Z.Z.Z.Z.Z.Z.Z.Z.Z.Z.Z.Z.Z.Z.Z.Z.Z.Z.Z.Z.Z.Z.Z.Z.Z.Z.Z.Z.Z.Z.Z.Z.Z.Z.Z.Z.Z.Z.Z.Z.",
"Z.Z.Z.Z.Z.Z.Z.Z.Z.Z.Z.Z.Z.Z.Z.Z.Z.Z.Z.Z.Z.Z.Z.Z.Z.Z.Z.Z.Z.Z.Z.Z.Z.Z.Z.Z.Z.Z.Z.Z.Z.Z.Z.Z.Z.Z.Z.Z.Z.Z.Z.Z.Z.Z.Z.Z.Z.Z.Z.Z.Z.Z.Z.Z.Z.Z.Z.Z.Z.Z.Z.Z.Z.Z.Z.Z.Z.Z.Z.Z.Z.Z.Z.Z.. . . . . . . o o o . o o o o o o o o o o o o . . o o o o . . . . . o o o o o o o o o . . . . . . . o o o o o . . . . . . . o o o o o o o o o o o o o o o o o o . o o o o o o o Z.Z.Z.Z.Z.Z.Z.Z.Z.Z.Z.Z.Z.Z.Z.Z.Z.Z.Z.Z.Z.Z.Z.Z.Z.Z.Z.Z.Z.Z.Z.Z.Z.Z.Z.Z.Z.Z.Z.Z.Z.Z.Z.Z.Z.Z.Z.Z.Z.Z.Z.Z.Z.Z.Z.Z.Z.Z.Z.Z.Z.Z.Z.Z.Z.Z.Z.Z.Z.Z.Z.Z.Z.Z.Z.Z.Z.Z.Z.Z.Z.Z.Z.Z.",
"Z.Z.Z.Z.Z.Z.Z.Z.Z.Z.Z.Z.Z.Z.Z.Z.Z.Z.Z.Z.Z.Z.Z.Z.Z.Z.Z.Z.Z.Z.Z.Z.Z.Z.Z.Z.Z.Z.Z.Z.Z.Z.Z.Z.Z.Z.Z.Z.Z.Z.Z.Z.Z.Z.Z.Z.Z.Z.Z.Z.Z.Z.Z.Z.Z.Z.Z.Z.Z.Z.Z.Z.Z.Z.Z.Z.Z.Z.Z.Z.Z.Z.. . . . . . . . . o o o o o o o o o o o o o o o . . . o o o o . . . . . . . o o + + + @ @ @ @ @ @ @ + o o o o . . . . . . . . o o o o o o o o o o o o o o o o o . o o o o o o o o . . . Z.Z.Z.Z.Z.Z.Z.Z.Z.Z.Z.Z.Z.Z.Z.Z.Z.Z.Z.Z.Z.Z.Z.Z.Z.Z.Z.Z.Z.Z.Z.Z.Z.Z.Z.Z.Z.Z.Z.Z.Z.Z.Z.Z.Z.Z.Z.Z.Z.Z.Z.Z.Z.Z.Z.Z.Z.Z.Z.Z.Z.Z.Z.Z.Z.Z.Z.Z.Z.Z.Z.Z.Z.Z.Z.Z.Z.Z.Z.Z.Z.Z.",
"Z.Z.Z.Z.Z.Z.Z.Z.Z.Z.Z.Z.Z.Z.Z.Z.Z.Z.Z.Z.Z.Z.Z.Z.Z.Z.Z.Z.Z.Z.Z.Z.Z.Z.Z.Z.Z.Z.Z.Z.Z.Z.Z.Z.Z.Z.Z.Z.Z.Z.Z.Z.Z.Z.Z.Z.Z.Z.Z.Z.Z.Z.Z.Z.Z.Z.Z.Z.Z.Z.Z.Z.Z.Z.Z.Z.Z.Z.Z.o . . . . . . . . . . o . o o o o o o o o o o o o . o . . . . . . o @ & > 5 0 t s h l v m C C Y Y Y F F C m v z l f u e 5 < - $ + o . . . o o o o o o o o o o o . . . o o o o o o o o o . . . . . . Z.Z.Z.Z.Z.Z.Z.Z.Z.Z.Z.Z.Z.Z.Z.Z.Z.Z.Z.Z.Z.Z.Z.Z.Z.Z.Z.Z.Z.Z.Z.Z.Z.Z.Z.Z.Z.Z.Z.Z.Z.Z.Z.Z.Z.Z.Z.Z.Z.Z.Z.Z.Z.Z.Z.Z.Z.Z.Z.Z.Z.Z.Z.Z.Z.Z.Z.Z.Z.Z.Z.Z.Z.Z.Z.Z.Z.Z.Z.",
"Z.Z.Z.Z.Z.Z.Z.Z.Z.Z.Z.Z.Z.Z.Z.Z.Z.Z.Z.Z.Z.Z.Z.Z.Z.Z.Z.Z.Z.Z.Z.Z.Z.Z.Z.Z.Z.Z.Z.Z.Z.Z.Z.Z.Z.Z.Z.Z.Z.Z.Z.Z.Z.Z.Z.Z.Z.Z.Z.Z.Z.Z.Z.Z.Z.Z.Z.Z.Z.Z.Z.Z.Z.Z.Z.Z.Z.o o . . . . . . . . . o . . . . o o o o o o o o o o . . . o % : 5 r g v E ] =.4.t.a.c.c.c.c.c.c.c.c.c.c.c.c.c.c.c.c.g.c.f.t.8.,.+.Q m l u 6 > % o . . . o o o o o o o . . . . o o o o o o o o . . . . . o o Z.Z.Z.Z.Z.Z.Z.Z.Z.Z.Z.Z.Z.Z.Z.Z.Z.Z.Z.Z.Z.Z.Z.Z.Z.Z.Z.Z.Z.Z.Z.Z.Z.Z.Z.Z.Z.Z.Z.Z.Z.Z.Z.Z.Z.Z.Z.Z.Z.Z.Z.Z.Z.Z.Z.Z.Z.Z.Z.Z.Z.Z.Z.Z.Z.Z.Z.Z.Z.Z.Z.Z.Z.Z.Z.Z.Z.",
"Z.Z.Z.Z.Z.Z.Z.Z.Z.Z.Z.Z.Z.Z.Z.Z.Z.Z.Z.Z.Z.Z.Z.Z.Z.Z.Z.Z.Z.Z.Z.Z.Z.Z.Z.Z.Z.Z.Z.Z.Z.Z.Z.Z.Z.Z.Z.Z.Z.Z.Z.Z.Z.Z.Z.Z.Z.Z.Z.Z.Z.Z.Z.Z.Z.Z.Z.Z.Z.Z.Z.Z.Z.Z.Z.o o . . . . . . . . . . . . . . . . o o o o o o o o o @ - 6 i z Q =.8.a.c.c.c.c.c.c.c.c.c.c.g.g.c.c.c.c.c.c.c.c.c.c.c.g.g.c.c.c.c.c.c.c.c.c.f.8.=._ v s 8 : @ o . . o o o o o o o o o o o o o . . . . . . o o o . . Z.Z.Z.Z.Z.Z.Z.Z.Z.Z.Z.Z.Z.Z.Z.Z.Z.Z.Z.Z.Z.Z.Z.Z.Z.Z.Z.Z.Z.Z.Z.Z.Z.Z.Z.Z.Z.Z.Z.Z.Z.Z.Z.Z.Z.Z.Z.Z.Z.Z.Z.Z.Z.Z.Z.Z.Z.Z.Z.Z.Z.Z.Z.Z.Z.Z.Z.Z.Z.Z.Z.Z.Z.Z.Z.",
"Z.Z.Z.Z.Z.Z.Z.Z.Z.Z.Z.Z.Z.Z.Z.Z.Z.Z.Z.Z.Z.Z.Z.Z.Z.Z.Z.Z.Z.Z.Z.Z.Z.Z.Z.Z.Z.Z.Z.Z.Z.Z.Z.Z.Z.Z.Z.Z.Z.Z.Z.Z.Z.Z.Z.Z.Z.Z.Z.Z.Z.Z.Z.Z.Z.Z.Z.Z.Z.Z.Z.Z.Z.. . . . . . . . . . . . . . . . . . . . o o o o o + - 0 g C #.8.c.c.c.c.c.c.c.c.c.c.c.c.c.c.c.c.c.c.c.c.c.c.c.c.c.c.c.c.c.c.c.c.c.c.c.c.c.c.c.c.c.c.c.c.c.c.0.$.Y h q : @ o . o o o o o o o o . . . . . . . . o o o . . . . Z.Z.Z.Z.Z.Z.Z.Z.Z.Z.Z.Z.Z.Z.Z.Z.Z.Z.Z.Z.Z.Z.Z.Z.Z.Z.Z.Z.Z.Z.Z.Z.Z.Z.Z.Z.Z.Z.Z.Z.Z.Z.Z.Z.Z.Z.Z.Z.Z.Z.Z.Z.Z.Z.Z.Z.Z.Z.Z.Z.Z.Z.Z.Z.Z.Z.Z.Z.Z.Z.Z.Z.Z.",
"Z.Z.Z.Z.Z.Z.Z.Z.Z.Z.Z.Z.Z.Z.Z.Z.Z.Z.Z.Z.Z.Z.Z.Z.Z.Z.Z.Z.Z.Z.Z.Z.Z.Z.Z.Z.Z.Z.Z.Z.Z.Z.Z.Z.Z.Z.Z.Z.Z.Z.Z.Z.Z.Z.Z.Z.Z.Z.Z.Z.Z.Z.Z.Z.Z.Z.Z.Z.Z.Z.Z.. . . . . . o . . . o . . o . . . . o o o . . o % 3 a V #.t.c.c.c.c.c.c.c.c.c.c.c.c.c.c.c.c.c.c.c.c.c.c.c.c.c.c.c.c.c.c.c.c.c.c.c.c.c.c.c.c.c.c.c.c.c.c.c.c.c.c.c.c.c.c.t.=.C d 5 % o . . o o o o . . . . . . . o o o o . . . . o . Z.Z.Z.Z.Z.Z.Z.Z.Z.Z.Z.Z.Z.Z.Z.Z.Z.Z.Z.Z.Z.Z.Z.Z.Z.Z.Z.Z.Z.Z.Z.Z.Z.Z.Z.Z.Z.Z.Z.Z.Z.Z.Z.Z.Z.Z.Z.Z.Z.Z.Z.Z.Z.Z.Z.Z.Z.Z.Z.Z.Z.Z.Z.Z.Z.Z.Z.Z.Z.Z.Z.",
"Z.Z.Z.Z.Z.Z.Z.Z.Z.Z.Z.Z.Z.Z.Z.Z.Z.Z.Z.Z.Z.Z.Z.Z.Z.Z.Z.Z.Z.Z.Z.Z.Z.Z.Z.Z.Z.Z.Z.Z.Z.Z.Z.Z.Z.Z.Z.Z.Z.Z.Z.Z.Z.Z.Z.Z.Z.Z.Z.Z.Z.Z.Z.Z.Z.Z.Z.Z.Z.o . . . . . . . o o . o o o o o o o o o o . o % 6 h Q 4.c.c.c.c.c.c.c.c.c.c.c.c.c.c.c.c.c.c.c.c.c.c.c.c.c.c.c.c.c.c.c.c.c.c.c.c.c.c.c.c.c.c.c.c.c.c.c.c.c.c.c.c.c.c.c.c.c.c.c.c.c.c.4.Q h 6 % o . o o o . . . . . o o o . . . . . . . . . Z.Z.Z.Z.Z.Z.Z.Z.Z.Z.Z.Z.Z.Z.Z.Z.Z.Z.Z.Z.Z.Z.Z.Z.Z.Z.Z.Z.Z.Z.Z.Z.Z.Z.Z.Z.Z.Z.Z.Z.Z.Z.Z.Z.Z.Z.Z.Z.Z.Z.Z.Z.Z.Z.Z.Z.Z.Z.Z.Z.Z.Z.Z.Z.Z.Z.Z.Z.Z.Z.",
"Z.Z.Z.Z.Z.Z.Z.Z.Z.Z.Z.Z.Z.Z.Z.Z.Z.Z.Z.Z.Z.Z.Z.Z.Z.Z.Z.Z.Z.Z.Z.Z.Z.Z.Z.Z.Z.Z.Z.Z.Z.Z.Z.Z.Z.Z.Z.Z.Z.Z.Z.Z.Z.Z.Z.Z.Z.Z.Z.Z.Z.Z.Z.Z.Z.Z.Z.Z.. . . . . . . . o o o o o o o o o o o . . $ 6 h _ 8.c.c.c.c.c.c.c.c.c.c.c.c.c.c.c.c.c.c.c.c.c.c.c.c.c.c.c.c.c.c.c.c.c.c.c.c.c.c.c.c.c.c.c.c.c.c.c.c.c.c.c.c.c.c.c.c.c.c.c.c.c.c.c.c.c.c.c.c.8.Q g 5 $ . . o . . . . o o o . . . o . . . . . . o Z.Z.Z.Z.Z.Z.Z.Z.Z.Z.Z.Z.Z.Z.Z.Z.Z.Z.Z.Z.Z.Z.Z.Z.Z.Z.Z.Z.Z.Z.Z.Z.Z.Z.Z.Z.Z.Z.Z.Z.Z.Z.Z.Z.Z.Z.Z.Z.Z.Z.Z.Z.Z.Z.Z.Z.Z.Z.Z.Z.Z.Z.Z.Z.Z.Z.Z.Z.",
"Z.Z.Z.Z.Z.Z.Z.Z.Z.Z.Z.Z.Z.Z.Z.Z.Z.Z.Z.Z.Z.Z.Z.Z.Z.Z.Z.Z.Z.Z.Z.Z.Z.Z.Z.Z.Z.Z.Z.Z.Z.Z.Z.Z.Z.Z.Z.Z.Z.Z.Z.Z.Z.Z.Z.Z.Z.Z.Z.Z.Z.Z.Z.Z.Z.Z.. . . . . . . o . o . o o o o o o o o . o > i E 4.c.c.c.c.c.c.c.c.c.c.c.c.c.c.c.c.c.c.c.c.c.c.c.c.c.c.c.c.c.c.c.c.c.c.f.a.a.a.a.f.f.c.c.c.c.c.c.c.c.c.c.c.c.c.c.c.c.c.c.c.c.c.c.c.c.c.c.c.c.c.c.c.c.c.<.F u : o . . . . o o o . . . . . . . . . . . o o Z.Z.Z.Z.Z.Z.Z.Z.Z.Z.Z.Z.Z.Z.Z.Z.Z.Z.Z.Z.Z.Z.Z.Z.Z.Z.Z.Z.Z.Z.Z.Z.Z.Z.Z.Z.Z.Z.Z.Z.Z.Z.Z.Z.Z.Z.Z.Z.Z.Z.Z.Z.Z.Z.Z.Z.Z.Z.Z.Z.Z.Z.Z.Z.Z.Z.",
"Z.Z.Z.Z.Z.Z.Z.Z.Z.Z.Z.Z.Z.Z.Z.Z.Z.Z.Z.Z.Z.Z.Z.Z.Z.Z.Z.Z.Z.Z.Z.Z.Z.Z.Z.Z.Z.Z.Z.Z.Z.Z.Z.Z.Z.Z.Z.Z.Z.Z.Z.Z.Z.Z.Z.Z.Z.Z.Z.Z.Z.Z.Z.Z.. . . . . . . o o o o o o o o o o o o . $ 8 z $.f.c.c.c.c.c.c.c.c.c.c.c.c.c.c.c.c.c.c.c.c.c.c.c.c.a.8.:.X.Q F v z h d a u t r r r r r u i s h z v C Q { -.8.t.c.c.c.c.c.c.c.c.c.c.c.c.c.c.c.c.c.c.c.c.c.c.c.c.a.+.z 5 @ . o o . . . . . . . . . . . . . . . o Z.Z.Z.Z.Z.Z.Z.Z.Z.Z.Z.Z.Z.Z.Z.Z.Z.Z.Z.Z.Z.Z.Z.Z.Z.Z.Z.Z.Z.Z.Z.Z.Z.Z.Z.Z.Z.Z.Z.Z.Z.Z.Z.Z.Z.Z.Z.Z.Z.Z.Z.Z.Z.Z.Z.Z.Z.Z.Z.Z.Z.Z.Z.Z.Z.",
"Z.Z.Z.Z.Z.Z.Z.Z.Z.Z.Z.Z.Z.Z.Z.Z.Z.Z.Z.Z.Z.Z.Z.Z.Z.Z.Z.Z.Z.Z.Z.Z.Z.Z.Z.Z.Z.Z.Z.Z.Z.Z.Z.Z.Z.Z.Z.Z.Z.Z.Z.Z.Z.Z.Z.Z.Z.Z.Z.Z.Z.Z.Z.. . . . . . . . o o o o o o o o o . o = y E 8.c.c.c.c.c.c.c.c.c.c.c.c.c.c.c.c.c.c.c.c.c.a.<.{ F z s e 6 , & $ @ o o . . . . . . . . . . . . . o o o @ $ & > 5 e s z F { <.a.c.c.c.c.c.c.c.c.c.c.c.c.c.c.c.c.c.c.c.c.c.4.V e & . . . . . . . . . . . o o . . . . . o Z.Z.Z.Z.Z.Z.Z.Z.Z.Z.Z.Z.Z.Z.Z.Z.Z.Z.Z.Z.Z.Z.Z.Z.Z.Z.Z.Z.Z.Z.Z.Z.Z.Z.Z.Z.Z.Z.Z.Z.Z.Z.Z.Z.Z.Z.Z.Z.Z.Z.Z.Z.Z.Z.Z.Z.Z.Z.Z.Z.Z.Z.Z.",
"Z.Z.Z.Z.Z.Z.Z.Z.Z.Z.Z.Z.Z.Z.Z.Z.Z.Z.Z.Z.Z.Z.Z.Z.Z.Z.Z.Z.Z.Z.Z.Z.Z.Z.Z.Z.Z.Z.Z.Z.Z.Z.Z.Z.Z.Z.Z.Z.Z.Z.Z.Z.Z.Z.Z.Z.Z.Z.Z.Z.Z.o . . . . . . . . . . o o o o o o . o : d ] a.c.c.c.c.c.c.c.c.c.c.c.c.c.c.c.c.c.c.c.8.+.V g e 2 & @ . . . . . . . . . . o . . . . . . . . . . . o o . . . . . . . . . o @ & 2 e h C +.8.c.c.c.c.c.c.c.c.c.c.c.c.c.c.c.c.c.c.c.t.Q y & . . . . . . . . . o o o . . . . . . Z.Z.Z.Z.Z.Z.Z.Z.Z.Z.Z.Z.Z.Z.Z.Z.Z.Z.Z.Z.Z.Z.Z.Z.Z.Z.Z.Z.Z.Z.Z.Z.Z.Z.Z.Z.Z.Z.Z.Z.Z.Z.Z.Z.Z.Z.Z.Z.Z.Z.Z.Z.Z.Z.Z.Z.Z.Z.Z.Z.Z.Z.",
"Z.Z.Z.Z.Z.Z.Z.Z.Z.Z.Z.Z.Z.Z.Z.Z.Z.Z.Z.Z.Z.Z.Z.Z.Z.Z.Z.Z.Z.Z.Z.Z.Z.Z.Z.Z.Z.Z.Z.Z.Z.Z.Z.Z.Z.Z.Z.Z.Z.Z.Z.Z.Z.Z.Z.Z.Z.Z.Z.Z.. . . . . . . . . o . . . . o o o o , h +.f.c.c.c.c.c.c.c.c.c.c.c.c.c.c.c.c.c.0.{ b a 5 * + . . . . . . . . . . . . . . . o o . . . . . . . . . . o o . . . . . . . . . . . . . . . @ - 6 s b X.t.c.c.c.c.c.c.c.c.c.c.c.c.c.c.c.c.c.t.' i & . . . o . . . . . . . . . . . . . . Z.Z.Z.Z.Z.Z.Z.Z.Z.Z.Z.Z.Z.Z.Z.Z.Z.Z.Z.Z.Z.Z.Z.Z.Z.Z.Z.Z.Z.Z.Z.Z.Z.Z.Z.Z.Z.Z.Z.Z.Z.Z.Z.Z.Z.Z.Z.Z.Z.Z.Z.Z.Z.Z.Z.Z.Z.Z.Z.Z.",
"Z.Z.Z.Z.Z.Z.Z.Z.Z.Z.Z.Z.Z.Z.Z.Z.Z.Z.Z.Z.Z.Z.Z.Z.Z.Z.Z.Z.Z.Z.Z.Z.Z.Z.Z.Z.Z.Z.Z.Z.Z.Z.Z.Z.Z.Z.Z.Z.Z.Z.Z.Z.Z.Z.Z.Z.Z.Z.. . . . . . . . . . o . . o . . . o : h $.c.c.c.c.c.c.c.c.c.c.c.c.c.c.c.c.c.,.Q g 7 = + . . . . o o o . . . . . . . . . . o o o . . . . . . . . . . . o o o . . . . . . . . . . . . o o . . . . + - 0 h Q 4.c.c.c.c.c.c.c.c.c.c.c.c.c.c.c.c.a.' y & . . o o . . . . . . . . . . . . . Z.Z.Z.Z.Z.Z.Z.Z.Z.Z.Z.Z.Z.Z.Z.Z.Z.Z.Z.Z.Z.Z.Z.Z.Z.Z.Z.Z.Z.Z.Z.Z.Z.Z.Z.Z.Z.Z.Z.Z.Z.Z.Z.Z.Z.Z.Z.Z.Z.Z.Z.Z.Z.Z.Z.Z.Z.Z.Z.",
"Z.Z.Z.Z.Z.Z.Z.Z.Z.Z.Z.Z.Z.Z.Z.Z.Z.Z.Z.Z.Z.Z.Z.Z.Z.Z.Z.Z.Z.Z.Z.Z.Z.Z.Z.Z.Z.Z.Z.Z.Z.Z.Z.Z.Z.Z.Z.Z.Z.Z.Z.Z.Z.Z.Z.Z.Z.. . . . . . . . . . o o o o o . . - d +.c.c.c.c.c.c.c.c.c.c.c.c.c.c.c.c.,.Y s 2 $ . . . o o . . o o o o . . . . . . . . . . o o . o . . . . . . . . . . . o o o . . . . . . . . . o o o o o o o o o o o o % 3 d Q 4.c.c.c.c.c.c.c.c.c.c.c.c.c.c.c.a.Q e @ . . . . . . . . . . . . . . . . . Z.Z.Z.Z.Z.Z.Z.Z.Z.Z.Z.Z.Z.Z.Z.Z.Z.Z.Z.Z.Z.Z.Z.Z.Z.Z.Z.Z.Z.Z.Z.Z.Z.Z.Z.Z.Z.Z.Z.Z.Z.Z.Z.Z.Z.Z.Z.Z.Z.Z.Z.Z.Z.Z.Z.Z.Z.",
"Z.Z.Z.Z.Z.Z.Z.Z.Z.Z.Z.Z.Z.Z.Z.Z.Z.Z.Z.Z.Z.Z.Z.Z.Z.Z.Z.Z.Z.Z.Z.Z.Z.Z.Z.Z.Z.Z.Z.Z.Z.Z.Z.Z.Z.Z.Z.Z.Z.Z.Z.Z.Z.Z.Z.Z.. . . . . o o o o . o o o o o . % y ] f.c.c.c.c.c.c.c.c.c.c.c.c.c.c.8.Q f 3 $ o . o o o o o o . . . . o o . . o o o o . . o o . . . . . . . . . . . . o o o o o o . . . . . . . . . o o o o o o o o o o o o . . o % 5 h ' t.c.c.c.c.c.c.c.c.c.c.c.c.c.c.t.m 5 . . . o o o o . . . . . . . . o o Z.Z.Z.Z.Z.Z.Z.Z.Z.Z.Z.Z.Z.Z.Z.Z.Z.Z.Z.Z.Z.Z.Z.Z.Z.Z.Z.Z.Z.Z.Z.Z.Z.Z.Z.Z.Z.Z.Z.Z.Z.Z.Z.Z.Z.Z.Z.Z.Z.Z.Z.Z.Z.Z.Z.Z.",
"Z.Z.Z.Z.Z.Z.Z.Z.Z.Z.Z.Z.Z.Z.Z.Z.Z.Z.Z.Z.Z.Z.Z.Z.Z.Z.Z.Z.Z.Z.Z.Z.Z.Z.Z.Z.Z.Z.Z.Z.Z.Z.Z.Z.Z.Z.Z.Z.Z.Z.Z.Z.Z.Z.. . . . . . . o o o o o o o o o + 8 F t.c.c.c.c.c.c.c.c.c.c.c.c.c.f.+.l 7 % o o o o o o o o o o . . . . o . . o o o o o o o o o o . . . . . . . . . . . . . o o o o o . . . . . . . . . o o o o o o o o o o o o o o o o . o & e b :.c.c.c.c.c.c.c.c.c.c.c.c.c.c.,.j : . . o o o . . . . . . o o o o . Z.Z.Z.Z.Z.Z.Z.Z.Z.Z.Z.Z.Z.Z.Z.Z.Z.Z.Z.Z.Z.Z.Z.Z.Z.Z.Z.Z.Z.Z.Z.Z.Z.Z.Z.Z.Z.Z.Z.Z.Z.Z.Z.Z.Z.Z.Z.Z.Z.Z.Z.Z.Z.Z.Z.",
"Z.Z.Z.Z.Z.Z.Z.Z.Z.Z.Z.Z.Z.Z.Z.Z.Z.Z.Z.Z.Z.Z.Z.Z.Z.Z.Z.Z.Z.Z.Z.Z.Z.Z.Z.Z.Z.Z.Z.Z.Z.Z.Z.Z.Z.Z.Z.Z.Z.Z.Z.Z.Z.. . . . . . . o o o o o o o . . > z 4.c.c.c.c.c.c.c.c.c.c.c.c.c.8.Q i : . . . o o o o o o o o o o o o . . o . . . o . o o o o o o o . . . . . . . . . . o . o o o o o o o . . . . . . . . . o o o o o o o o o o . o o o o o o o . + 2 g { f.c.c.c.c.c.c.c.c.c.c.c.c.c.{ y % o o o o . . . . . o o o . . . . Z.Z.Z.Z.Z.Z.Z.Z.Z.Z.Z.Z.Z.Z.Z.Z.Z.Z.Z.Z.Z.Z.Z.Z.Z.Z.Z.Z.Z.Z.Z.Z.Z.Z.Z.Z.Z.Z.Z.Z.Z.Z.Z.Z.Z.Z.Z.Z.Z.Z.Z.Z.Z.",
"Z.Z.Z.Z.Z.Z.Z.Z.Z.Z.Z.Z.Z.Z.Z.Z.Z.Z.Z.Z.Z.Z.Z.Z.Z.Z.Z.Z.Z.Z.Z.Z.Z.Z.Z.Z.Z.Z.Z.Z.Z.Z.Z.Z.Z.Z.Z.Z.Z.Z.Z.Z.. . . . . o . . o o o o o o . % u X.c.c.c.c.c.c.c.c.c.c.c.c.c.4.m 0 % . . . . . . o o o o o o o o o o o . o o . . . o o o o o o o o . . . . . . . . . . o . . o o o o o o . . . . . . . . o o o o o o o o o o o o o . o . o o o o o o . o - i _ t.c.c.c.c.c.c.c.c.c.c.c.c.t.V 3 o . o . . . . . o o o o . . . . Z.Z.Z.Z.Z.Z.Z.Z.Z.Z.Z.Z.Z.Z.Z.Z.Z.Z.Z.Z.Z.Z.Z.Z.Z.Z.Z.Z.Z.Z.Z.Z.Z.Z.Z.Z.Z.Z.Z.Z.Z.Z.Z.Z.Z.Z.Z.Z.Z.Z.Z.Z.",
"Z.Z.Z.Z.Z.Z.Z.Z.Z.Z.Z.Z.Z.Z.Z.Z.Z.Z.Z.Z.Z.Z.Z.Z.Z.Z.Z.Z.Z.Z.Z.Z.Z.Z.Z.Z.Z.Z.Z.Z.Z.Z.Z.Z.Z.Z.Z.Z.Z.Z.o . . . . . . o o o o o o o o o 3 V t.c.c.c.c.c.c.c.c.c.c.c.c.,.x 5 @ . . . . . . . . o o o o o o o o o o o o . o o o o . o o o o o o o . . . . o o . . . . . . o o o o o o o . . . . . . . . o . . o o o o o o o o o o . . . . o o o o o o o . . & t Q t.c.c.c.c.c.c.c.c.c.c.c.c.=.s % . . . . . . . o o o . . . . . Z.Z.Z.Z.Z.Z.Z.Z.Z.Z.Z.Z.Z.Z.Z.Z.Z.Z.Z.Z.Z.Z.Z.Z.Z.Z.Z.Z.Z.Z.Z.Z.Z.Z.Z.Z.Z.Z.Z.Z.Z.Z.Z.Z.Z.Z.Z.Z.Z.Z.Z.",
"Z.Z.Z.Z.Z.Z.Z.Z.Z.Z.Z.Z.Z.Z.Z.Z.Z.Z.Z.Z.Z.Z.Z.Z.Z.Z.Z.Z.Z.Z.Z.Z.Z.Z.Z.Z.Z.Z.Z.Z.Z.Z.Z.Z.Z.Z.Z.Z.Z.. . . . . . . o o o o o o o o $ a =.c.c.c.c.c.c.c.c.c.c.c.c.,.v 3 + . o o . . . . . o . o . . . o o o o o o o . . o o o . . . . o . o o o . . . . o . o . . . . . . o o o o o . . . . . . . . . o o o o o o o o . . o o . . . . . . . o o o o . . . . . % r Q a.c.c.c.c.c.c.c.c.c.c.c.a.D < . . o . . . . . o o o . . . . Z.Z.Z.Z.Z.Z.Z.Z.Z.Z.Z.Z.Z.Z.Z.Z.Z.Z.Z.Z.Z.Z.Z.Z.Z.Z.Z.Z.Z.Z.Z.Z.Z.Z.Z.Z.Z.Z.Z.Z.Z.Z.Z.Z.Z.Z.Z.Z.Z.Z.",
"Z.Z.Z.Z.Z.Z.Z.Z.Z.Z.Z.Z.Z.Z.Z.Z.Z.Z.Z.Z.Z.Z.Z.Z.Z.Z.Z.Z.Z.Z.Z.Z.Z.Z.Z.Z.Z.Z.Z.Z.Z.Z.Z.Z.Z.Z.Z.Z.. . . . . o o o o o o o o o o 1 m t.c.c.c.c.c.c.c.c.c.c.c.8.b 5 + . o o o o . . . . . o . . . . . o o o o o o o . . o . . . . . o . . o . . . o o o o o o . . . . . o o o o o o o . . . . o . . o . o o o . o o . . . . . o . . . . . . o o o o . . o o . . . & u ] c.c.c.c.c.c.c.c.c.c.c.c.#.y @ . . . . . . o o o o o . . o Z.Z.Z.Z.Z.Z.Z.Z.Z.Z.Z.Z.Z.Z.Z.Z.Z.Z.Z.Z.Z.Z.Z.Z.Z.Z.Z.Z.Z.Z.Z.Z.Z.Z.Z.Z.Z.Z.Z.Z.Z.Z.Z.Z.Z.Z.Z.Z.Z.",
"Z.Z.Z.Z.Z.Z.Z.Z.Z.Z.Z.Z.Z.Z.Z.Z.Z.Z.Z.Z.Z.Z.Z.Z.Z.Z.Z.Z.Z.Z.Z.Z.Z.Z.Z.Z.Z.Z.Z.Z.Z.Z.Z.Z.Z.Z.Z.. . . . . o o o o o o o o o + r +.c.c.c.c.c.c.c.c.c.c.c.a.E 0 @ . . . o . . . . . . . o o o . . o o o o o o o o o . . o o o . o o o . o o . o o o o o o o o o . . . . . . o o o o o . . . o . . o . . o o o o . o . . . . . . . . . . . . . . . . . . . . o o . . . - f =.c.c.c.c.c.c.c.c.f.c.c.t.x - . . . . . . . o o o . o o o Z.Z.Z.Z.Z.Z.Z.Z.Z.Z.Z.Z.Z.Z.Z.Z.Z.Z.Z.Z.Z.Z.Z.Z.Z.Z.Z.Z.Z.Z.Z.Z.Z.Z.Z.Z.Z.Z.Z.Z.Z.Z.Z.Z.Z.Z.Z.Z.",
"Z.Z.Z.Z.Z.Z.Z.Z.Z.Z.Z.Z.Z.Z.Z.Z.Z.Z.Z.Z.Z.Z.Z.Z.Z.Z.Z.Z.Z.Z.Z.Z.Z.Z.Z.Z.Z.Z.Z.Z.Z.Z.Z.Z.Z.Z.. . . . . . o o o o o o o o & l 0.c.c.c.c.c.c.c.c.c.c.c.X.u % . . . . . . . . . . . . . . . o o . . o o o o o o o o . . o . . o o . . o . . o o o o o o o o o o . . . . . . o o . o . . . . o . . . o o o o o o . . . . . . . . . . . . . . . . . . . . . . o o . . . . o 2 v 0.c.c.c.c.c.c.c.c.c.c.c.Q 5 . . . . . . o o . . o o o . Z.Z.Z.Z.Z.Z.Z.Z.Z.Z.Z.Z.Z.Z.Z.Z.Z.Z.Z.Z.Z.Z.Z.Z.Z.Z.Z.Z.Z.Z.Z.Z.Z.Z.Z.Z.Z.Z.Z.Z.Z.Z.Z.Z.Z.Z.Z.",
"Z.Z.Z.Z.Z.Z.Z.Z.Z.Z.Z.Z.Z.Z.Z.Z.Z.Z.Z.Z.Z.Z.Z.Z.Z.Z.Z.Z.Z.Z.Z.Z.Z.Z.Z.Z.Z.Z.Z.Z.Z.Z.Z.Z.Z.. . . . . o o o o o o . o o 2 Y c.c.c.c.c.c.c.c.c.c.c.4.l : . . . . o . . . . . . . . . . . o o o o o o o o o o o o o . . o o o . . . . o o o o o o o o o o o o . o . . . . . . . o o . . . o o . . . o o o o o o . o o o . . . . . . . . . . . . . . . . o . o o . . . o o . @ e ] c.c.c.c.c.c.c.c.c.c.c.=.t + . . . . . o . . . . . . . Z.Z.Z.Z.Z.Z.Z.Z.Z.Z.Z.Z.Z.Z.Z.Z.Z.Z.Z.Z.Z.Z.Z.Z.Z.Z.Z.Z.Z.Z.Z.Z.Z.Z.Z.Z.Z.Z.Z.Z.Z.Z.Z.Z.Z.Z.",
"Z.Z.Z.Z.Z.Z.Z.Z.Z.Z.Z.Z.Z.Z.Z.Z.Z.Z.Z.Z.Z.Z.Z.Z.Z.Z.Z.Z.Z.Z.Z.Z.Z.Z.Z.Z.Z.Z.Z.Z.Z.Z.Z.Z.. . . . . . . . o o o . . o e +.c.c.c.c.c.c.c.c.c.c.f.Q 0 + . o . . . o . . . . . . . . . . . o o . . o o o o o o o o o . o o o o o . . o o o o o o o o o o o o . o . . . . . . . . . o . . . . . o . . o o o o o o . o o . o o . . . . . . . . . . . . . . . o o . o . . . o o o . - l 4.c.c.c.c.c.c.c.c.a.c.8.h % . . o o . . . . . . . . . Z.Z.Z.Z.Z.Z.Z.Z.Z.Z.Z.Z.Z.Z.Z.Z.Z.Z.Z.Z.Z.Z.Z.Z.Z.Z.Z.Z.Z.Z.Z.Z.Z.Z.Z.Z.Z.Z.Z.Z.Z.Z.Z.Z.Z.",
"Z.Z.Z.Z.Z.Z.Z.Z.Z.Z.Z.Z.Z.Z.Z.Z.Z.Z.Z.Z.Z.Z.Z.Z.Z.Z.Z.Z.Z.Z.Z.Z.Z.Z.Z.Z.Z.Z.Z.Z.Z.Z.Z.. . . . . . . . o o o o . @ s 4.c.c.c.c.c.c.c.c.c.c.,.g & . . o o o o . . . . . o . . . o o o o o o o o o o o o o o o o o o o o o o o o o o o o o o o o o o o o o o o . . . . . . . o o . . . . . . . . . o o o o o . o o o o o o o o . . . . . . . . . . . . . o o o o . . . . o o o . + 0 ' c.c.c.c.c.c.c.a.g.c.f.b - . o o . . . . . . . . . . . Z.Z.Z.Z.Z.Z.Z.Z.Z.Z.Z.Z.Z.Z.Z.Z.Z.Z.Z.Z.Z.Z.Z.Z.Z.Z.Z.Z.Z.Z.Z.Z.Z.Z.Z.Z.Z.Z.Z.Z.Z.Z.Z.",
"Z.Z.Z.Z.Z.Z.Z.Z.Z.Z.Z.Z.Z.Z.Z.Z.Z.Z.Z.Z.Z.Z.Z.Z.Z.Z.Z.Z.Z.Z.Z.Z.Z.Z.Z.Z.Z.Z.Z.Z.Z.Z.. . . . . . . . . o o o o & z t.c.c.c.c.c.c.c.c.c.c.Q 6 o . . . o o o o o o o o . o . . . o o o o o o o o o o o o o o o o o o o o o o o o o o o o o o o o o o o o o o o o o o . . . . . o . . . . . o o o o o o o o o o . . o o o o o o o . . . . . . . . . . . . o o . . . . . . . o o . . . - z t.c.c.c.c.c.c.f.f.c.c.Q < . . o . o . . . . . . . . Z.Z.Z.Z.Z.Z.Z.Z.Z.Z.Z.Z.Z.Z.Z.Z.Z.Z.Z.Z.Z.Z.Z.Z.Z.Z.Z.Z.Z.Z.Z.Z.Z.Z.Z.Z.Z.Z.Z.Z.Z.Z.Z.",
"Z.Z.Z.Z.Z.Z.Z.Z.Z.Z.Z.Z.Z.Z.Z.Z.Z.Z.Z.Z.Z.Z.Z.Z.Z.Z.Z.Z.Z.Z.Z.Z.Z.Z.Z.Z.Z.Z.Z.Z.Z.. . . . . . . o o o o o . - V c.c.c.c.c.c.c.c.c.c.8.l * . . . . . o o o o o o o o o o . . . o o o o o o o o o o o o o o o o o o o o o o o o o o o o o o o o o o o o o o o o o o o . . . o o o . . . . o . o o o o o o . o . . . o o o o o o . . . o o o . . . . . . . . . . o o . . . o o . . . . + t #.c.c.c.c.c.c.c.c.c.c.] 5 . o o o . . . . . . . . . Z.Z.Z.Z.Z.Z.Z.Z.Z.Z.Z.Z.Z.Z.Z.Z.Z.Z.Z.Z.Z.Z.Z.Z.Z.Z.Z.Z.Z.Z.Z.Z.Z.Z.Z.Z.Z.Z.Z.Z.Z.Z.",
"Z.Z.Z.Z.Z.Z.Z.Z.Z.Z.Z.Z.Z.Z.Z.Z.Z.Z.Z.Z.Z.Z.Z.Z.Z.Z.Z.Z.Z.Z.Z.Z.Z.Z.Z.Z.Z.Z.Z.Z.. . . . . . . . . o o o . 2 Q c.c.c.c.c.c.c.c.c.c.X.e + . o . . . . . o o o o o o . o o o o o o o o o o o o o o o o o o o o o o o o o o o o o o o o o o o . o o o o o o o o o o o o o o o o o o o o . o . o o o o o o o o . . . . o o o o o o . o o o o . . . o . . . . . . . o o . . o o . . . . . . . 2 Y c.c.c.c.c.c.c.c.c.c.$.q o . o o . . . . . . . . . Z.Z.Z.Z.Z.Z.Z.Z.Z.Z.Z.Z.Z.Z.Z.Z.Z.Z.Z.Z.Z.Z.Z.Z.Z.Z.Z.Z.Z.Z.Z.Z.Z.Z.Z.Z.Z.Z.Z.Z.Z.",
"Z.Z.Z.Z.Z.Z.Z.Z.Z.Z.Z.Z.Z.Z.Z.Z.Z.Z.Z.Z.Z.Z.Z.Z.Z.Z.Z.Z.Z.Z.Z.Z.Z.Z.Z.Z.Z.Z.Z.. . . . . . . . . . o o o 6 ] c.c.c.c.c.c.c.c.c.f.V 1 . . . . o . o . . o o o o o o . . o o o o o o o o o o o o o o o o o o o o o o o o o o o o o o o o o o o o o o o o o o o o o o o o o o o o o o o o . . . o o o o o . o o o o . o o o o o o o o . . . . . . . . . . . . . . o o o o . o . . . . . . . . & l 8.c.c.c.c.c.c.c.c.c.:.t o o o . . . . . . . . . . Z.Z.Z.Z.Z.Z.Z.Z.Z.Z.Z.Z.Z.Z.Z.Z.Z.Z.Z.Z.Z.Z.Z.Z.Z.Z.Z.Z.Z.Z.Z.Z.Z.Z.Z.Z.Z.Z.Z.Z.",
"Z.Z.Z.Z.Z.Z.Z.Z.Z.Z.Z.Z.Z.Z.Z.Z.Z.Z.Z.Z.Z.Z.Z.Z.Z.Z.Z.Z.Z.Z.Z.Z.Z.Z.Z.Z.Z.Z.. . . . . . o . . . . . o w $.c.c.c.c.c.c.c.c.c.8.h % o o . o o o o . . o o o o o o o . . o o o o o o o o o o o o o o o o o o o o o o o o o o o o o o o o o o o o o o o o o . o o o o o o o o o o o o o o o o . o o o o o . . . o o o o o o o o o o . . . . . . . . . . . . . . . . o o o . . . . . . . . . o . + u :.c.c.c.c.c.c.c.c.c.4.i o . o . . . . . . . . . . Z.Z.Z.Z.Z.Z.Z.Z.Z.Z.Z.Z.Z.Z.Z.Z.Z.Z.Z.Z.Z.Z.Z.Z.Z.Z.Z.Z.Z.Z.Z.Z.Z.Z.Z.Z.Z.Z.Z.",
"Z.Z.Z.Z.Z.Z.Z.Z.Z.Z.Z.Z.Z.Z.Z.Z.Z.Z.Z.Z.Z.Z.Z.Z.Z.Z.Z.Z.Z.Z.Z.Z.Z.Z.Z.Z.Z.. . . . . . o o o . . . . e :.c.c.c.c.c.c.c.c.c.=.y + o o o o o o o . . . o o o o o o o o . o o o o o o o o o o o o o o o o o o o o o o o o o o o o o o o o o o o o o o o o o o o o . o o o o o o o o o o o o o . o o o o . . . . o o o o o o o o o o . . . . . . o o o . . . . . . . o o o . . . . . . . . . . o o o 8 ] c.c.c.c.c.c.c.c.c.8.i + o o . . . . . . . . . . Z.Z.Z.Z.Z.Z.Z.Z.Z.Z.Z.Z.Z.Z.Z.Z.Z.Z.Z.Z.Z.Z.Z.Z.Z.Z.Z.Z.Z.Z.Z.Z.Z.Z.Z.Z.Z.Z.",
"Z.Z.Z.Z.Z.Z.Z.Z.Z.Z.Z.Z.Z.Z.Z.Z.Z.Z.Z.Z.Z.Z.Z.Z.Z.Z.Z.Z.Z.Z.Z.Z.Z.Z.Z.Z.. . . . . . . o o o o o o r ,.c.c.c.c.c.c.c.c.c.] 6 . o o o o o o o . . . . o o o o o o o o o . . . o o o o o o o o o o o o o o o o o o o o o o o o o . o o o o o o o o o o o o o o o o . o o o o o o o o o o o o . o . . o o . . . o o o o o o o o o . . . . . . . . o o . . . . . . . . o . . . . . . . . o . . o o o . 1 E c.c.c.c.c.c.c.c.c.8.s + . o . . . . . . . . . . Z.Z.Z.Z.Z.Z.Z.Z.Z.Z.Z.Z.Z.Z.Z.Z.Z.Z.Z.Z.Z.Z.Z.Z.Z.Z.Z.Z.Z.Z.Z.Z.Z.Z.Z.Z.Z.",
"Z.Z.Z.Z.Z.Z.Z.Z.Z.Z.Z.Z.Z.Z.Z.Z.Z.Z.Z.Z.Z.Z.Z.Z.Z.Z.Z.Z.Z.Z.Z.Z.Z.Z.Z.. . . . . . . o o o o o o r ,.c.c.a.c.c.c.c.c.c.Q 1 o o o . . o o o . . . . . . o o o o o o o o . . . . o o o o o o o o o o o o o o o o o o o o o o o o o o o o o o o o o o o o o o o o o . o . o o o o o o o . . . o o o o o . . o . . . o o o o o o o . . . . . . . . . . . . . . . . . . o . . . . . . . o . o o . . . o . - b f.c.c.c.c.c.c.c.c.0.a o . . . . . . . . . . . . Z.Z.Z.Z.Z.Z.Z.Z.Z.Z.Z.Z.Z.Z.Z.Z.Z.Z.Z.Z.Z.Z.Z.Z.Z.Z.Z.Z.Z.Z.Z.Z.Z.Z.Z.Z.",
"Z.Z.Z.Z.Z.Z.Z.Z.Z.Z.Z.Z.Z.Z.Z.Z.Z.Z.Z.Z.Z.Z.Z.Z.Z.Z.Z.Z.Z.Z.Z.Z.Z.Z.. . . . . . . o o o o o o r ,.c.c.c.c.c.c.c.c.f.b - o o o . . . . o o . . . . . . . o o o o o o o . . . . . o o o o o o o o o o o o o o o o o o o o o o o o . . . o o o o o o o o o o o o . o o o o o o o o o o . . . o o o . . . . o o . . o o o o o o . . . . . . . . . . o o . . . . . . . . . o . . . . . . . . . o o . o o . & z a.c.c.c.c.c.c.c.c.8.u o . . . . . . . . . . . . Z.Z.Z.Z.Z.Z.Z.Z.Z.Z.Z.Z.Z.Z.Z.Z.Z.Z.Z.Z.Z.Z.Z.Z.Z.Z.Z.Z.Z.Z.Z.Z.Z.Z.Z.",
"Z.Z.Z.Z.Z.Z.Z.Z.Z.Z.Z.Z.Z.Z.Z.Z.Z.Z.Z.Z.Z.Z.Z.Z.Z.Z.Z.Z.Z.Z.Z.Z.Z.. . . . . . . . o o o o o e ,.c.c.c.c.c.c.c.c.a.z % o o o o . . . o . . . . . . . . . o o o o o o . o . . . o . o o o o o o o o o o o o o o o o o o o o o o o . o o o o o o o o o o o o o o . o o o o o o o o o . . . . . . . . . o o o o . . o o o o o . . . . . . . . . . o o o . . . . . . o . o o . . . . . . . o . o o o . . o . $ h t.c.c.c.c.c.c.c.c.4.t o . . . . . . . . . . . Z.Z.Z.Z.Z.Z.Z.Z.Z.Z.Z.Z.Z.Z.Z.Z.Z.Z.Z.Z.Z.Z.Z.Z.Z.Z.Z.Z.Z.Z.Z.Z.Z.Z.Z.",
"Z.Z.Z.Z.Z.Z.Z.Z.Z.Z.Z.Z.Z.Z.Z.Z.Z.Z.Z.Z.Z.Z.Z.Z.Z.Z.Z.Z.Z.Z.Z.Z.Z.. . . . . . . o o o o o 0 :.c.c.c.c.c.c.c.c.a.j $ . o o o o o o . . . . . . . . . o . . . . . . . . . . . . . . . . . . . . . . . . . . . . . . . o o o . . . . . . . . . . . . . . . . . . . . . o . . . . . . . . . . . . . . . . o o o o o o o o o o . . . . . . . . . o o o . . . . . . . . . . o o . . . . . . . . o o o o . . . . @ f t.c.c.c.c.c.c.c.c.,.w . . . . . o o o . . . . Z.Z.Z.Z.Z.Z.Z.Z.Z.Z.Z.Z.Z.Z.Z.Z.Z.Z.Z.Z.Z.Z.Z.Z.Z.Z.Z.Z.Z.Z.Z.Z.Z.Z.",
"Z.Z.Z.Z.Z.Z.Z.Z.Z.Z.Z.Z.Z.Z.Z.Z.Z.Z.Z.Z.Z.Z.Z.Z.Z.Z.Z.Z.Z.Z.Z.Z.. . . . . . o o o . o . 6 $.c.c.c.c.c.c.c.c.t.g @ . . . o o o o o . . . o . . . . o o + 5 7 7 7 7 6 6 6 6 6 6 6 6 6 6 6 6 6 7 6 6 6 6 6 6 6 6 6 7 7 6 6 6 6 6 6 7 6 7 7 7 6 6 6 6 7 7 6 6 6 6 6 6 6 7 7 7 6 6 6 6 6 6 6 5 2 , : & @ + . . . . . o o o o o o . . . . . . . o o o o . . . . . . . . . . . o . . . . . . . . o o o . . . o o . + s 8.c.c.c.c.c.c.c.c.$.5 . . . . o o . . . . . . Z.Z.Z.Z.Z.Z.Z.Z.Z.Z.Z.Z.Z.Z.Z.Z.Z.Z.Z.Z.Z.Z.Z.Z.Z.Z.Z.Z.Z.Z.Z.Z.Z.",
"Z.Z.Z.Z.Z.Z.Z.Z.Z.Z.Z.Z.Z.Z.Z.Z.Z.Z.Z.Z.Z.Z.Z.Z.Z.Z.Z.Z.Z.Z.Z.. . . . . . o o o . . . 3 X.c.c.c.c.c.c.c.c.t.f + . . . . . o . . . . . . . . . . . o o - ] t.0.8.8.8.8.8.8.8.8.8.8.8.8.8.8.8.8.8.8.8.8.8.8.8.8.8.8.8.8.8.8.8.8.8.8.8.8.8.8.8.8.8.8.8.8.8.8.8.8.8.8.8.8.8.8.8.8.8.8.8.8.8.8.4.,.=.{ Q b h t 5 - @ o . o o o o o . . . . . . . o o . . . . . . . . . . . . o o . . . . . . . o o o o . . . . . . + s 8.c.c.c.c.c.c.c.c.] 1 . o . o . . . . . . . . Z.Z.Z.Z.Z.Z.Z.Z.Z.Z.Z.Z.Z.Z.Z.Z.Z.Z.Z.Z.Z.Z.Z.Z.Z.Z.Z.Z.Z.Z.Z.Z.",
"Z.Z.Z.Z.Z.Z.Z.Z.Z.Z.Z.Z.Z.Z.Z.Z.Z.Z.Z.Z.Z.Z.Z.Z.Z.Z.Z.Z.Z.Z.. . . . . . . o o o o . : _ c.c.c.c.c.c.c.c.t.g + . . . . . . o . . . . . . . o . . . . . - #.c.c.c.c.c.c.c.c.c.c.c.c.c.c.c.c.c.c.c.c.c.c.c.c.c.c.c.c.c.c.c.c.c.c.c.c.c.c.c.c.c.c.c.c.c.c.c.c.c.c.c.c.c.c.c.c.c.c.c.c.c.c.c.c.c.c.c.c.c.c.c.a.4.+.C h 0 - + o o o . . . . . o o o o . . . . . . . . . . . . o o o . . . . . o o o o o o . . . . . . + d t.c.c.c.c.c.c.c.c.Q - . . . . . . . . . . . . Z.Z.Z.Z.Z.Z.Z.Z.Z.Z.Z.Z.Z.Z.Z.Z.Z.Z.Z.Z.Z.Z.Z.Z.Z.Z.Z.Z.Z.Z.Z.",
"Z.Z.Z.Z.Z.Z.Z.Z.Z.Z.Z.Z.Z.Z.Z.Z.Z.Z.Z.Z.Z.Z.Z.Z.Z.Z.Z.Z.Z.. . . . . . . . . . o . & C c.c.c.c.c.c.c.c.t.g @ . . . . . . . . . . . . . . . o . . . . . - +.c.c.c.c.c.f.c.a.c.c.c.c.c.f.a.c.c.c.a.c.c.g.g.f.c.f.c.f.c.c.f.f.c.f.f.c.c.c.c.a.c.c.c.c.c.c.c.c.c.c.c.c.c.c.c.c.c.c.c.c.c.c.c.f.a.c.c.c.c.c.c.c.c.c.c.c.t.+.v e - o . . . o o o o . . . . . . . . . . . . . . o . o o o . . . o o o o o o . . . . . . . + g t.c.c.c.c.c.c.c.c.b $ . o o . . . . . . . . Z.Z.Z.Z.Z.Z.Z.Z.Z.Z.Z.Z.Z.Z.Z.Z.Z.Z.Z.Z.Z.Z.Z.Z.Z.Z.Z.Z.Z.Z.Z.",
"Z.Z.Z.Z.Z.Z.Z.Z.Z.Z.Z.Z.Z.Z.Z.Z.Z.Z.Z.Z.Z.Z.Z.Z.Z.Z.Z.Z.Z.. . . . . . . . . . . @ z c.c.c.c.c.c.c.c.a.h @ . . . . . . . . . . . . . . . . o . o o o . - +.c.c.c.g.c.c.c.c.f.c.c.c.c.g.a.c.c.a.c.c.c.g.f.c.f.a.c.c.f.f.a.c.c.c.c.c.f.c.f.c.c.c.c.c.c.a.f.c.c.c.c.c.c.c.c.c.c.c.c.c.c.c.c.f.c.c.f.c.c.c.c.c.c.c.c.c.c.c.c.t.X.j 5 + . . o o o . . . . . . . . . . . . . o o o o o o o . o o o . . o o . . . . . . o . @ h a.c.c.c.c.c.c.c.f.g + o o o . . . . . . . . Z.Z.Z.Z.Z.Z.Z.Z.Z.Z.Z.Z.Z.Z.Z.Z.Z.Z.Z.Z.Z.Z.Z.Z.Z.Z.Z.Z.Z.Z.",
"Z.Z.Z.Z.Z.Z.Z.Z.Z.Z.Z.Z.Z.Z.Z.Z.Z.Z.Z.Z.Z.Z.Z.Z.Z.Z.Z.Z.. . . . . . . . . . . o s t.c.c.c.c.c.c.c.f.l @ . . . . . . . . . . . . . . . . . o o o o o o - +.c.c.c.a.c.c.c.c.c.c.c.c.c.c.c.c.c.c.c.f.c.c.c.c.c.a.c.a.c.c.g.c.a.f.f.c.c.c.c.c.c.c.c.c.c.c.c.c.c.c.c.c.c.c.c.c.f.c.c.c.f.c.c.c.c.c.c.c.c.c.c.c.c.c.c.c.c.c.c.c.c.c.,.m 8 @ . . o . . . . . . . . . . . . o . o o o o o o o o o o o o o o o . . . . . . . . $ z c.c.c.c.c.c.c.c.8.r o o o . . . . . . . . . Z.Z.Z.Z.Z.Z.Z.Z.Z.Z.Z.Z.Z.Z.Z.Z.Z.Z.Z.Z.Z.Z.Z.Z.Z.Z.Z.Z.Z.",
"Z.Z.Z.Z.Z.Z.Z.Z.Z.Z.Z.Z.Z.Z.Z.Z.Z.Z.Z.Z.Z.Z.Z.Z.Z.Z.Z.. . . . . . . . . . . . q <.c.c.c.c.c.c.c.c.b % . . . . . . . . . . . . . . . . o o o o o o o o - +.c.c.c.c.c.c.c.f.c.c.c.f.c.c.c.c.c.c.c.a.g.c.c.c.c.c.c.c.c.a.c.c.c.c.c.c.c.c.c.c.c.c.c.c.c.c.c.c.c.f.c.c.c.c.c.c.a.g.c.c.c.c.c.c.c.f.c.c.c.c.c.c.c.c.c.c.c.c.c.c.c.c.c.c.8.m 5 o . . o o . . . . . . . . . o o o . . o o . o o o o o o o o o . . . o o o . . . & D c.c.c.c.c.c.c.c.=.5 . o . . . . . . . .   Z.Z.Z.Z.Z.Z.Z.Z.Z.Z.Z.Z.Z.Z.Z.Z.Z.Z.Z.Z.Z.Z.Z.Z.Z.Z.Z.Z.Z.",
"Z.Z.Z.Z.Z.Z.Z.Z.Z.Z.Z.Z.Z.Z.Z.Z.Z.Z.Z.Z.Z.Z.Z.Z.Z.Z.. . . . . . . . . . . . 2 +.c.c.c.c.c.c.c.c.F * . . . . . . . . . o o . . . . o o o o o o o o o . - +.c.c.c.c.c.c.c.c.c.c.c.f.f.f.c.f.c.c.f.c.c.c.c.c.c.c.c.c.c.c.c.c.c.f.c.g.c.c.c.c.c.c.f.c.c.f.f.c.c.c.c.c.f.c.c.f.f.g.c.f.c.c.f.c.c.c.c.c.c.c.c.c.c.c.c.c.c.c.c.c.c.c.c.c.c.c.,.l - . o o . . . . . . . . o o . . o . o o o o o o o o o o o o o . o o o . . o . . : Q c.c.c.c.c.c.c.c.Q - . . . . . . . . . . . Z.Z.Z.Z.Z.Z.Z.Z.Z.Z.Z.Z.Z.Z.Z.Z.Z.Z.Z.Z.Z.Z.Z.Z.Z.Z.Z.Z.",
"Z.Z.Z.Z.Z.Z.Z.Z.Z.Z.Z.Z.Z.Z.Z.Z.Z.Z.Z.Z.Z.Z.Z.Z.Z.Z.. . . . . . o o . . . & E c.c.c.c.c.c.c.c.' > . o o . . . o o . . o o . o o o o o o o o o o o o . - #.c.c.c.c.c.c.c.c.c.f.c.c.f.c.c.c.c.c.c.a.c.c.c.c.c.c.c.c.c.c.c.c.c.f.c.g.c.c.c.c.c.c.f.c.c.c.c.c.f.f.c.f.f.c.c.c.c.f.f.f.c.c.f.f.c.f.c.c.c.c.f.f.c.c.c.c.c.c.c.c.c.c.c.c.c.c.c.c.] t @ . . . . . . . . . o o . o o o o . o o o o o o o o o o o o o o o . . . . . . 2 +.c.c.c.c.c.c.c.c.z + . . . . . . . . . . . Z.Z.Z.Z.Z.Z.Z.Z.Z.Z.Z.Z.Z.Z.Z.Z.Z.Z.Z.Z.Z.Z.Z.Z.Z.Z.Z.",
"Z.Z.Z.Z.Z.Z.Z.Z.Z.Z.Z.Z.Z.Z.Z.Z.Z.Z.Z.Z.Z.Z.Z.Z.Z.. . . . . . o o o o o + l c.c.c.c.c.c.c.c.$.5 . o o o o o o o o . o o o o o o o o o o o o o o o o . - #.c.c.c.c.a.c.c.c.c.c.c.f.c.c.c.f.c.c.c.c.c.c.c.c.c.c.c.c.c.c.c.c.c.c.c.a.c.c.c.c.c.c.c.c.c.c.f.c.c.c.c.c.c.f.c.c.c.f.f.c.c.c.c.c.c.c.c.c.c.c.c.c.c.f.c.c.c.c.f.f.c.c.c.c.c.c.c.c.c.t.z & . . . . . . o o o o o . o o o . o o o o o o o . . . o o o o o o . . . . . . q 4.c.c.c.c.c.c.c.8.t . . . . . . . . . . . Z.Z.Z.Z.Z.Z.Z.Z.Z.Z.Z.Z.Z.Z.Z.Z.Z.Z.Z.Z.Z.Z.Z.Z.Z.Z.Z.",
"Z.Z.Z.Z.Z.Z.Z.Z.Z.Z.Z.Z.Z.Z.Z.Z.Z.Z.Z.Z.Z.Z.Z.Z.. . . . . o . . . o o o t 8.c.c.c.c.c.c.c.8.r . . o o . . o o o o o . o o o o o o o o o o o o o o o . - #.c.c.c.c.c.c.c.c.f.c.c.c.c.c.c.c.f.c.c.c.c.c.f.c.c.c.c.c.c.c.c.c.c.c.c.c.c.c.a.f.c.f.f.c.c.c.a.c.f.c.c.c.c.f.c.c.c.f.c.c.c.a.g.f.c.c.c.c.c.c.c.c.f.f.c.c.f.c.c.c.f.c.c.c.c.c.c.c.c.c.c.E 2 . o . . . o o o o o o o o o o o o o . . . . . . . o . . o . o . . . . . . . d a.c.c.c.c.c.c.c.+., . . . . . . . . . . . Z.Z.Z.Z.Z.Z.Z.Z.Z.Z.Z.Z.Z.Z.Z.Z.Z.Z.Z.Z.Z.Z.Z.Z.Z.Z.",
"Z.Z.Z.Z.Z.Z.Z.Z.Z.Z.Z.Z.Z.Z.Z.Z.Z.Z.Z.Z.Z.Z.Z.Z.. . . . . o o . . . . 2 +.c.c.c.c.c.c.c.a.g o . . . . . . o o o o . . o o o o o o o o o o o o o o o . - +.c.c.c.c.c.c.c.c.c.c.c.c.c.c.c.c.f.c.f.c.c.c.f.c.f.f.c.f.c.c.c.c.c.c.f.c.c.f.c.f.c.c.c.c.c.c.c.c.c.a.c.c.c.c.c.c.c.a.c.f.c.c.c.c.f.f.c.c.f.c.c.c.c.c.c.c.g.f.c.c.c.c.c.c.c.c.c.c.c.c.c.c.+.0 o . o o o o o o o o o o o o o o o . . . . . . . . . . . o . . . . . . . . $ v c.c.c.c.c.c.c.c.m $ . . . . . . . . . . . Z.Z.Z.Z.Z.Z.Z.Z.Z.Z.Z.Z.Z.Z.Z.Z.Z.Z.Z.Z.Z.Z.Z.Z.Z.",
"Z.Z.Z.Z.Z.Z.Z.Z.Z.Z.Z.Z.Z.Z.Z.Z.Z.Z.Z.Z.Z.Z.Z.. . . . . o o o o . . $ m c.c.c.c.c.c.c.c.m $ . . . . . . . o o o o o . o o o o o o o o o o o o o o . . * +.c.c.c.c.c.c.c.f.f.c.c.c.c.c.c.c.c.c.f.c.c.c.c.c.c.c.c.c.c.c.c.c.a.c.c.c.c.f.c.c.c.c.c.c.c.f.c.c.c.c.c.c.f.c.c.c.c.c.c.f.c.c.f.c.f.c.c.f.c.c.c.c.c.c.c.g.g.c.c.c.c.c.c.a.g.c.c.c.c.c.c.c.c.:.e o o o o o o o o o o o o o o o o . . . . . . . . . . o o . . . . . . . . . - ' c.c.c.c.c.c.c.a.a . . . . . . . . . . . Z.Z.Z.Z.Z.Z.Z.Z.Z.Z.Z.Z.Z.Z.Z.Z.Z.Z.Z.Z.Z.Z.Z.Z.Z.",
"Z.Z.Z.Z.Z.Z.Z.Z.Z.Z.Z.Z.Z.Z.Z.Z.Z.Z.Z.Z.Z.Z.Z.. . . . . o o o . . . i t.c.c.c.c.c.c.c.] : . o o . . . . . . . o o o o o o o o o o o o o o o o o o . . * +.c.c.c.c.c.c.c.c.f.f.c.c.c.c.c.c.c.f.c.c.c.c.c.f.c.c.c.c.f.c.c.c.c.c.c.c.c.f.f.c.c.c.c.c.c.c.c.f.a.c.c.c.c.c.c.c.c.c.c.c.f.c.c.c.c.c.c.c.c.f.c.f.c.g.c.g.c.f.c.c.c.c.c.c.c.c.c.c.c.c.c.c.c.c.:.t o o o o o o o o o o o o o o o o . . . . o o . . . . o . . . . . . . . . . 6 ,.c.c.c.c.c.c.c.=.2 . . . . . . . . . . . Z.Z.Z.Z.Z.Z.Z.Z.Z.Z.Z.Z.Z.Z.Z.Z.Z.Z.Z.Z.Z.Z.Z.Z.",
"Z.Z.Z.Z.Z.Z.Z.Z.Z.Z.Z.Z.Z.Z.Z.Z.Z.Z.Z.Z.Z.Z.. . . . . . o o o . . 2 $.c.c.c.c.c.c.c.4.0 . o o o . . . . o o o o o o o o o o o o o o o o o o o . o o . * +.c.c.c.c.c.c.c.c.c.c.c.c.c.c.c.f.c.c.c.c.a.c.c.c.c.c.c.f.c.c.c.c.c.c.c.c.f.f.c.c.f.c.c.a.c.c.f.c.c.c.c.c.c.c.c.c.f.c.c.c.c.c.c.c.c.f.f.c.c.c.f.f.c.c.c.f.c.f.f.f.c.f.f.c.c.f.c.c.c.c.c.c.c.f.c.,.e o . . . . o o o o o o o o o o o o o o o o . . . . . . . . . . . . . . . . s a.c.c.c.c.c.c.c.b $ . o . . . . . . . . Z.Z.Z.Z.Z.Z.Z.Z.Z.Z.Z.Z.Z.Z.Z.Z.Z.Z.Z.Z.Z.Z.Z.Z.",
"Z.Z.Z.Z.Z.Z.Z.Z.Z.Z.Z.Z.Z.Z.Z.Z.Z.Z.Z.Z.Z.. . . . . . . . o o . $ V c.c.c.c.c.c.c.f.h o o o o o o . . o o o o o o o o o o o o o o o o o o . . o . o . - #.c.c.c.c.c.c.c.c.c.c.c.c.c.c.c.c.c.c.c.c.f.c.c.g.c.c.c.c.c.f.f.c.c.f.c.c.f.c.c.c.f.c.c.c.c.f.c.c.c.f.c.f.c.c.c.c.f.f.c.a.c.f.c.f.c.a.f.f.c.c.c.c.c.c.c.c.c.c.f.c.c.c.c.c.g.c.c.c.f.f.c.c.c.c.c.c.=.6 . . . . o o o o o o o o o o o o o o o . o . . . . . . . . . . . . . . . $ V c.c.c.c.c.c.c.t.y o o . . . . . . . . . Z.Z.Z.Z.Z.Z.Z.Z.Z.Z.Z.Z.Z.Z.Z.Z.Z.Z.Z.Z.Z.Z.Z.",
"Z.Z.Z.Z.Z.Z.Z.Z.Z.Z.Z.Z.Z.Z.Z.Z.Z.Z.Z.Z.Z.. . . . . . o o o o o y t.c.c.c.f.c.c.c.E & . o o o o . o . o o o o o o o o o o o o o o o o o o o . o . o . - =.c.c.c.c.c.c.c.c.c.c.c.c.f.c.c.c.c.a.c.c.c.c.c.f.c.f.c.c.c.c.f.f.c.g.c.c.f.f.f.c.c.f.f.c.c.c.c.c.c.c.c.f.c.f.c.f.c.f.c.f.c.c.c.f.f.f.f.c.c.c.c.c.c.c.c.c.c.c.c.f.c.f.c.c.f.c.c.f.c.c.c.c.c.c.c.c.c.] > . . . o o o o o o o o o o o o o o o o . . . . . . . . o . . . . . . . . 1 $.c.c.c.c.c.c.c.+.> . . . . . . . . . . . Z.Z.Z.Z.Z.Z.Z.Z.Z.Z.Z.Z.Z.Z.Z.Z.Z.Z.Z.Z.Z.Z.",
"Z.Z.Z.Z.Z.Z.Z.Z.Z.Z.Z.Z.Z.Z.Z.Z.Z.Z.Z.Z.. . . . . . . o o o . : { c.c.c.c.c.c.c.=.5 . . . o o o . o . o o o o . o o o o o o o o o . . . o o . . o o . % h z z z z b E #.t.c.c.c.c.f.c.c.c.c.c.c.c.c.c.c.f.c.c.c.c.c.c.c.f.c.g.c.c.c.f.c.c.c.f.c.c.c.c.f.c.c.c.c.c.f.c.f.f.c.f.c.c.c.c.f.f.f.c.c.c.g.c.c.c.g.c.f.f.c.c.c.f.f.f.c.a.c.c.c.c.c.c.f.f.f.c.c.c.c.c.V % . o o o o o o o o o o o o o o o o o o o o . . . o o o . . . . . . . . . u t.c.c.c.c.c.c.c.l o . . . . . . . . . . Z.Z.Z.Z.Z.Z.Z.Z.Z.Z.Z.Z.Z.Z.Z.Z.Z.Z.Z.Z.Z.Z.",
"Z.Z.Z.Z.Z.Z.Z.Z.Z.Z.Z.Z.Z.Z.Z.Z.Z.Z.Z.Z.. . . . . o o o o o o l c.c.c.c.c.c.c.a.a . . . o o o o o o o o o . . . o o o o o o o . . . . . . o o o o o o o o o . . . o $ : 0 z -.c.c.c.c.c.c.c.c.c.c.c.c.c.c.c.c.c.c.f.c.c.f.a.c.c.f.f.c.f.f.c.c.c.c.c.f.c.f.c.c.c.c.c.c.c.a.f.g.c.c.c.c.a.c.c.c.c.g.f.f.c.c.c.f.c.c.c.c.c.a.c.c.c.f.c.c.f.c.c.f.f.f.c.c.c.c.c.c.a.f o o . . o o o . . . o . . . o o o . o o o o . o o o o o . . . . . . o . $ m c.c.c.c.c.c.c.,.5 . . . . . . . . . . . Z.Z.Z.Z.Z.Z.Z.Z.Z.Z.Z.Z.Z.Z.Z.Z.Z.Z.Z.Z.Z.",
"Z.Z.Z.Z.Z.Z.Z.Z.Z.Z.Z.Z.Z.Z.Z.Z.Z.Z.Z.. . . . o o o o o o o 6 ,.c.c.c.c.c.c.c.E % . o o o o o o o o o o o o o o o o o o o o o . . . . . . o o o o o o o o . . . . . . . . . 2 b t.c.c.c.c.c.c.c.c.c.a.g.c.c.f.f.f.f.c.c.c.f.c.c.c.c.c.c.c.c.c.f.f.c.c.c.c.c.f.c.c.c.g.c.c.c.f.c.c.f.f.c.c.c.c.c.c.c.c.c.f.c.c.c.f.f.f.f.c.c.c.c.c.c.c.f.g.c.c.c.c.c.c.c.c.c.c.c.,.6 . . . . . . . . . o . . . o o o o o o o o o o o o o o . . . o o o o o . 2 =.c.c.c.c.c.c.c.V @ . . . . . . . . . . Z.Z.Z.Z.Z.Z.Z.Z.Z.Z.Z.Z.Z.Z.Z.Z.Z.Z.Z.Z.Z.",
"Z.Z.Z.Z.Z.Z.Z.Z.Z.Z.Z.Z.Z.Z.Z.Z.Z.Z.Z.. . . . . o o o o o % D c.c.c.c.c.c.c.,.6 . . o o o . . o o o o . o o o o o o o o o . . . . . . o o o o o o o o . . . . . . . . . . . . % s 4.c.c.c.c.c.c.c.c.g.g.c.f.c.f.c.c.c.c.c.f.f.c.a.c.c.c.c.a.g.c.c.c.c.c.c.f.c.c.a.c.c.c.f.c.c.c.c.f.c.c.c.c.c.c.c.c.f.f.c.c.c.c.c.c.c.c.c.f.c.f.c.c.c.c.a.g.c.f.c.c.c.c.c.c.c.c.c.F $ . . . . . . . . . . . . o o o o o o o o o . o o o o o . o o o o . . . . d f.c.c.c.c.c.c.t.e . . . . . . . . . . . Z.Z.Z.Z.Z.Z.Z.Z.Z.Z.Z.Z.Z.Z.Z.Z.Z.Z.Z.Z.",
"Z.Z.Z.Z.Z.Z.Z.Z.Z.Z.Z.Z.Z.Z.Z.Z.Z.Z.. . . . o o o o o o o r t.c.c.c.c.c.c.c.h o . . o o o o o o o o o o o o o o o . . o o . . . . . . o o o o . o . o . . . o o o o . . . o o o o i t.c.c.c.c.c.c.c.c.c.c.f.c.f.c.a.g.c.f.c.c.f.f.f.c.c.c.c.f.c.c.c.c.c.f.c.c.c.c.c.c.f.c.f.c.c.c.f.c.c.c.c.c.c.f.c.c.f.c.c.c.c.g.c.c.f.f.f.f.c.c.c.f.f.c.f.c.c.f.c.c.c.c.c.c.c.c.t.t . . . . . . . o . . . . . . o o o o o o o o o o o o o o o o o o o . . . & Q c.c.c.c.c.c.c.Q & . . . . . . . . . . Z.Z.Z.Z.Z.Z.Z.Z.Z.Z.Z.Z.Z.Z.Z.Z.Z.Z.Z.Z.",
"Z.Z.Z.Z.Z.Z.Z.Z.Z.Z.Z.Z.Z.Z.Z.Z.Z.Z.. . . . o o o o o o & Q c.c.c.c.c.c.c.] - . o . . . o o o o o o o . . . o o . . o o o . . . . . . . o . . o o o o . . . . . o o . . . o o . . + z c.c.c.c.c.c.f.c.c.c.c.c.c.f.c.c.c.c.c.a.g.c.c.g.a.c.c.f.f.c.c.c.c.c.f.c.c.c.c.c.c.c.f.c.c.c.c.c.c.c.c.c.c.f.c.c.c.c.f.f.f.c.c.c.c.c.f.f.c.c.g.c.c.c.f.c.c.c.f.c.c.c.c.c.c.c.c.' & . . . . . . o . o . . o o o o o o . o . . o o o o o o o o o o . . . . . 0 8.c.c.c.c.c.c.a.u . . . . . . . . . . . Z.Z.Z.Z.Z.Z.Z.Z.Z.Z.Z.Z.Z.Z.Z.Z.Z.Z.Z.",
"Z.Z.Z.Z.Z.Z.Z.Z.Z.Z.Z.Z.Z.Z.Z.Z.Z.. . . . . o o o o o . i a.c.c.c.c.c.c.t.r o o o o . . o . . . . . . . . o o o o o . . o o o . . . . . o o . o o o o o o . . . o o o o o . . . . . , #.c.c.c.c.c.c.c.c.f.c.c.f.c.c.f.f.f.c.g.g.c.c.c.c.c.c.c.c.c.c.c.c.c.f.c.c.c.c.c.c.c.c.c.f.f.c.c.c.c.c.c.c.f.c.c.c.c.c.c.c.c.a.c.c.c.f.c.c.c.c.c.f.f.c.c.c.c.f.c.c.c.c.a.c.c.c.a.u . . . . . . . . . . o o o o o . . . . . o o o o o o o o o o o o . . . o + c c.c.c.c.c.c.c.] * . . . . . . . . . . Z.Z.Z.Z.Z.Z.Z.Z.Z.Z.Z.Z.Z.Z.Z.Z.Z.Z.Z.",
"Z.Z.Z.Z.Z.Z.Z.Z.Z.Z.Z.Z.Z.Z.Z.Z.Z.. . . o o o o o o . - ] c.c.c.c.c.c.c.C % o o o o o o . . . . . . . o o o o o o o . o o o o . . . . . . o . o o o o o o . . . o o o o o o . . . . . h c.c.c.c.f.c.c.c.g.a.g.f.c.c.c.c.c.c.c.c.c.c.c.c.g.c.c.c.c.c.c.f.c.c.c.c.c.c.c.c.c.c.c.f.c.c.c.c.c.c.c.c.c.c.c.c.c.c.c.c.c.c.c.c.f.c.a.c.c.f.g.f.g.c.c.g.f.c.f.f.c.c.c.c.c.c.c.Q % . . . . . . . . o o o o o . . . . . . o o o o o o o o o o o . o o o o . 2 =.c.c.c.c.c.c.f.a . . . . . . . . . . . Z.Z.Z.Z.Z.Z.Z.Z.Z.Z.Z.Z.Z.Z.Z.Z.Z.Z.",
"Z.Z.Z.Z.Z.Z.Z.Z.Z.Z.Z.Z.Z.Z.Z.Z.o . . . o o o o o o o s f.c.c.c.c.c.c.4.8 . o o o o o o . . . . . . . o . o o o o . . o o o o o o o o o . o o o o o o o o o . o o o o o o o o . . .   6 8.c.g.c.a.c.c.c.c.c.g.c.c.f.c.c.f.c.c.c.c.c.c.c.a.a.c.c.c.c.c.c.c.c.c.c.c.c.c.c.c.c.c.c.f.c.c.c.c.c.c.c.c.c.c.c.c.c.c.c.c.f.f.c.a.f.c.g.a.f.f.c.c.c.f.c.c.c.c.f.c.c.c.c.c.c.c.8.7   . . . . . . . o o o o o o . . . . . o o o o o o o o o o o o o o o o o o h c.c.c.c.c.c.c.] * . . . . . . . . . . Z.Z.Z.Z.Z.Z.Z.Z.Z.Z.Z.Z.Z.Z.Z.Z.Z.Z.",
"Z.Z.Z.Z.Z.Z.Z.Z.Z.Z.Z.Z.Z.Z.Z.Z.. . . . o o o o o o - { c.c.c.c.c.c.c.v + o o o o o o o . . . . . . . o o o o o o o o o o o o o o o o o . o o o o o o o o o o o o o o o o o o . . .   * #.c.c.c.c.c.c.a.c.f.c.c.a.c.c.c.c.c.c.c.c.c.c.c.c.c.c.c.c.c.c.c.c.c.c.c.c.c.c.c.c.c.c.c.c.c.c.g.c.c.c.c.c.c.c.c.c.c.c.c.c.c.c.f.c.f.f.f.f.f.f.c.f.c.a.f.c.c.c.f.f.f.c.c.c.c.c.c.z . . . . . . . o o o o o o o . . o . . . . o o . o o o o o o o o o o o o . : o.c.c.c.c.c.c.a.i   . . . . . . . . . o Z.Z.Z.Z.Z.Z.Z.Z.Z.Z.Z.Z.Z.Z.Z.Z.Z.",
"Z.Z.Z.Z.Z.Z.Z.Z.Z.Z.Z.Z.Z.Z.Z.. . . . . o o o o o o s f.c.c.c.c.c.c.,.5 . o . o o o o o . . . . . . . . . . o . . o o o o o o o o . . o o o o o o o o o o o o o o o o o o o o . . . . $ _ c.g.c.c.c.f.f.c.c.c.f.c.f.c.c.c.c.c.c.c.c.c.c.t.t.t.t.t.t.t.t.t.t.t.t.t.t.t.t.t.t.t.t.t.t.t.t.a.c.c.c.c.c.c.c.c.c.c.c.c.c.c.c.c.f.f.a.a.c.f.c.c.c.c.c.f.f.c.c.f.c.f.c.c.c.c.c.{ & . . . . . . o o o . . o . . o . o o . o . . . . o o o o o o o o . o . . . d c.c.c.c.c.c.c.' & . . . . . . . . . o Z.Z.Z.Z.Z.Z.Z.Z.Z.Z.Z.Z.Z.Z.Z.Z.Z.",
"Z.Z.Z.Z.Z.Z.Z.Z.Z.Z.Z.Z.Z.Z.Z.. . . . . o o o o o - ] c.c.c.c.c.c.c.z + . . o o o o o o . . . . . . . . . . o o o o o o o o o o o . . o o o o o o o o o o o o o o o o o o o o o . . . $ _ c.c.g.c.c.c.f.c.f.f.c.c.c.c.f.c.c.f.c.c.c.c.+.q 6 6 7 8 8 7 6 6 6 6 6 6 6 6 8 7 6 6 6 6 6 7 0 e i l E :.f.c.c.c.c.c.c.c.c.f.c.c.c.f.f.c.c.c.g.f.g.f.f.c.c.c.c.f.f.a.g.c.c.c.c.t.0   . . . . . o . . . . . o o o o o o o o o o . o o o o o o o o o o o . . . - { c.c.c.c.c.c.a.y   . . . . . . . . . Z.Z.Z.Z.Z.Z.Z.Z.Z.Z.Z.Z.Z.Z.Z.Z.Z.",
"Z.Z.Z.Z.Z.Z.Z.Z.Z.Z.Z.Z.Z.Z.o . . . . . o o o o . u a.c.c.c.c.c.c.,.2 . . o . o o o . . . o . . . . o . . . . o o o o o o o o o . . o o o o o o o o o o o o o o o o o o o o o o . . . $ _ c.c.g.c.c.c.c.c.c.f.c.c.c.c.f.c.c.f.c.c.c.c.Q #   . . .             . . . . . . . . . . . . . . . . @ , i Q t.c.c.c.c.c.c.c.c.c.f.c.c.c.c.g.c.c.c.c.f.c.c.c.c.c.c.c.c.c.c.c.c.c.g . . . . . . . . . . . . o o o o o o o o o o o o o o o o . o o . . . . o o o s c.c.c.c.c.c.c.E $ . . . . . . . . . . Z.Z.Z.Z.Z.Z.Z.Z.Z.Z.Z.Z.Z.Z.Z.Z.",
"Z.Z.Z.Z.Z.Z.Z.Z.Z.Z.Z.Z.Z.Z.. . . . . . o o o . & Q c.c.c.c.c.c.c.z o o o o o . o . . o o . . . . o o . . . . . . . . o o o o o o o o o o o o o o o o o o o o o o o o o o o o o . . . $ _ c.c.g.c.c.c.c.c.c.g.g.c.c.c.c.c.f.f.c.c.c.c.Q # . . . . . . . . . . . . . . . . . . . . . . . . . . . . . $ q R a.c.c.c.c.c.c.f.c.c.c.c.c.c.a.c.c.c.f.c.c.c.c.c.c.f.c.f.c.c.c.c.F + . . . . . . . . . o o o o o o . . . o o o o o o o o . . o o o . o o o o . - { c.c.c.c.c.c.8.0   . . . . . . . . . Z.Z.Z.Z.Z.Z.Z.Z.Z.Z.Z.Z.Z.Z.Z.Z.",
"Z.Z.Z.Z.Z.Z.Z.Z.Z.Z.Z.Z.Z.Z.. . . . . . . o o . e t.c.c.c.c.c.c.4.5 . o o o . . . . . . . o o o o . . . . . . . . . . . o o o o o o o o o o o o o o o o o o o o o o o o o o o o o . . $ _ c.c.c.c.c.c.c.c.c.g.g.g.c.c.c.g.f.f.c.c.c.c.) $ o . . . . . . . . . . . . . . . . . . . . . . . . . . o . .   % a -.c.c.c.c.c.a.c.c.c.f.f.c.c.f.c.c.c.c.g.a.c.f.f.c.c.f.c.c.c.c.{ - . . . . . . . . . o o o o o o . . o o o o o o o o o o o . . o o o o o o o . g c.c.c.c.c.c.c.v + . . . . . . . . . . Z.Z.Z.Z.Z.Z.Z.Z.Z.Z.Z.Z.Z.Z.Z.",
"Z.Z.Z.Z.Z.Z.Z.Z.Z.Z.Z.Z.Z.. . . . . . . . . . @ C c.c.c.c.c.c.c.b @ . o o o . . . o . o o o o o . . . o o . . . . . . . . o o o . . o o o o o o o o o o o o o o o o o o o o o o o . . $ _ c.c.c.c.c.c.c.c.c.c.c.c.g.c.f.f.c.c.c.c.c.c.Q % o o . . . o . . . . o . o o o o o . . . . . . . . . . . . . . . o 5 Q c.c.c.c.c.c.f.c.c.f.f.c.c.c.c.c.f.f.a.f.c.c.f.f.c.f.c.c.c.4.3 . . . . . . . o o o o o . . o . o . o o o o o o o o o . . . . o o o o o o . , =.c.c.c.c.c.c.:.< . . . . . . . . . . Z.Z.Z.Z.Z.Z.Z.Z.Z.Z.Z.Z.Z.Z.Z.",
"Z.Z.Z.Z.Z.Z.Z.Z.Z.Z.Z.Z.Z.. . . . . . . . . . 5 <.c.c.c.c.c.c.8.8 . . o o o . . o o o o o o o o . . o o . . . . . . . . . . o o . . o o o o o o o o o . o o o o o o o o o o o o o . . $ _ c.c.c.c.c.c.c.c.c.f.f.c.f.c.c.c.c.c.c.c.c.c.Q % o o . o o o o o o o . o o o o o . . . . . . . o o o o . . . . o o . - C c.c.c.c.c.g.f.c.c.c.g.g.c.c.f.g.f.f.c.c.f.a.c.f.c.c.c.c.t.0 . o . . . . . o o o o o . . . . o o o o o o o o o . . . . o . o o o o o o o o z c.c.c.c.c.c.c.f . . . . . . . . . . Z.Z.Z.Z.Z.Z.Z.Z.Z.Z.Z.Z.Z.Z.Z.",
"Z.Z.Z.Z.Z.Z.Z.Z.Z.Z.Z.Z.Z.. . . . . . . . . o l c.c.c.c.c.c.c.E $ . . . . . o o o o o o o o o o o o o . . o . o . o o . o o o o o . o o o o o o o o . o . o o o o o o o o o o o o . . $ _ c.c.c.f.c.c.c.c.c.c.f.c.c.f.c.c.c.c.c.g.c.c.Q % o o o o o o o o o o o o o o o o o o o o o o o o o o o . o o o o o . . - F c.c.c.c.a.c.c.c.c.f.f.c.c.c.c.f.f.c.c.c.f.c.c.c.c.c.g.f.u . o o . . . . o . . o o . . . o o o o o o o o o o o . . . o . o o o o o o o . 6 4.c.c.c.c.c.c._ % . . . . . . . . . . Z.Z.Z.Z.Z.Z.Z.Z.Z.Z.Z.Z.Z.Z.",
"Z.Z.Z.Z.Z.Z.Z.Z.Z.Z.Z.Z.. . . . . . . . . . - +.c.c.c.c.c.c.a.y . . . . . . . o o o o o o o o o o o o o o o o o o o o o o o o o o . o o o o o o o o o o . o o o o o o o o o o o o o . $ _ c.c.c.c.c.c.c.f.c.c.f.f.c.c.c.c.c.f.c.c.c.c.Q % o o o o o o o o o o o o o o o o o o o o o o o o o o o o o o o o . . o . : ' c.c.c.c.c.c.c.c.c.f.a.c.a.c.f.f.c.c.c.c.c.c.c.c.c.c.c.s . o o o . . . . . . . o . . . o . o o o o o o o o o . . o o . . o o o o . . . @ F c.c.c.c.c.c.8.0 . . . . . . . . . . Z.Z.Z.Z.Z.Z.Z.Z.Z.Z.Z.Z.Z.Z.",
"Z.Z.Z.Z.Z.Z.Z.Z.Z.Z.Z.Z.. . . . . o . . . . y a.c.c.c.c.c.c.] - . . . . . o o o o o o o o o o o o o o o o o o o o o o o o o o o o o . o o o o o o o o o o o o o o o o o o o o o o . . $ _ c.c.c.f.c.c.c.c.c.c.f.f.f.a.c.c.c.f.c.c.c.c.Q % o o o o o o o o o o o o o o o o o o o o o o o o o o o o o o o o . o o o . 0 <.c.c.c.c.f.c.c.f.c.c.c.c.c.f.a.f.f.c.c.c.f.f.f.c.c.c.g . o o o o o o . o . . o o o o . . . . o o o o o o o o . . o o o o o o o . . o . t a.c.c.c.c.c.c.z . . . . . . . . o o Z.Z.Z.Z.Z.Z.Z.Z.Z.Z.Z.Z.Z.Z.",
"Z.Z.Z.Z.Z.Z.Z.Z.Z.Z.Z.o . . . . o o o . . @ V c.c.c.c.c.c.c.g o o . . . . o o o o o o o o o o o o o o o o o o o o . o o o o o o o o o o o o o o o o o o o o o o o o o o o o o o o . . $ _ c.c.c.c.a.c.c.g.c.f.c.c.f.f.f.g.a.c.c.c.c.c.Q $ o o o o o o o o o o o o o o o o o o o o o o o o o o o o o o . . o o o o o o z c.c.c.c.c.c.c.c.c.c.c.c.c.c.c.f.c.c.c.c.c.f.c.c.c.c.g . . o o o o o . . o o . o o o o . . . o o o o o o o o o o o o o o o o . . . o . * ] c.c.c.c.c.c.+.- . . . . . o o o o o Z.Z.Z.Z.Z.Z.Z.Z.Z.Z.Z.Z.Z.",
"Z.Z.Z.Z.Z.Z.Z.Z.Z.Z.Z.. . . . . o o o . . 2 :.c.c.c.c.c.c.,.3 . o . . . . . o o o o o o o o o o o o o . . o o o o o o o o o o o o o o o o o o o o o o o o o o o o o o o o o o o o . . $ _ c.c.c.c.f.f.f.c.c.c.g.f.g.c.c.a.c.c.c.c.c.c.Q $ o o o o o o o o o o o . . o o o o o o o o o o o o o o o o o o . o o o o o . 2 =.c.c.c.c.c.c.f.f.f.c.a.c.c.c.c.c.c.c.c.c.c.c.c.c.c.g . . . o o o o o . o o o o o o o . . o o o o o o o o o o o o o o o . . . o o o o o j c.c.c.c.c.c.a.r   . . . . o o . o o Z.Z.Z.Z.Z.Z.Z.Z.Z.Z.Z.Z.Z.",
"Z.Z.Z.Z.Z.Z.Z.Z.Z.Z.Z.. . . . . o o o o . s c.c.c.c.c.c.c.F @ . . . . o o o o o o . . . o o o o o o o o . o o o o o o o o . o o o o o o o . o o o o o o o o o o o o o o o o o o . o . $ _ c.c.c.c.c.c.f.c.c.c.c.c.c.c.c.c.c.c.c.c.c.c.Q $ o o o o o o o o o o o o o o o o o o o o o o o o o o o . . o o o o o o o o o o z c.c.f.f.c.c.c.c.c.a.a.c.f.f.c.c.c.g.f.c.c.c.c.c.c.g . . . o o . o o o o o o o o o o o . o . o o o o o o o o o o o o o o o o . o o o . 6 8.c.c.c.c.c.c.v o . . . . . . . . o Z.Z.Z.Z.Z.Z.Z.Z.Z.Z.Z.Z.Z.",
"Z.Z.Z.Z.Z.Z.Z.Z.Z.Z.o . . . . . o o o o $ E c.c.c.c.c.c.f.u . . . o o o o o o o o . . . . o o o o o o o o o o o o o o . . . o o o o o o o o o o o o o o o o o o o o o o o o o o o o . $ _ c.c.c.c.c.c.c.g.f.f.f.c.c.c.c.c.c.c.c.c.c.c.Q $ o o o o o o o o o o o o o o o o o o o o o o o o o o . . . o o . . . o o o o . q t.c.c.c.c.c.c.c.c.a.c.f.f.f.g.f.c.c.c.f.c.c.c.c.c.a . . . . . . . . o o o o o o o o o . o . o o o o o o o o o o o o o o . . . o o o o % Q c.c.c.c.c.c.#.- . . . . . . . . . o Z.Z.Z.Z.Z.Z.Z.Z.Z.Z.Z.Z.",
"Z.Z.Z.Z.Z.Z.Z.Z.Z.Z.o . . . . . o o o . 2 ,.c.c.c.c.c.c.=.> . . . o . o o o o o o . . . . o o o o o o o o o o o o o o . . . o o o o o o o o o o o o o o o o o o o o o o o o o o o o . $ _ c.c.c.c.c.a.c.g.c.f.f.c.c.c.c.c.c.c.f.c.c.c.Q $ . o o o o o o o o o o o o o o o o o o o o o o . . o o . o o o . o o o o o o . : $.c.c.g.c.c.c.c.c.c.c.c.c.a.c.a.c.f.f.f.c.c.c.c.f.r . . . . . . . o o . . . o o o o o . o o o o o o o . o o o o o o o o o . . o o o o o d c.c.c.c.c.c.a.e   . . . . . . . . . Z.Z.Z.Z.Z.Z.Z.Z.Z.Z.Z.Z.",
"Z.Z.Z.Z.Z.Z.Z.Z.Z.Z.. . . . . . . o o o a c.c.c.c.c.c.c.m + o . . o o o o o o o o . . . . . o o o o o o o o o o o o . . o o o o o o o o o o o o o o o o o o o o o o o o o o o o . o . $ _ c.c.g.c.c.f.c.a.c.a.c.f.c.c.c.f.f.c.a.c.c.c.Q $ . . o . . . o o o o . o o o . o o o o o o o o . . o . o o o o o o o o o o o . % ' c.c.c.c.c.c.c.f.c.f.c.c.a.a.f.c.f.c.f.c.c.c.c.t.7 . . . . . . o o o o . o o o o o o o o o o o o o o . o o o o o o o o o . . . o o o . 2 <.c.c.c.c.c.c.c . . . . . . . . . . Z.Z.Z.Z.Z.Z.Z.Z.Z.Z.Z.Z.",
"Z.Z.Z.Z.Z.Z.Z.Z.Z.Z.. . . . . . o o o @ C c.c.c.c.c.c.f.y . o o o o o o o o o o o o . . . o o o o o . . . o o o . . . . o o o o o o o o o o o o o o . . o o o o o o o o o o o o o . . $ ` c.c.c.c.f.f.c.g.c.c.f.f.c.c.c.f.c.c.f.c.c.c.Q $ . . . . . . o . . o o o o . . o o o o o o o o . . o . o o o o o o o o o o o o @ E c.c.c.c.f.c.c.c.c.f.c.c.f.c.c.c.c.f.c.c.c.c.c.:., . . . . . o o o o o . o o o o o o o o o o o o o o o o o o o . o o o . . . . o o o o % Q c.c.c.c.c.c.{ * . . . . . . . . . Z.Z.Z.Z.Z.Z.Z.Z.Z.Z.Z.Z.",
"Z.Z.Z.Z.Z.Z.Z.Z.Z.o . . . . . . o o o > =.c.c.c.c.c.c.-., . o o o o o o o o o o o o o o . o o o o o . . . . . . . . . o o o o o o o o o o o o o o . o o . o o . o o o o o o o o o . . $ ` c.c.c.c.c.f.f.c.c.f.a.c.c.f.f.c.c.c.c.c.c.c.Q $ . . . . . . . . . . o o o o . . o o o o o o o o . . o o o o o o . o o o o o o @ F c.c.c.c.f.c.f.c.c.c.f.c.a.c.c.c.c.f.c.c.c.c.c.' & . . . . . o o o o o . o o o o o o o o o o o o o o o o o o o o . o o . . . . o o o o o g c.c.c.c.c.c.0.8 . . . . . . . . . o Z.Z.Z.Z.Z.Z.Z.Z.Z.Z.Z.",
"Z.Z.Z.Z.Z.Z.Z.Z.Z.. . . . . . o o o . r a.c.c.c.c.c.c.D @ . o o o o o o o o o o o o . o . o o o o o o . o o o . . . . o o o o o o o o o o o o . . o o o o o . . o o o o o o o o o . . $ ` c.c.c.c.c.f.f.c.c.a.f.c.c.c.f.c.c.c.c.c.c.c.Q $ . . . . . . . . . . . . & & . . . o o o o o o o o . . o o o o o o o o o o o . $ Q c.c.c.f.c.f.c.c.c.c.f.c.c.a.f.c.c.c.c.c.c.c.c.v . . . . . o o o o o o o o o o o o o o o o o o o o o o o o . o o o o o . . . . . . o o . 6 8.c.c.c.c.c.c.g o o . . . . . . . o Z.Z.Z.Z.Z.Z.Z.Z.Z.Z.Z.",
"Z.Z.Z.Z.Z.Z.Z.Z.Z.. . . . . o o o o o z c.c.c.c.c.c.c.i . o o o o o o o o o o o o . . . o o o o o o o o o o o . . o o . o o o o o o o o o o o . . o o o o o . . o o o o o o o . . o . $ ` c.c.c.f.c.c.g.f.g.g.c.c.c.f.f.f.f.c.c.c.c.c.Q $ . . . . o o . . . . o . 2 1 . . . o o o o o o o . . o o o o o o o o o . . . . - +.c.c.c.f.f.c.c.c.c.c.f.c.f.c.c.g.g.c.c.c.c.c.f.u . . . . . o o . . o o o o o o o o o o o o o o o o o o o . . o o . . . . . . . . . . . . & ] c.c.c.c.c.c.E $ o o . . . . . . o Z.Z.Z.Z.Z.Z.Z.Z.Z.Z.Z.",
"Z.Z.Z.Z.Z.Z.Z.Z.Z.. . . . . . o o . & ' c.c.c.c.c.c.4.2 . . . . o o o o o o o o o . . . o o o o o o o o o o o o o . . . o o o o o o o o o . . . o o o o o o . o o o o o o . o . . . . $ ` c.c.c.c.c.g.c.f.a.f.c.g.c.g.f.g.f.c.c.c.c.c.Q $ . . . o o o . . . o o o e 8   . . o o o o o o o . o o o o o o o o o o o o o . 6 8.c.c.c.c.f.c.c.c.c.c.f.f.c.c.c.c.c.c.c.c.c.c.,.< . . . . . . . o o o o o o o o o o o o o o o o o . o o o o . o o . . . . . . . . . . . . . c c.c.c.c.c.c.=.> . o . . . . . . o o Z.Z.Z.Z.Z.Z.Z.Z.Z.Z.",
"Z.Z.Z.Z.Z.Z.Z.Z.o . . . . . . o o . 2 ,.c.c.c.c.c.c.' & . . . . . o o o . . o o o . . . o o o o o o . . . . o o . o o o o o o o o o o o o . o o o o o o o o o o o o o o o . . . . o . $ _ c.c.f.c.c.f.f.f.a.c.c.c.c.f.f.g.g.f.f.c.c.c.Q $ . . . . . . o . . o o . a u   . o o o o o o o o o o o o o o o o o o o o o o . g c.c.c.c.c.c.c.c.c.f.c.f.a.f.c.c.c.c.c.c.c.c.c.F @ . . . . . . . o o . o o o o o o o o o o o o o . . . o . . . o . . . . . . . . . . . . . . y c.c.c.c.c.c.a.e . . . . . . . . . o Z.Z.Z.Z.Z.Z.Z.Z.Z.Z.",
"Z.Z.Z.Z.Z.Z.Z.Z.o . . . . . . . o . y f.c.c.c.c.c.c.z o o o . . . o o . . . o o o o . . o o o o o o o . . o o o . . o o o o o o o o o o o . o o o o o o o o o o o o o o . o . . o . . $ _ c.g.c.c.c.f.f.f.f.c.f.f.c.f.f.c.g.f.c.c.c.c.Q $ . . . . . . . o o o o . l j . . . o o o o o o o o o o o o o o . o o o o o . - { c.c.c.f.c.c.c.c.g.g.c.g.a.c.c.c.c.c.c.c.c.c.f.u . o o . . . o o . o o o o o o o . o o o o o o o . . . o . . o o . . . . o . . . . . . . o . 2 ,.c.c.c.c.c.c.h . . . . . . . . . . Z.Z.Z.Z.Z.Z.Z.Z.Z.Z.",
"Z.Z.Z.Z.Z.Z.Z.Z.o . . . . . . . . o z c.c.c.c.c.c.f.y . o o o . . . o . . o o o o o . o o o o o o o o . . o o . . o o o . o o o o o o o o o o o o o o o o o o o o o o o . o . . o . . $ _ c.c.c.c.c.c.f.a.f.c.g.c.f.c.c.c.a.f.c.c.c.c.Q $ . o . . . . . o o o . + Z F @ . . o o o o o o o o o o o o . o . o o o o o o g c.c.c.c.c.c.c.c.f.c.c.c.f.f.c.c.c.c.c.c.c.c.c.+.- . . . . o . o o . o o o o . o . o o o o o o o o o . . o o o o . . . . . . . . . . o . o o o & ' c.c.c.c.c.c.F @ . . . . . . . . . Z.Z.Z.Z.Z.Z.Z.Z.Z.Z.",
"Z.Z.Z.Z.Z.Z.Z.Z.. . . . . . . . . % Q c.c.c.c.c.c.,.2 . . o o . . . . o o o o o o o o o o o o o o o o o o o . . . o o . o o o o o o o o o o o o o o o o o o o o o o o o o o o o o . . $ _ c.c.c.c.c.f.f.c.f.c.g.c.c.c.c.c.f.f.c.c.c.c.Q $ o o o o o o o o o o . & +.#.- . . . o o o o o o o o o o o o . o o o . o . 6 :.c.c.g.c.c.c.c.c.f.c.c.c.f.g.c.f.c.c.c.c.c.c.c.h o o o o . o . o o o o o o o o o o o o o o o o o o o o o o o o o . . . . . . . o . . . o o o o o z c.c.c.c.c.c.+.* . . . . . . . . . Z.Z.Z.Z.Z.Z.Z.Z.Z.Z.",
"Z.Z.Z.Z.Z.Z.Z.Z.. o o o . . . . . , :.c.c.c.c.c.c.' & . . . . . . . o o o o o o o o o o o o o o o o o o o o . . . . o o o o o o o o o o o o o . o o o o o o o o o o o o o . o o o . . $ _ c.c.c.c.c.c.c.c.c.f.f.g.c.c.f.g.c.c.c.c.c.c.Q $ o o o o . o o . . o . 3 4.0.5 . . o o o o o o o o o o o o o o . o o . . : _ c.c.c.c.c.c.f.c.c.f.f.c.c.a.c.c.c.c.c.c.g.c.c.$.> . o o o . o o o o o o . . . o o o o o o o o o o o o o o o o o o . . o . . . . o o o o o o o o . i c.c.c.c.c.c.8.5   . . . . . . . . . Z.Z.Z.Z.Z.Z.Z.Z.Z.",
"Z.Z.Z.Z.Z.Z.Z.o . o o o . . o o . 0 t.c.c.c.c.c.c.b + . . . . . . . o o o o o o o o o o o o o o o o o o o o o o o . o o o . . o o o o o o o o . o o o o o o o o o o o o o o o o o . . $ _ c.c.c.c.c.c.c.f.c.f.f.c.c.c.f.c.c.c.c.c.c.c.Q $ o o o o . o o . . o . u c.c.i . . o o o o o o o o o o o o o . . o o . - F c.c.c.c.c.f.c.g.c.c.f.f.c.f.f.c.c.c.f.c.c.c.c.c.d o o o o o o . . o o o o o o o o o o o o o o o o o o o o o o o o o o o o o . . o o o . . . . o o . 6 8.c.c.c.c.g.g.u   . . . . . . . . o Z.Z.Z.Z.Z.Z.Z.Z.Z.",
"Z.Z.Z.Z.Z.Z.Z.o . . . . o . o o . d c.c.c.c.c.c.c.s . . . . o . o o o o o o o o o o o o o o o o o o o o o o o o . o o o o . . . o o o o o o . . . . o o o o o o o o o o . . . . . . . $ _ c.c.c.c.c.c.f.c.f.c.c.c.c.a.f.c.f.f.c.c.c.c.Q % o o o o . o o o o o @ b c.g.m @ o o o o o o o o o o o . . . . . o o 2 Q c.c.c.c.c.c.c.f.c.a.c.f.c.c.f.c.c.c.c.c.c.c.c.c.Q = o o o o o . o o o o o . . o . o o o o o o o o o o o o o o o o o o o o o o o . o . o . . . . . . . - +.c.c.c.c.c.c.j   . . . . . . . . . Z.Z.Z.Z.Z.Z.Z.Z.Z.",
"Z.Z.Z.Z.Z.Z.Z.o . . . o o o o o o v c.c.c.c.c.c.t.0 . . . . o o o o o o o o o o o o o o o o o o o o o o o o o o o o o o . . . . o o o o o o o o . o . o o o o o o o o o . . . . . . . $ _ c.c.c.c.c.c.f.c.c.c.c.c.c.f.f.f.f.f.c.c.c.c.Q $ o o . o . o o o o . > =.c.c.=.: o o o o o o o o o o o . . . . . @ r +.c.c.c.c.c.c.c.c.f.c.c.c.c.c.f.c.c.c.c.c.c.c.c.c.4.0 o o o o o o o . o o o o o o o . o o . o o o . o o o o o o o o o . o o o o o o o . . . o . . . . . . $ E c.c.c.c.c.c.C + . . . . . . . . . Z.Z.Z.Z.Z.Z.Z.Z.Z.",
"Z.Z.Z.Z.Z.Z.Z.. . . . o . o o . $ Q c.c.c.c.c.c.:., . . . . o o o o o o o o o o o o o o o o o o o o o o o o o o o o o . o o . . . . o o o o o o o o o o o o o o o o o o o . . . . o . $ _ c.c.c.c.c.f.f.c.c.f.f.f.f.c.f.f.c.c.c.c.c.c.Q $ . . . o o o . o . . u f.c.c.a.y . o o o o o o o o o o . . . o 1 v 8.c.c.c.c.c.f.c.f.f.f.c.c.c.f.f.c.c.c.c.c.c.c.c.c.f.g o o o o o o . o . o o o o o o o o o o o o . . . o o o o o o o o o o o o o o o o o . o . . . . . . . . . z c.c.c.c.c.c.] & . . . . . . . . . Z.Z.Z.Z.Z.Z.Z.Z.Z.",
"Z.Z.Z.Z.Z.Z.Z.. . . . . o o o . - #.c.c.c.c.c.c.] & . . . . o o o o o o o o o o o o o o o o o o o o o o o o o o o o o o o o o . . . . o o o o o o o o o o o o o o o o o o . . o o o . $ _ c.c.c.c.f.c.c.c.f.f.c.c.c.f.f.f.c.c.c.f.c.c.Q $ . . . . o o . . . $ T c.c.c.c.V + o o o o o o o o o o . + 3 l =.c.c.c.f.c.c.c.f.c.g.c.f.c.c.c.c.c.c.c.c.c.c.c.c.c.c.V % o o o o o o o o . . . o o o o o o o o o o . . o o o . . o o o o o o o o o o o o o o o . . . . . . . . . s c.c.c.c.c.c.-., . . . . . . . . . Z.Z.Z.Z.Z.Z.Z.Z.Z.",
"Z.Z.Z.Z.Z.Z.Z.. . . . . . o o . 2 4.c.c.c.c.c.c.C + . . . . . o o o o o o o o o o o o o o o o o o o o o o o o o o o o o o o o . . . . . o o o o o o o o o o o o o o o o o o o . o . . $ _ c.c.c.c.f.c.f.a.c.c.c.c.c.f.c.f.c.c.c.c.c.c.Q $ . . . . o . . . . q q.c.c.c.c.,.2 . o o o o o o o + : r v :.c.c.c.c.c.f.a.g.c.c.c.c.f.f.c.c.c.c.c.c.c.c.c.c.c.c.c.' : o o o o o o o o o o . o o o o o o o o o o o o o o o o . . o o o o o o o o o o o o o o o o o . . . . . . . e a.c.c.c.c.c.8.6 . . . . . . . . . o Z.Z.Z.Z.Z.Z.Z.Z.",
"Z.Z.Z.Z.Z.Z.Z.. . . . . . . . . q t.c.c.c.c.c.c.z . . . . . . o o o o o o o o o o o o o o o o o o . o o o o o o o o o o o o o . . . . . . o o o o o o o o . . o o o o o o o o o o . . $ _ c.c.c.c.c.c.c.g.g.c.f.g.c.c.c.c.c.c.c.c.c.c.E $ . . . . . o . . $ C c.c.c.c.c.c.l o o o o o . . @ k $.a.c.c.c.c.c.c.c.c.f.g.c.c.c.c.c.g.c.c.f.c.c.c.c.c.c.c.c.c.{ 3 . o o o o o o o o . . . o o o o o o o o o o . o o o o . . . . o o o o o o o o o o o o o o o o . . . . . o . 2 ,.c.c.c.c.c.a.r . . . . . . . . . . Z.Z.Z.Z.Z.Z.Z.Z.",
"Z.Z.Z.Z.Z.Z.o . . . . . . . . . i c.c.c.c.c.c.c.s . o o . . . o o o o o o o o o o . . . o o o o . . . o o o o o o o o o o o o o o . . . . o . . o o o o o o o o o o o o o o o o o . . $ ` c.c.f.g.c.c.c.c.c.c.f.c.c.c.c.f.c.c.c.c.c.c.l . . . . . . o o . 0 t.c.c.c.c.c.c.=.2 . o . . . . o u t.c.c.a.c.c.c.a.c.c.c.c.f.g.c.c.f.f.c.c.c.c.f.c.c.c.c.c.c.] 5 o o o o o o o o o . . . . . . o o o o o o o o o o o . . . . . . o o o o o o o o o o . o o o o o . . . . . . . - +.c.c.c.c.c.c.f . . . . . . . . . . Z.Z.Z.Z.Z.Z.Z.Z.",
"Z.Z.Z.Z.Z.Z.o . . . . . . . . . h c.c.c.c.c.c.a.e . o o o . . o o o o o o o o o o o . o o o o o . . o o o o o o o o o o o o o o o . . . o . o o o o . o o o o o o o o o . . o o o . . $ ` c.g.c.c.c.c.g.g.f.c.c.c.c.c.c.c.c.c.c.c.c.8.6 . o o . . . . o & Q c.c.c.c.g.c.c.c.l o . . . . o . @ x c.a.a.c.c.c.c.c.c.c.c.c.c.c.c.c.c.c.f.c.c.c.c.c.c.c.c.' 2 . o o o o o o o o o o . . . . . . o o o . . . o o o o o . . . . . . o o o o o o o o . o o o o o o o . o . . . . % _ c.c.c.c.c.c.z o . . . . . . . . o Z.Z.Z.Z.Z.Z.Z.Z.",
"Z.Z.Z.Z.Z.Z.o o . . . . . . o + v c.c.c.c.c.c.8.5 . o o o o o o o o o o o o o o o o o o o o o o . . . o o o o o o o o o o o o o o . o o o o . . o o o o o o o o o o o o o . . o o . . $ ` c.c.c.c.c.c.c.c.f.c.c.c.f.c.c.c.c.c.c.c.c.b + . . o o . . . o g a.c.c.c.c.c.c.c.c.,.5 . . o o o o o - F g.a.c.c.c.c.c.c.f.c.c.c.c.c.c.c.c.c.c.c.c.c.c.c.a.C 1 o o o o o o o o o o o o o . . . . . . o o . . . . o o . . o . . . . o o o o o o o o o . o o o o o o o o o . . . . + V c.c.c.c.c.c.D + . . . . . . . . o Z.Z.Z.Z.Z.Z.Z.Z.",
"Z.Z.Z.Z.Z.Z.o . . . . . . . o @ F c.c.c.c.c.c.,., . o o o . o o o o o o o o o o o o o o o o o o . . . . . o o o o . o o o o o o o o o o o o o o o o o o o o o o o o o o . . . o o o . $ _ c.c.c.c.c.c.c.c.c.c.c.c.f.c.c.c.c.c.c.c.#.<   . . o o o . . 6 ,.c.c.c.c.c.c.c.c.c.c.D $ o o o o o .   ; _ c.c.c.c.c.c.c.c.c.c.c.c.c.c.c.c.c.f.c.c.c.c.,.g & o o o o o o o o o o o o o o o o . . . o . . . . . . . . o o o o o o o o o o o o o o o . o o . . . . o o o . . . . . . z c.c.c.c.c.c.' % . . . . . . . . o Z.Z.Z.Z.Z.Z.Z.Z.",
"Z.Z.Z.Z.Z.Z.. . . . . . o . o % ' c.c.c.c.c.c.#.- . o o o o o o o o o o o o o o . . o . o . . o . . . . . . o o o o o o o . . o o o o . . o o . o o o o o o o o o o o o o o o o o o . $ _ c.c.g.f.c.f.f.c.c.f.c.c.c.c.c.c.c.c.c.8.r . . . . . o o . - Q c.c.c.c.f.f.g.c.c.c.g.t.d + o o o . . . . 2 ] c.c.c.c.c.c.c.c.c.c.c.f.c.c.c.c.c.c.c.c.c._ 8 O . o o o o o . o o o o o o o o . o o . o . . . . . . . o o o o o o o o o o o o o o o o . o . . . . . o o o . . . . . . g c.c.c.c.c.c.X.* . . . . . . . . . Z.Z.Z.Z.Z.Z.Z.Z.",
"Z.Z.Z.Z.Z.Z.. . . . . . o o . & o.c.c.c.c.c.c.' & . o o o o o o o o o o o o o o o . o o . . . o o . o o . . . o o o . o o o o o o o o . . o o o o o o o o o o o o o o o o o o o o o . $ _ c.c.c.c.c.c.c.c.c.c.c.c.c.c.c.c.c.c.0.a + o o . . . . o = V c.a.c.c.c.c.a.g.c.c.c.a.c.,.0 o o . . . . o o 3 ' c.c.c.c.c.c.c.c.c.c.f.c.c.c.c.c.c.c.c.c.c.4.F r * o o o o . o o o o o o o o o o o . . o o o o . . . o o o o o o o o o o o o o . o o o . . . . . o o o . . . . . o . i c.c.c.c.c.c.=.> . . . . . . . . . Z.Z.Z.Z.Z.Z.Z.Z.",
"Z.Z.Z.Z.Z.Z.. . . . . . . . . : =.c.c.c.c.c.c.E $ . o o o o o o o o o . . . o o o . . . . . o . o . o o . . . o o o . o o o o o o o . . . o o o o o o o o o o o o o o o o o o o o o . $ _ c.c.c.c.c.c.a.g.c.c.c.c.c.c.c.c.c.4.s + o o o o o . . % v c.c.a.g.f.c.c.c.c.c.f.f.c.c.c.+.3 . . . o o o o o > D c.c.c.c.c.c.c.c.c.a.f.f.c.c.c.c.c.a.a.c.c.c.a.] a & . . . o o o o o o o . . o . . . o o . . o o o o o o o o o o o o o o o o o o o o o . . . . . . o o . . . o o . r f.c.c.c.c.c.<.2 . . . . . . . . . Z.Z.Z.Z.Z.Z.Z.Z.",
"Z.Z.Z.Z.Z.Z.. . . . . . . . . < ,.c.c.c.c.c.c.D + . o o o o o o o o o . . . o o o . . . . o o o o o o o . . . . o . . o o o o o o o . . o o o o o o o o o o o o o o o o o o o o o o . $ _ c.c.c.c.c.c.c.c.c.c.c.c.c.c.c.c.:.t o o o o o o o o & v g.c.c.c.a.f.c.c.c.c.c.g.g.c.c.c.c.' < . o o o o o . . & l t.c.c.c.c.c.c.c.c.c.c.g.a.c.c.c.c.c.c.c.c.c.c.a.' y % . o o o o o o o . . . . o o o o o o o o o o o o o o o o o o o . o o o o o o o o . . . . . o . . . . o o . 8 t.c.c.c.c.c.8.6 . o . . . . . . . Z.Z.Z.Z.Z.Z.Z.Z.",
"Z.Z.Z.Z.Z.Z.. . . . . . . . . 4 4.c.c.c.c.c.c.b X . o o o o o o o o o . . . . o o . . . . o o o o o o o . o o . o o . o o o o o o o . . . o o o . o o o o o o o o o o o o o o o o o . $ ` c.c.c.c.c.c.c.c.c.c.c.c.c.c.c.Q 5 o o . o o o o o 1 C a.g.c.c.c.c.f.c.c.c.c.g.g.c.c.c.c.a.g.] 6 o o o o . . . o @ r X.c.c.c.c.c.c.c.c.c.c.c.f.c.c.c.c.c.c.c.c.c.c.c.t.C 3 o . o o o . . o o o o o o o o o o o o o o o o o o o o o o o o o o o o . . o . o . o o o . . . . . . o . 5 8.c.c.c.c.c.t.0 . o . . . . . . . Z.Z.Z.Z.Z.Z.Z.Z.",
"Z.Z.Z.Z.Z.Z.. . . . . . o . . 6 8.c.c.c.c.c.c.x . . o o o o o o o o . . o o . o . o . . . o o o o o o o o o o o o o o o o o o o o o . . . o o o o o o o o o o o o o o o o o o o o o o $ ) c.c.c.c.c.c.c.c.c.c.c.c.c.4.l - o o o o o o o + 0 ] c.c.a.a.c.c.c.f.c.c.f.c.c.f.c.c.c.c.c.c.c.=.t @ o o . . . o . . > v t.c.c.c.c.c.c.c.c.c.c.c.c.c.c.c.c.c.c.c.c.c.c.c.:.s $ . o . . . . . . o o o o . o o o o o o o o o o o o o o o o o o o . . . . . o o o o . . . . . . . . . 4 8.c.c.c.c.c.a.e . o . . . . . . . Z.Z.Z.Z.Z.Z.Z.Z.",
"Z.Z.Z.Z.Z.Z.. . . . . . o . . 0 t.c.c.c.c.c.c.l . . o o o o o o o o o . o . o o o o o o o o o o o o o o o o o o o o o o o o o o o o o . . . . . o o o o o o o o o o o o o o o o o o . $ ) c.c.c.c.c.c.c.c.c.c.c.t.C 6 + o o o o o o . & h <.c.c.c.c.f.c.c.c.c.f.f.f.f.f.c.f.c.c.c.c.c.c.c.t.v > . . . o . . . . @ e Q f.c.c.c.c.c.c.c.c.c.c.c.c.c.c.f.f.c.c.c.c.c.c.a.v - . . . . . . . . . . . . . o o o o o o o o o o o o o o o o o o o o . . . o o o o . . . . . . . o . 2 ,.c.c.c.c.c.c.r . . . . . . . . . . Z.Z.Z.Z.Z.Z.Z.",
"Z.Z.Z.Z.Z.Z.. . . . . . o o . q t.c.c.c.c.c.c.j . . . o o o o o o o o . o o o o o o o o o o o o o o o o o o o o o o o o o o o o o o o o o . . o o o o o o o o o o o o o o o o o o . . $ ` c.c.c.c.c.c.c.c.c.0.F e $ o o o o o o o & r ! a.c.c.c.c.c.c.c.c.c.c.c.c.a.f.c.f.f.c.c.c.c.c.c.c.c.c.{ a - o . . . . o o . & i ] f.c.c.c.c.f.c.c.c.c.c.c.c.c.c.c.c.c.c.c.c.c.c.Q 2 . . . . . . . . . . . . o o o o o o o o o o o o o o o o o o o o o o o o o o o . . . . . . . o . 1 :.c.c.c.c.c.c.u . . . . . . . . . . Z.Z.Z.Z.Z.Z.Z.",
"Z.Z.Z.Z.Z.Z.. . . . . . o o . e t.c.c.c.c.c.c.j   . . o o o o o o o o o o o o o o o o o o o o o o o o o o o o o o o o o o o . . o o o o o o o o o o o o o o o o o o o o o o o o . . . $ ` c.c.c.c.c.c.f.=.b 0 $ . . o o o . o = t Q t.c.a.c.c.c.c.c.c.c.c.c.c.f.f.c.c.c.c.g.c.f.c.c.c.c.c.c.a.c.f.X.h 2 + . o o . . . o - s ' t.c.c.a.c.c.c.c.f.c.c.g.c.c.c.c.c.c.c.c.c.c.{ 6 . . . . . . . . . . . o o o o o o o o o . o o o o o o o o o o o o o o o o o o . . . . . o o . : =.c.c.c.c.c.c.i . . . . . . . . . . Z.Z.Z.Z.Z.Z.Z.",
"Z.Z.Z.Z.Z.Z.. . . . . o o o . e t.c.c.c.c.c.c.j   . . . o o o o o o o o o o o o o o o o o o o o o o o o o o o o o o o o o . . . . o o o o o o o o o o o o o o o o o o o o o o . . . . $ ` c.c.c.c.8.F y > @ . . o o o o @ 5 k { t.c.c.c.c.a.c.c.c.f.f.c.c.f.f.f.c.c.c.f.f.f.c.c.c.c.c.c.c.c.c.c.c.g.c.:.C d 8 & o . o o o o & e C 8.c.c.c.c.c.f.c.f.g.f.c.c.c.c.c.c.c.c.c.c.$.8 . . . . . . . . . . o o o o o . o o o o o o o o o o o o o o o o o o o o o o . . . . . o o . : =.c.c.c.c.c.c.p . . . . . . . . . . Z.Z.Z.Z.Z.Z.Z.",
"Z.Z.Z.Z.Z.Z.. . . . . o o o . q t.c.c.c.c.c.c.j   . . . o o o o o o o o o o o o o o o o o o o o o o o o o o o o . o o o o o o o o o o o o o o o o o o o o o o o o o o o o o . . . . . $ _ c.c.c.c.<.z 8 = + . . o o o o % r m =.a.c.c.c.c.c.c.c.c.c.c.c.f.f.g.g.c.c.c.c.f.c.f.c.c.c.c.c.c.c.c.c.c.c.c.q.@.m u - . o o o o o + > g ,.c.c.c.c.c.f.f.c.c.g.c.f.f.f.f.c.c.c.c.c.c.#.6 . . . . . . . . o o o o o o o o o o o o o o o o o o o o o o o o o o o o o o o . . . o o . : =.c.c.c.c.c.c.a . . . . . . . . . . Z.Z.Z.Z.Z.Z.Z.",
"Z.Z.Z.Z.Z.Z.. . . . . . o . . q t.c.c.c.c.c.c.j   . . . o o o o o o o o o o o o o . o o o o o o o o o o o o o o . o o o o o o o o o o o o o o o o o o o o o o o o o o o o o . . . . . $ _ c.c.g.c.g.g.t.' g , o o o o o o o @ > s ] f.c.c.c.c.f.c.c.c.f.c.f.c.g.f.c.c.c.c.c.f.c.c.c.c.c.c.c.c.c.c.4.M e - @ o . . o o . + 5 x =.f.c.c.c.c.f.c.f.c.c.f.f.c.f.c.a.c.g.c.c.a.a.c.c.{ 1 . . . . . . . . . . . o o o o o o o o o o o o o o o o o o o o o o o o o o o . o . o o . > =.c.c.c.c.c.c.a . . . . . . . . . . Z.Z.Z.Z.Z.Z.Z.",
"Z.Z.Z.Z.Z.Z.. . . . . . o . . q t.c.c.c.c.c.c.l   . . . o o o o o o o o o o o o o . o o o o o o o o o o o o o o o o o o o o o o o o o o o o o o o o o o o o o o o o o o o . . . . . . $ _ c.g.g.a.c.c.c.c.c.=.z 5 + . o o o o . . - i ' a.c.c.c.c.c.c.c.c.c.c.c.c.c.f.a.c.c.c.c.c.c.c.c.c.c.c.,.z 3 + . . o o o o o @ 6 b 4.c.c.c.c.c.c.c.f.c.c.c.g.c.c.c.c.c.c.c.c.f.c.c.c.c.c.c.Q - . . . . . . . . . . . . . . o o o o o o o o o o o o o o o o o o o o o o o o . . o . . , -.c.c.c.c.c.c.i . . . . . . . . . . Z.Z.Z.Z.Z.Z.Z.",
"Z.Z.Z.Z.Z.Z.. . o o o o o o . 8 0.c.c.c.c.c.c.l . . . . o . o o o o o o o o o o o . o o o o o o o o o o o o o o o o o o o o o o o o o o o o o o o o o o o o o o o o o o o o o . . . . $ _ c.c.g.c.c.c.c.c.f.g.c.,.z 1 + o o o o o . . * h ,.c.c.c.c.c.c.f.c.c.c.c.f.f.f.f.f.c.c.c.c.c.c.c.t.C 6 + . . o o o o o + 3 v 2.c.c.c.c.c.c.c.c.c.f.c.c.c.c.c.c.c.c.c.c.c.c.c.c.c.c.c.c.c.c.v @ . . . . . . . . . . . . . o o o o o o o o o o o o o o o o o o o o o o o o o o o . . 2 ,.c.c.c.c.c.c.i . . . . . . . . . . Z.Z.Z.Z.Z.Z.Z.",
"Z.Z.Z.Z.Z.Z.. . o . . o o o . 5 8.c.c.c.c.c.c.z . . . . o o o o o o o o o . o o o . o o o o o o o o o o o o o o o o o o o o o o o o o o o o o o o o o o o o o o o o o . o o o . . . . $ ` c.g.g.c.c.c.c.c.c.c.c.c.c.=.d % . o o . . . . o 8 ' c.c.c.c.c.f.c.c.a.g.g.c.c.f.c.c.c.c.c.c.c.:.a $ . o . . o o o . & f -.c.c.c.c.c.a.c.c.c.c.c.c.c.c.c.c.c.f.c.c.c.c.f.c.c.c.c.c.c.c.c.c.t.i . o o . . . . . . . . . . . o o o o o o o o o o o o o o o o o o o o o o o o o . . . 5 8.c.c.c.c.c.c.y . o . . . . . . . . Z.Z.Z.Z.Z.Z.Z.",
"Z.Z.Z.Z.Z.Z.. . . o . o o . . 5 8.c.c.c.c.c.c.b X . . o o o o o o o o o . . o o o o o o o o o o o o o o o . o o . o o o o o o o o o o o o o o o o o o o o o o o o o o o o o o o o . . $ ` c.c.c.c.c.f.f.c.c.c.c.c.c.c.a.V 2 o o . . . . . . : b a.c.c.c.c.c.c.f.c.c.c.c.a.c.c.c.c.c.c.] 6 . . . . o . . o + 6 Q f.c.c.c.c.c.c.c.c.f.f.g.c.f.c.f.c.c.c.c.c.c.c.c.c.c.c.c.c.c.c.c.c.c.c.=.2 . . . . . . . . . . . . . . . . o o o o o o o o o o o o o o o o o o o o o . . . . 6 t.c.c.c.c.c.f.r . o . . . . . . o o Z.Z.Z.Z.Z.Z.Z.",
"Z.Z.Z.Z.Z.Z.. . . . . o o . . < <.c.c.c.c.c.c.D + . o o o . o o o o o o o . o o o o . . o o o o o o o . . . . . . . . . o o o o o o o o o o o o o o o o o o o o o o o o o . . o o . . $ ` c.c.c.c.c.f.c.c.c.c.c.c.c.f.c.c.X.0 . . . . . o o . % z a.c.c.f.c.c.c.c.c.c.c.c.c.c.c.c.c.Q < . . . . . o o . @ a :.c.c.c.c.c.c.f.c.c.f.c.g.f.c.c.c.f.a.g.c.c.c.c.f.c.c.c.f.f.c.c.c.c.c.c.c.c.b @ . . . . . . o . . . . . . . . o o o o o o o o . o o o o o o o o o o . o . . . . 0 t.c.c.c.c.c.a.0 . o . . . . . . . Z.Z.Z.Z.Z.Z.Z.Z.",
"Z.Z.Z.Z.Z.Z.. . . . o o o . . > =.c.c.c.c.c.c.E $ . o o o o o o o o o o o o o o o . . . o o o o o o . . . . . . . . . . . o o o o o o o o o o o o o o o o o o o o o o o . o . o . . . $ _ c.c.c.g.c.c.c.c.c.c.c.c.c.g.c.c.c.=.0 . o o o o . . . $ l a.c.c.c.c.c.c.c.c.c.c.c.c.c.c.' 1 . o . . . . o o = z t.c.c.c.c.c.f.f.c.f.g.c.c.c.c.c.c.c.c.f.c.c.c.c.c.f.c.f.c.c.f.c.c.c.c.c.c.c.c.8.q . . . . . . . . . . . . o o . o o o o o o o o . . o o o o o o o o o . . . . . . r a.c.c.c.c.c.0.7 . . . . . . . . . Z.Z.Z.Z.Z.Z.Z.Z.",
"Z.Z.Z.Z.Z.Z.. . . . o o o . . * +.c.c.c.c.c.c.' % . o o o o o o o o o o o o o o . . . o o o o . . . . . . . . . . . . . . . o o o o o o o o o o o o o o o o o o o o . o o . . . . . . $ _ c.c.c.c.c.c.c.c.c.c.c.c.c.c.c.c.c.c.=.8 o o o . . . . . % v c.c.c.c.c.c.c.c.c.c.c.c.c.{ 2 . o o o o o . . - C c.c.c.c.c.c.c.c.c.c.f.c.c.c.c.g.a.a.a.c.f.c.c.g.c.c.c.c.f.f.c.a.c.c.c.c.c.c.c.c.c.Q % . . . . . . . . . . o o o . o o o o o o o o . . o o o o o o o o o . . . . . . i c.c.c.c.c.c.4.3 . . . . . . . . . Z.Z.Z.Z.Z.Z.Z.Z.",
"Z.Z.Z.Z.Z.Z.. . . . . o . . . & ' c.c.c.c.c.c.+.* . o o o o o o o o o o o o . . . o o o o o o . . . . o o o . . . o o . . . . o o o o o o o . o o o o o o o o o o o o o o . . . . . . $ _ c.c.c.c.c.c.c.f.c.c.c.c.c.c.c.c.c.c.c.] 1 o . . . . . . o - E c.c.c.c.c.c.c.c.c.c.c.4.9   . . o o o o . : F c.c.c.c.c.c.c.c.c.c.c.c.c.c.f.c.c.f.f.f.a.f.c.g.c.c.c.c.c.c.f.c.f.c.c.c.g.c.c.c.c.c.t.r . . . . . . . . . o o o o o o o . o o o o o o . . . . . . o o o o . . . o . . g c.c.c.c.c.c.:., . . . . . . . . . Z.Z.Z.Z.Z.Z.Z.Z.",
"Z.Z.Z.Z.Z.Z.. . . . . . . . . @ E c.c.c.c.c.c.:., . o o o o o o o o o o o o o . . o o o o o o o . . . o o o o o . . . . . . o o o o o o o o o o o o o o o o o o o o o o . . . . . . . $ _ c.c.c.f.f.c.c.c.c.c.c.c.c.c.c.c.c.c.c.c.m $ . . . . . o o . 2 #.c.c.c.c.c.c.c.c.c.c.h o . . . o o o o : E a.g.c.c.c.c.c.c.c.c.c.c.c.c.c.c.c.c.c.f.c.f.c.f.c.c.f.c.c.f.c.c.c.c.c.c.c.g.c.c.c.c.c.c.E $ . o o . . . . . o o o o o o o . o o o o o o . . . . o o o o o o . . . o . . z c.c.c.c.c.c.+.- . . . . . . . . . Z.Z.Z.Z.Z.Z.Z.Z.",
"Z.Z.Z.Z.Z.Z.o . . . . . . . . + b c.c.c.c.c.c.8.5 . o o o o o o o o o o o o o o o o o o o o o o . . o o o o o o . o o o . . o o o o o o o o o o o o o o o o o o o o o o o . . . . . . $ _ c.c.c.f.c.c.c.c.c.c.f.f.c.c.c.c.c.c.c.c.t.e . . . . . . . . . i a.c.c.c.c.c.c.c.c.' - . . . . . o o = C c.g.a.g.c.c.c.a.c.c.c.c.f.c.c.c.c.c.c.c.g.c.c.f.c.c.c.f.c.c.f.c.c.c.f.c.c.c.c.c.c.c.c.c.c.8.7 . o o . . . . . o o o o o o o . o o o o o o o . . . . o o o o o o o o o o + D c.c.c.c.c.c.' % . . . . . . . . . Z.Z.Z.Z.Z.Z.Z.Z.",
"Z.Z.Z.Z.Z.Z.o . . . . . . . . . j c.c.c.c.c.c.t.e . o o o o o o o o o o o o o o o o o o o o o o o o . o o o o . o o o o o o o o o o o o o o o o o o o . . o o o o o o o o o o . . . . $ _ c.c.c.c.c.c.c.c.c.c.c.c.c.c.g.c.c.c.c.c.c.Q % . . . . . . . . % F c.c.c.c.c.c.c.t.r o o . . . . . % x c.c.c.c.c.c.c.c.c.c.c.c.f.c.c.c.c.c.c.c.c.g.c.c.c.c.f.c.c.f.f.c.c.c.c.c.c.c.c.c.c.c.c.c.c.c.c.z o o o o . . . . o o o . . o o o o o o o o o o . . . o o o o o o o o o o . % ' c.c.c.c.c.c.C + . . . . . . . . . Z.Z.Z.Z.Z.Z.Z.Z.",
"Z.Z.Z.Z.Z.Z.o . . . . . . . . . p c.c.c.c.c.c.c.a . o o o . o o o o o o o o o o o o o o o o o o o o . o o o o o o o o o o o o o o o o o o o o o o o o . . . o o o o o o o o o o o . . $ _ c.c.c.c.c.c.c.c.c.c.c.c.f.c.a.c.c.c.c.c.c.8.0 . . . . . . . o o 6 <.c.c.c.c.c.c.F $ . . . . o . . 5 E X.,.t.c.c.c.c.c.c.c.c.c.c.c.c.c.c.f.c.c.f.f.c.c.c.c.c.c.a.c.c.c.c.f.c.c.c.c.c.c.c.c.c.c.c.c.c.+.- o o o o o o . o o o o . o o o o o o o o o o o . o o o o o o o o o o o . - #.c.c.c.c.c.c.z o o . . . . . . . o Z.Z.Z.Z.Z.Z.Z.Z.",
"Z.Z.Z.Z.Z.Z.Z.. . . . . . . . . q t.c.c.c.c.c.c.l o o . . . . o o o o o o o o o o o o o o o o o o o o o o o o o o o o o o o o o o o o o o o o o o o . . . o o o o o o o o o o o o . . $ ` c.c.c.c.c.c.c.c.c.c.c.f.c.c.c.f.c.c.c.c.c.c.h . . . . . . . o o + v c.c.c.c.c.t.e . . . . . o o o + # - 2 0 s V #.a.c.c.c.c.c.c.c.c.c.c.c.c.c.c.c.c.c.c.f.f.c.c.c.c.c.c.c.c.c.c.c.a.c.c.c.c.c.c.c.c.a.e . . o o o o . o . o o o o o o o o o o o o . o . o o o o o o . o o o o . 3 4.c.c.c.c.c.c.f . o o . . . . . . o Z.Z.Z.Z.Z.Z.Z.Z.",
"Z.Z.Z.Z.Z.Z.Z.. . . . . . . . . 4 4.c.c.c.c.c.c.V + o . . . . . o o o o o o o o o o o o o o o o o o o o o o o o o o o o o o o o o o o o o o o o o o . . . o o o o o o o o o o o . . . $ ` c.c.c.c.c.c.c.c.c.f.f.c.c.f.c.f.a.g.a.c.c.c.F + . . . . . o o . . 5 4.c.c.c.c.Q & . . . . o o o o . . . . . . + : e v =.c.c.c.c.c.c.c.c.c.c.g.c.c.f.f.c.c.c.c.a.f.f.c.c.c.c.c.c.c.c.c.a.c.c.c.c.c.c.c.x o . o o o . o o o . . . o o o o o o o o . o . o o o o o . . . . o o o . e a.c.c.c.c.c.a.r . o . . . . . . o o Z.Z.Z.Z.Z.Z.Z.Z.",
"Z.Z.Z.Z.Z.Z.Z.. . . . . . . . . - #.c.c.c.c.c.c.] & . . . . . . o o o o o o o o o o o o o o o o o o o o o o o o o o o o o o o o o o o o o o o o o o o o o . . o o o o o o o o . . . . $ _ c.c.g.a.a.f.c.c.c.g.f.f.c.c.c.f.c.c.c.c.c.c.Q $ . . . . . o o . . @ D c.c.c.c.a . . . . . . o o o . . . . . . . . . o > f { f.c.c.c.c.c.c.f.c.c.c.c.c.c.a.f.c.c.c.c.c.f.f.c.f.f.c.c.g.c.c.c.c.c.c.c.c.' & . . . . o o o o o o o o o o o o o o o o o . o o o o o . . . . . o . . f c.c.c.c.c.c.8.5 . o o . . . . . o Z.Z.Z.Z.Z.Z.Z.Z.Z.",
"Z.Z.Z.Z.Z.Z.Z.. . . . . . . . . $ ) c.c.c.c.c.c.,., . . . . . . o o o . o o o o o o o o o o o o o o o o o o o o o o o o o o o o o o o o o o o o o o o . o o . o . . . o o o o . . . . $ _ c.c.c.f.c.c.c.c.c.c.f.f.c.c.f.c.c.f.c.c.c.c.Q $ . . . . o . . . . . t a.c.c.:.< . . . . . . o o o . . . . . . . . . . . . - g -.c.c.c.c.c.f.c.c.c.f.c.c.f.a.c.c.c.c.c.c.f.c.f.f.c.c.g.c.c.c.c.c.c.c.c.,.2 . o . . . o o o o o o o o o o o o o o o o . . o o o o . . . . . . o o v c.c.c.c.c.c.=.: . o o . . . . o o Z.Z.Z.Z.Z.Z.Z.Z.Z.",
"Z.Z.Z.Z.Z.Z.Z.. . . . . . . . . o v c.c.c.c.c.c.t.0 . . . . . . o o o . o o o o o o o o o o o o o o o o o o o o o o o o o o o o o o o o o o o o o o o . . o o o . . . . . o o . . . . $ ` c.c.c.f.c.c.c.c.c.g.a.c.c.c.c.c.c.c.c.c.c.c.Q $ . . . . . . . . . . - +.c.c.Z @ . . o . o o o o o . . . o . . . . . . o o . o 5 E f.c.c.c.c.c.c.c.c.f.f.c.g.c.c.f.c.c.f.f.f.c.c.c.c.f.c.c.c.c.c.c.c.c.a.e . o . . . . . o o o o o o o o o o o o o . . . . o o o . . . . . . . % ' c.c.c.c.c.c.Q $ . . . . . . . o o Z.Z.Z.Z.Z.Z.Z.Z.Z.",
"Z.Z.Z.Z.Z.Z.Z.o o o . . . . . o . f c.c.c.c.c.c.c.s . . . . . . o o o . o o o o o o o o o o o o o o o o o o o o o o o o o o o o o o o o o . o o o o o o . o o o . . . . . . . . . . . $ ` c.c.c.c.c.c.c.f.c.c.c.c.f.c.c.a.c.c.c.c.c.c.Q $ . . . . . . . . . . o c c.c.s . . . o o o o o o . . o o o . . . . . . o o o o o & l t.c.c.c.c.c.c.c.f.c.c.g.c.c.c.c.f.c.f.c.f.f.c.c.c.c.c.f.c.c.c.c.c.c.g . . . . . . . o o o o o o o o o o o o o . . . o o o o o o . . . . . 1 -.c.c.c.c.c.c.v o . . . . . . . . o Z.Z.Z.Z.Z.Z.Z.Z.Z.",
"Z.Z.Z.Z.Z.Z.Z.Z.o . . . . . o o . q t.c.c.c.c.c.c.v + . . . . o o o o . o o o o o o o o o o o o o o o o o o o o o o o o o o o o o o o o . . o o o o o o o o o o o o . . . . . o o . . $ ` c.c.f.c.c.f.f.c.a.c.c.a.f.f.f.c.c.f.c.c.c.c.Q $ . o . . . . . . . . . r a.t.7   . . o o o o o o . . o o o o . . . . . . o o o o o @ g t.c.c.c.c.c.f.f.c.c.c.c.g.f.c.c.f.f.c.c.c.f.c.f.c.c.c.c.c.c.c.c.c.b + . . . . . . o o o o o o o o o o o o . . . o . o o o o o o o . . . q t.c.c.c.c.c.c.a . . . . . . . . . o Z.Z.Z.Z.Z.Z.Z.Z.Z.",
"Z.Z.Z.Z.Z.Z.Z.Z.o . . . . . . o . 1 :.c.c.c.c.c.c.] & . o o . . o . o o o o o o o o o o o o o o o o o o o o o o o o o o o o o o o o o o o . o o o o o o o o o o o o . . . . o . . . . $ _ c.c.c.f.c.c.f.c.c.c.c.f.c.c.c.c.c.c.c.c.c.c.Q $ . o . . . . . . . . . 2 ,.@.- . . o o o o o o o o o o o o o . o . o . . . o . o o o @ h a.c.c.c.c.c.c.c.c.c.g.c.g.c.c.c.f.f.c.c.c.f.f.c.c.c.c.c.c.g.c.c.' % . . . . . . o o o o o o o o o o o o o . o . o . o o o o o o . . . h c.c.c.c.c.c.t.7 . . . . . . . . . o Z.Z.Z.Z.Z.Z.Z.Z.Z.",
"Z.Z.Z.Z.Z.Z.Z.Z.o . . . . . . o . % Q c.c.c.c.c.c.4.3 . o o o . . o o o o o o o o o o o o o o o . o o o o o o o o o o o o o o o o o o o . . . o o o o o o o o o o o o . . . . . . . . $ _ c.c.c.f.c.c.c.c.c.c.f.f.f.c.c.c.c.c.c.c.c.c.Q $ . o . . . . . . . . o & ] F + . . o o . . o o o o o o o o o o o . . . . . . . . . o . % V c.c.c.c.c.c.c.f.c.c.c.c.c.c.f.g.g.c.f.f.c.f.c.c.f.c.c.c.g.g.c.+.* . . . . . . o . . . . o o o o o o o o o o o . . . o o o o o . . @ F c.c.c.c.c.c.#.- . . . . . . . . . Z.Z.Z.Z.Z.Z.Z.Z.Z.Z.",
"Z.Z.Z.Z.Z.Z.Z.Z.o . . . . . . . . . z c.c.c.c.c.c.f.u . o o o o . o o o o o o o o o o o o o o o o o o o o o o o o o o o o o o o o o o o o o o . o o o o o o o o o o o . . . . . . . . $ _ c.g.c.c.c.c.c.c.c.c.c.f.f.f.c.f.c.c.c.c.c.c.Q $ . . . . . . . . . . . + b h . . . o . . o . o o o o o o o o o o . . . . . . . . . . o . 2 =.c.c.c.c.f.f.f.c.c.c.c.c.c.c.c.g.g.c.c.c.c.c.c.c.f.c.c.c.c.c.:., . . . . . . . . . . . o o o o o o o o o o o o . . . . o o o o . > =.c.c.c.c.c.c.F @ . . . . . . . . . Z.Z.Z.Z.Z.Z.Z.Z.Z.Z.",
"Z.Z.Z.Z.Z.Z.Z.Z.o . . . . . . . . . y a.c.c.c.c.c.c.c . . o o . o o o o o o o o o o o o o o o o . o o o o o o o o o o o o o o o o o o o o o o o o o o o o o o o o o o o o . . . . . . $ ` c.g.g.c.c.c.c.c.c.f.f.f.f.f.c.f.f.c.c.c.c.c.Q $ . . . . . . . . . . .   f u . . . . . . . . o o o o o o o o . . o . . . o . . . . . . o o l c.c.c.c.c.f.g.g.c.c.c.g.g.c.c.f.c.g.c.c.c.f.c.c.c.c.c.c.c.c.4.4 . . . . . . o . . . . . o o o o o . . . o . o . . . . o o o . . e a.c.c.c.c.c.c.g . . . . . . . . . . Z.Z.Z.Z.Z.Z.Z.Z.Z.Z.",
"Z.Z.Z.Z.Z.Z.Z.Z.Z.. . . . . . . . . 2 ,.c.c.c.c.c.c.] & . o o o o o o o o o . . . . o o o o o o o o o o o o o o o o o o o o o o o o o o o o o o o o o o o o o o o o o o o o . . . . . $ _ c.g.g.c.f.c.c.g.g.c.c.f.f.c.f.c.c.c.c.c.c.c.Q $ . . . . . . . . . . .   e 8 . . . . . . . . o o o o o o o o . . . . . o o . . . . . . o . 3 ,.c.c.c.c.c.c.c.c.f.c.c.g.a.f.c.c.c.g.c.c.g.c.f.c.c.c.c.c.c.t.7   . . . . . . o o . . . . . . . . o . . o o o . . . o o o o o o l c.c.c.c.c.c.t.q . . . . . . . . . o Z.Z.Z.Z.Z.Z.Z.Z.Z.Z.",
"Z.Z.Z.Z.Z.Z.Z.Z.Z.o . . . . . . . . % _ c.c.c.c.c.c.8.6 . o o o o o o o o o . . . . . o . . o o o o o o o o o o o o o o o o o o o o o o o o o o o o o o o o o o o o o . o o o . . . . $ _ c.g.g.c.c.f.c.a.a.a.f.f.g.g.g.c.c.c.c.c.c.c.Q $ . . . . . . . . . . . . 2 > . . . o . . . . . o o o o o o o . . . o o . . o . . . . . . . $ Q c.c.c.c.c.c.c.c.c.c.c.c.c.f.c.c.c.a.c.c.c.f.f.c.c.c.c.c.c.a.0   . . . . . . o o o . . . . . . . . . o o . . o . . o o o o o & ' c.c.c.c.c.c.$.: . . . . . . . . . Z.Z.Z.Z.Z.Z.Z.Z.Z.Z.Z.",
"Z.Z.Z.Z.Z.Z.Z.Z.Z.o . . . . . . . . . l c.c.c.c.c.c.c.f o o o . o o o o o o . . . . o . . o . o o o o o o o o o o o o o o o . o o o o o o o . o o o o o o o o o o o o o o o o . . . . $ _ c.g.g.a.f.c.f.c.c.c.c.c.g.c.c.c.f.c.c.c.c.c.Q $ . . . . . . . . . . . . % $ . . . . . . . . . o o o o o o o o . o o o . o o o . . . . . . o z c.c.c.c.f.c.c.c.f.c.f.f.f.c.f.f.c.c.c.a.c.c.f.c.c.f.c.c.c.a.q   . . . . . . . . . . . . . . . . . . . o . . . . . o o o o . 6 8.c.c.c.c.c.c.V + . . o o o . . . o Z.Z.Z.Z.Z.Z.Z.Z.Z.Z.Z.",
"Z.Z.Z.Z.Z.Z.Z.Z.Z.o . . . . . . . . . q t.c.c.c.c.c.c.Q $ o o . . . o o o o o o . . . . o . . o o o o o o o o o o o o o o . o o o o o o o o . o o o o o o o o o o o o o o o o . . . . $ _ c.c.c.c.c.c.c.f.f.f.f.f.f.c.c.f.c.c.c.c.c.c.Q $ . . . . . . . . . . . . . . . . . . . . . . . o o o o o o o o o o o o o o o o . . . . . . o h c.c.c.c.c.f.c.c.c.c.f.f.f.g.f.c.f.c.f.f.f.g.a.c.c.c.c.c.c.a.q . . . . . . . . . . . . . . . . . . . o . o o o o o o o o o . h c.c.c.c.c.c.c.i . o o o o o . . . o Z.Z.Z.Z.Z.Z.Z.Z.Z.Z.Z.",
"Z.Z.Z.Z.Z.Z.Z.Z.Z.Z.. . . . . . . . . - #.c.c.c.c.c.c.4.3 . o . . . o o o o o o o . . o . . . o o o o o o o o . . . o o o o o o o o o o . . o o o o o o o o o o o o o o o o o . . . . $ ` c.c.c.c.c.c.f.c.f.c.c.f.c.c.f.c.c.c.c.c.c.c.Q $ . . . . . . . . . . . . . . . . . o . o o o o o o o o o o o o o o o o o o o o . . . o o o . g c.c.f.c.c.c.c.f.c.c.f.c.c.c.f.f.f.f.c.f.f.c.c.c.f.c.c.c.c.t.7 . . . . . . . . . . . . . . . . . . . . o o o o . . . o o o % Q c.c.c.c.c.c.,.2 . o o o . o . . . o Z.Z.Z.Z.Z.Z.Z.Z.Z.Z.Z.",
"Z.Z.Z.Z.Z.Z.Z.Z.Z.Z.o . . . . . . . . + m c.c.c.c.c.c.c.f . . . . . o o o o o o . . o . . . . o o o o o o o . . . . . o o o o o o o o o o o o . o o o o o o o o o o o o o o . . . . . $ ` c.c.g.g.c.c.c.c.f.f.c.c.a.a.f.c.c.c.c.c.c.c.Q $ . . . . . . . . . . . . . . . . . . o o o o o o o o o o o o o o o o o o o o o o . o o o o . j c.c.c.c.c.c.c.f.c.f.c.f.f.c.g.c.f.f.f.f.f.c.f.f.c.c.c.c.c.8.5 . . . . . . . . . . . . . . . . . . . . o o o . . . . . . . 5 8.c.c.c.c.c.c.Q $ . . . . o o . . o Z.Z.Z.Z.Z.Z.Z.Z.Z.Z.Z.Z.",
"Z.Z.Z.Z.Z.Z.Z.Z.Z.Z.o . . . . . . . . . u f.c.c.c.g.c.c.Q % . o . . . o o o o o o . . . . . . o o o o o o o o o . . . . o o o o o o o o o o . . . . . . . o o o o o o o o o . . . . . $ ` c.c.c.c.c.c.c.c.c.c.f.a.c.c.f.c.c.f.f.c.c.c.Q % o o . . . . . . . . . . . . . . . . o o o o o o o o o o o o o o o o o o o o o o o o o o . @ F c.c.c.f.c.f.f.f.c.a.c.c.g.c.c.f.f.c.c.c.f.c.c.c.c.c.c.c.c.,.< . . . . . o . . . . . . . . o o o . . . o o o o . . . . . . j c.c.c.c.c.c.c.f . . o o o o o . . o Z.Z.Z.Z.Z.Z.Z.Z.Z.Z.Z.Z.",
"Z.Z.Z.Z.Z.Z.Z.Z.Z.Z.Z.. . . . . . . . . , -.c.c.c.c.c.c.8.5 . o o . . . o o . o . . . . . . o o . . . o o o o o . . . . . o o o o o o o o o . . . . . . o o o o o o o o o o o . . . . $ ` c.c.c.f.c.c.c.c.c.c.c.c.g.c.c.c.f.c.c.c.c.c.Q % o o o o . . o . . . . . . . . . o o o . . o o o o o o o o o o o o o o o o o o o o o o o . > =.c.c.f.f.c.c.c.a.f.f.c.f.f.g.c.a.a.g.c.c.f.c.c.c.c.c.c.c.c.#.- . . . o o o . . . . . . . . . o . . . . o o . . . . . . . * { c.c.c.c.c.c.,.3 . o o o o o o . . o Z.Z.Z.Z.Z.Z.Z.Z.Z.Z.Z.Z.",
"Z.Z.Z.Z.Z.Z.Z.Z.Z.Z.Z.. . . . . . . . . + N c.c.c.c.c.c.c.l o o o . o o . . . . . . . . . o o o . . . o o o o o o . . . . o o o o o o o o . . . . o o o o o o o o o o o o o . . . . . $ _ c.g.g.c.f.f.c.c.c.c.c.c.c.f.c.c.a.c.c.c.c.c.Q % o o o o o o o . . . . . o . . . . . . . . . o o o o o o o o o o o o o o o o o o o o o o o s a.c.c.f.c.c.c.c.c.c.f.f.a.g.f.a.a.a.a.c.c.f.c.c.c.c.c.c.c.c.' & . o o o o o o . . . . . . . . . . o o o o . . . . o . . . r a.c.c.c.c.c.c.F @ . o o o o o o . o Z.Z.Z.Z.Z.Z.Z.Z.Z.Z.Z.Z.Z.",
"Z.Z.Z.Z.Z.Z.Z.Z.Z.Z.Z.. . . . . . . . . . y a.c.c.c.c.c.c.{ - . . o o o . o o . o . . . . o o o . . . o o o o o o . . . . . o o o o o o o . . . o o o o o o o o o o o o o o o . . . . $ _ c.c.g.c.f.f.c.c.c.c.c.f.f.f.c.c.f.c.c.c.c.c.Q % o o o o o o . . . . . . . . . . . . . . . . o o o o o o o o o o o . o o o o o o o o o o - ] c.c.g.c.f.c.c.c.f.f.c.c.a.c.a.c.g.g.c.g.g.g.f.f.c.c.c.c.c.c.V + o o o o . . . . . . . . . . . . o o o o . . . . . . . . @ V c.c.c.c.c.c.c.i . . . . o o o o o o Z.Z.Z.Z.Z.Z.Z.Z.Z.Z.Z.Z.Z.",
"Z.Z.Z.Z.Z.Z.Z.Z.Z.Z.Z.Z.. . . . . . . . . : +.c.c.c.c.c.g.a.r . o o o o o o o o o . . . o o o o o o o o o o o o o . . . . . o o o o o o o o . o . o o o o o o o o o o o o . . . . . . $ ` c.c.f.c.f.c.c.g.f.a.c.c.f.c.c.c.c.c.c.c.c.c.Q % o o o o o o o . . . . . . o o . . . . . . . o o o o o o o o o o . . . . . . o o . . o o h c.c.c.c.a.c.c.c.g.c.c.c.f.f.g.f.a.f.f.c.f.f.c.c.c.c.c.c.c.c.c.g . o o o . . . . . . . . . . . o o o o o o o . . . . . . . 5 <.c.c.c.c.c.c.=., . . . . o o o o . . Z.Z.Z.Z.Z.Z.Z.Z.Z.Z.Z.Z.Z.",
"Z.Z.Z.Z.Z.Z.Z.Z.Z.Z.Z.Z.. . . . o o . . . o z c.c.c.c.c.c.c.C @ . . o o o o o . . . . . o o o o o o o o o o o o o . o . . o o o o o o o o o o . o o o o o o o o o o o o o . . . . . . $ _ c.c.f.g.c.c.c.c.f.f.c.c.c.c.c.f.c.c.c.f.c.c.Q % o o o o o o o . . . . o . o . o . o . . . . . o o o o o o o o o . . . . . o o o . . . e 4.c.c.c.c.a.c.c.c.c.c.c.c.f.f.a.c.c.a.f.a.g.f.f.c.c.c.c.c.c.c.a.e . o o . . . . . . . . . . . o o o o o o o o . . . . . . . j c.c.c.c.c.c.c.v + . . . o o o o . . Z.Z.Z.Z.Z.Z.Z.Z.Z.Z.Z.Z.Z.Z.",
"Z.Z.Z.Z.Z.Z.Z.Z.Z.Z.Z.Z.. . o o o o . o . . 0 8.c.c.c.c.c.c.4.6 . . . . . . . . . . . . . o o o o o o o o o o o o o o . . . o o o o o o o o o o o o o o o o o o o o o o o . . . . . . $ _ c.c.c.f.c.c.c.f.c.c.f.c.g.c.c.c.c.c.c.c.c.c.Q $ . o o o o o o . . . . o o . . . . . . . . o . . o o o o o o o o . . . . o o o o . . 5 #.c.c.f.c.c.c.f.f.c.c.c.c.f.c.c.c.c.f.f.c.g.c.c.f.c.c.c.c.c.c.c.:., . . o . . . . . . . . . . o . . o o o o o o . . . o o . : +.c.c.c.c.c.c.0.0 . . . . o o o . . . Z.Z.Z.Z.Z.Z.Z.Z.Z.Z.Z.Z.Z.Z.",
"Z.Z.Z.Z.Z.Z.Z.Z.Z.Z.Z.Z.Z.o o . o o . o . . % Q c.c.c.c.c.c.c.z o . . . . . . o o o o o . o o o o o o o o o o o o o o o o . o o o o o o o o o o o o o o o o o o o o . . . . . . . . . $ _ c.c.f.c.c.c.c.c.c.c.c.c.a.c.c.c.c.c.c.c.c.c.Q $ . o o o o o o o . . . . o o . . . o . . . o o . . o o o o o o o o o o o o o o o o 8 +.c.c.f.c.c.c.c.f.f.f.c.c.c.c.c.f.c.c.c.c.c.c.c.f.f.f.c.c.c.c.c.c.Q $ . . . o o . . . . . . . . . o o o o o o o o o o o o o o s c.c.c.c.c.c.c.Q $ . . . o o o o . o o Z.Z.Z.Z.Z.Z.Z.Z.Z.Z.Z.Z.Z.Z.",
"Z.Z.Z.Z.Z.Z.Z.Z.Z.Z.Z.Z.Z.o o . . . . o o o . p f.c.c.c.c.c.c.=., . . . . . . . o o o . . o o o o o o o o o o o o o o o o o o o o o o o o o o o o o o o o o o o o . . . . o . . . . . % ' c.c.c.c.c.c.a.g.c.f.c.g.a.f.f.a.c.c.c.c.c.c.Q $ . . o . o o o o o . . . o o o o o o . . o o . o . o o o o o o o o o o o o o . @ i :.c.c.a.c.c.f.f.c.c.c.c.c.c.c.c.c.c.c.c.c.c.c.c.c.c.c.c.c.c.c.c.c.c.g . . . . . . . . . . . . . . . o o o o o o . o o o o o o - ' c.c.c.c.c.c.f.i . . . . o o o o o o Z.Z.Z.Z.Z.Z.Z.Z.Z.Z.Z.Z.Z.Z.Z.",
"Z.Z.Z.Z.Z.Z.Z.Z.Z.Z.Z.Z.Z.o . . . . . . . o . : #.c.c.c.c.c.c.c.g . . . . . . . o . o o . . . o o o o o o o o o o o o o o o o o o o o o o o o o o o o o o o o o o . . o . o o . . . . > =.c.c.c.c.g.c.a.a.g.c.c.c.c.c.c.c.c.f.c.c.c.c.Q $ . . . o o o o o o . . . o o o o o o o . . . . . . o o o o o o o o o . . o o 1 v t.c.c.c.c.c.c.f.f.c.f.c.c.c.c.c.c.c.c.c.c.c.f.a.c.c.c.c.c.c.c.c.c.c.8.6 . o . . . . . . . . . . . . . o o o o o . . o o o o o . i a.c.c.c.c.c.c.+.- . . . . . o o . . o Z.Z.Z.Z.Z.Z.Z.Z.Z.Z.Z.Z.Z.Z.Z.",
"Z.Z.Z.Z.Z.Z.Z.Z.Z.Z.Z.Z.Z.Z.. . . . . o o o o . l c.c.c.c.c.c.c.#.: . . . . . . o . . o o . . . . o o o o o o o o o . . o o o o o o o o o o o o o o o o . o o . o o o o . o o . . . . e t.c.c.c.c.c.c.c.f.f.c.c.c.c.c.c.c.c.g.g.c.c.c.Q % . . . o o o o o o . . . . . o o o o o . . . . o o o o o o o o o o o . o > g $.c.c.c.c.c.c.c.c.a.c.c.f.c.c.c.c.f.c.f.c.f.c.c.f.f.c.a.c.c.c.c.c.c.c.c.Q % o o o . . . . . . . . . . . . o o o o . o o . . o o . & ' c.c.c.c.c.c.c.h . . . . . . . . . . o Z.Z.Z.Z.Z.Z.Z.Z.Z.Z.Z.Z.Z.Z.Z.",
"Z.Z.Z.Z.Z.Z.Z.Z.Z.Z.Z.Z.Z.Z.. . . . . o o o . . 2 ,.c.c.c.c.c.c.c.g . . . . . . . . . . . . . . . . o o o o o o . o o . o o o o o o o o o o o o o o . . . . o o o o o o . . o o . . . v c.c.c.c.f.c.c.f.c.c.c.c.c.f.f.c.c.c.c.c.c.c.c.Q % . . o o o o o o o o o o . . . . o o o . . . . o o o o o o o o o o % 6 l #.c.c.c.c.f.c.c.c.c.c.f.c.f.c.c.c.f.c.c.c.c.c.f.c.f.c.g.c.c.c.c.c.c.c.c.c.c.a o o o o o . . . . . . . . . . . o o o o o . . . . o o o u a.c.c.c.c.c.c.=., . . . . . . . . . o Z.Z.Z.Z.Z.Z.Z.Z.Z.Z.Z.Z.Z.Z.Z.Z.",
"Z.Z.Z.Z.Z.Z.Z.Z.Z.Z.Z.Z.Z.Z.Z.. . . . o . o . . + v c.c.c.c.c.c.c.#.> . . . . . . . . . . . . . . . o o o o o o o o o o o o o o o o o o . o o o o o . . . . o o o o o o . o o o o . 2 -.c.c.c.c.f.c.f.c.c.c.c.c.c.c.c.c.c.c.c.c.c.c.c.Q # . . . . . . . . . . . . . . . . . . . . . . . . . . o o + % > e l ' 4.c.c.c.c.c.c.f.c.c.c.c.c.f.f.c.g.c.c.c.f.c.c.c.c.f.f.c.f.c.c.f.c.c.c.c.c.c.c.#.> o o o o o . . . . . . . . . . . . o o o o . . . . . . - ' c.c.c.c.c.c.c.l o . . . . o o . . . o Z.Z.Z.Z.Z.Z.Z.Z.Z.Z.Z.Z.Z.Z.Z.Z.",
"Z.Z.Z.Z.Z.Z.Z.Z.Z.Z.Z.Z.Z.Z.Z.. . . o . . . . o . 6 <.c.c.c.c.c.c.c.h o . . . . . . . . . . . . o . o o o o o o . . . o o o o o o o o . . o o o o o . . . o o o o o o o o o . . . & V c.c.c.f.c.f.f.c.c.c.c.c.c.f.f.c.c.c.c.c.c.c.c.c.#.i i i i u u u u u u u i i i i i i i u u i i i u u i a f l m ' -.t.c.c.c.c.f.g.c.c.c.c.c.f.c.c.c.c.c.c.g.c.f.f.f.c.c.c.c.c.f.g.g.f.g.c.c.c.c.c.c.c.c.j o o o o o o o o o . o . . . o . o o o o . . . . . . . . s f.c.c.c.c.c.c.:.1 . . . . . o o o o o Z.Z.Z.Z.Z.Z.Z.Z.Z.Z.Z.Z.Z.Z.Z.Z.Z.",
"Z.Z.Z.Z.Z.Z.Z.Z.Z.Z.Z.Z.Z.Z.Z.Z.. . . . . . o . . + v c.c.c.c.c.c.c.=.2 . . . . . . . . . . . . . o . o o o o o . . . o o . o o . . . . . . . o o o . . . o o o o . . . o o . . @ h f.c.c.c.c.c.f.c.c.f.c.c.c.f.f.c.f.c.c.c.c.f.c.c.c.c.c.c.c.c.c.c.c.c.c.c.c.c.c.c.c.c.c.c.c.c.c.c.c.c.c.c.c.c.c.c.c.c.c.c.c.c.c.c.c.c.c.c.c.f.f.f.c.c.c.c.c.c.c.f.c.c.f.f.g.c.c.c.c.c.c.a.c.c.c.c.c.c.c.=.< . o o o o o o o o o o . . o o o o o . o . . . . . . . : { c.c.c.c.c.c.c.l o o o o . o o o o o o Z.Z.Z.Z.Z.Z.Z.Z.Z.Z.Z.Z.Z.Z.Z.Z.Z.",
"Z.Z.Z.Z.Z.Z.Z.Z.Z.Z.Z.Z.Z.Z.Z.Z.. . . . o o o o . . 6 4.c.c.c.c.c.c.c.x + . . . . . . . . o o o o o . o o o o o . o o o o . . . . . . . . . . o o o o o o o o o . . . . . . . $ g t.c.c.c.c.c.c.c.c.c.c.c.c.f.c.c.c.c.a.c.c.a.c.c.c.c.c.c.c.c.c.c.c.c.c.c.c.c.c.c.c.c.c.c.c.c.c.c.c.c.c.c.c.c.c.c.c.c.c.c.c.c.f.c.c.c.c.c.c.f.c.c.c.c.c.f.f.c.f.c.c.f.c.a.c.c.c.c.g.g.f.f.c.c.c.c.c.c.c.c.g o o . o o o o o o o o o o o o o o o o o o o o . . . . . h c.c.c.c.c.c.c.:.2 o o o o o o o o . . Z.Z.Z.Z.Z.Z.Z.Z.Z.Z.Z.Z.Z.Z.Z.Z.Z.Z.",
"Z.Z.Z.Z.Z.Z.Z.Z.Z.Z.Z.Z.Z.Z.Z.Z.o . . o o o o . . . + v c.c.c.c.c.c.c.4.6 . . . . . . . . . . o . . o o o o . . o o o o o . . . . . . . . . . . . o o o o o o o o . . . . . : v a.c.c.c.c.c.c.c.c.c.c.f.c.c.a.a.c.c.c.c.c.c.c.f.c.c.c.c.c.c.c.c.c.f.f.a.a.c.c.f.c.f.c.c.f.f.f.c.c.c.c.c.c.c.c.c.c.c.c.f.c.c.f.c.g.f.c.c.c.c.c.c.c.f.c.c.f.c.c.f.c.c.c.c.f.c.c.c.c.c.c.c.f.c.c.c.c.c.c.c.] - . . . o o o o o o o . . . . . o o o o o . . . . . . . 2 :.c.c.c.c.c.c.c.l o o o o o o o o o . . Z.Z.Z.Z.Z.Z.Z.Z.Z.Z.Z.Z.Z.Z.Z.Z.Z.Z.",
"Z.Z.Z.Z.Z.Z.Z.Z.Z.Z.Z.Z.Z.Z.Z.Z.Z.. . . o o o . o . . 5 ,.c.c.c.c.c.c.c.D $ . . . . . . . . o . . . o o o . o o o o o o . . . . . . o . . . . . . o o o o o o . . . . o : s +.c.c.f.c.c.c.c.c.c.g.f.f.f.f.f.c.c.c.f.c.c.c.c.f.c.c.c.c.c.c.c.f.c.c.f.c.c.f.f.c.c.g.g.g.g.f.c.c.c.c.c.c.c.c.c.c.c.c.c.f.c.c.c.c.c.c.c.c.c.g.c.c.c.c.c.f.f.c.c.f.f.c.c.c.c.f.c.c.c.c.c.c.c.c.c.c.c.c.c.c.t.r . . . . o o o o o o o . . . . . . o o o . . . . . . . @ b c.c.c.c.c.c.c.$., . . . . . o o o o o Z.Z.Z.Z.Z.Z.Z.Z.Z.Z.Z.Z.Z.Z.Z.Z.Z.Z.Z.",
"Z.Z.Z.Z.Z.Z.Z.Z.Z.Z.Z.Z.Z.Z.Z.Z.Z.. . . . o . . . o . o z c.c.c.c.c.c.c.t.y . . . . . . . . . . . . . o o o o o o o o . . . . . o o o . . . . . . o o o % & & & : 5 y v #.f.c.c.c.g.a.c.g.c.c.c.g.c.c.f.c.c.c.c.c.f.c.c.c.c.f.c.c.c.c.c.c.c.c.c.c.c.c.c.c.f.c.c.g.g.c.g.c.c.c.c.c.c.c.c.c.c.c.c.g.c.c.c.c.c.c.c.c.c.c.g.g.f.c.c.c.c.f.f.c.c.f.c.f.c.f.c.f.f.f.f.f.c.c.c.c.c.c.c.c.c.c.v @ . . . o o o o o o . . . . . . o o o o o . . . . . . . e t.c.c.c.c.c.c.c.f . . . . . . . o o o o Z.Z.Z.Z.Z.Z.Z.Z.Z.Z.Z.Z.Z.Z.Z.Z.Z.Z.Z.",
"Z.Z.Z.Z.Z.Z.Z.Z.Z.Z.Z.Z.Z.Z.Z.Z.Z.Z.. . . . . . . . . . 1 $.c.c.c.c.c.c.c.{ : . . . . . . . o o . . . . . o o o o o o . . . . . o o . . o . . . . . . & V ' ] { =.8.c.c.c.c.c.c.c.f.c.c.a.g.c.c.c.c.f.c.f.c.c.c.c.c.a.f.c.f.c.c.c.c.c.c.c.g.c.c.c.c.f.c.c.c.c.c.c.c.g.g.f.g.c.c.c.c.c.g.a.a.c.c.c.c.c.c.c.c.c.f.c.c.c.c.c.c.c.c.c.c.c.c.c.a.c.c.f.c.c.c.f.c.c.f.c.c.c.c.c.c.c.c.c.c.' : . . . . o o o o o o . . . o o o o o o o . . . o . . . - ' c.c.c.c.c.c.c.' - . . . . . . . o o o Z.Z.Z.Z.Z.Z.Z.Z.Z.Z.Z.Z.Z.Z.Z.Z.Z.Z.Z.Z.",
"Z.Z.Z.Z.Z.Z.Z.Z.Z.Z.Z.Z.Z.Z.Z.Z.Z.Z.. . . . . . . . . . . s f.c.c.c.c.c.c.c.z + . . . . . . o o . . . . o . o o o o o o . . . o o . o . . . . . . o o - $.c.c.c.c.c.c.c.c.c.c.c.f.f.c.c.f.g.c.c.f.c.c.c.c.c.c.c.c.c.c.c.c.c.c.c.c.f.c.c.c.g.c.c.c.f.c.c.c.c.c.f.c.c.f.a.c.c.c.c.c.c.c.c.c.a.c.f.f.f.c.c.c.f.f.c.c.c.c.c.c.c.f.c.c.c.c.c.c.c.c.c.c.c.c.c.c.c.c.c.c.c.c.c.c.c.c.c.c.:.8 o o . . o o o o o . . . . o o o o o o o o o o o o . . o h c.c.c.c.c.c.c.t.r . . . . . . . . . . o Z.Z.Z.Z.Z.Z.Z.Z.Z.Z.Z.Z.Z.Z.Z.Z.Z.Z.Z.Z.",
"Z.Z.Z.Z.Z.Z.Z.Z.Z.Z.Z.Z.Z.Z.Z.Z.Z.Z.Z.. . . . . . . . . . & _ c.c.c.c.c.c.c.4.0 . . . . . o o o . . . . . . o . o o o o . . . o o o . . o o o o o . . - #.c.c.c.c.c.c.c.c.f.c.f.c.c.c.c.f.c.g.g.c.f.c.c.c.a.c.a.c.c.c.f.c.c.c.f.c.c.c.f.c.c.c.c.a.f.c.c.f.a.g.f.c.g.c.c.c.f.f.c.c.c.c.c.c.c.c.c.c.c.f.c.f.f.f.c.c.c.c.c.c.f.f.c.c.c.c.c.c.c.c.c.c.c.c.c.c.c.c.c.c.c.c.c.c.c.c.c.8.u o o o o o o o o o o . . . o o o o o o o o o o o o o o . 8 4.c.c.c.c.c.c.c.C $ . . . . . . . . . . Z.Z.Z.Z.Z.Z.Z.Z.Z.Z.Z.Z.Z.Z.Z.Z.Z.Z.Z.Z.Z.",
"Z.Z.Z.Z.Z.Z.Z.Z.Z.Z.Z.Z.Z.Z.Z.Z.Z.Z.Z.Z.. . . . . . . . . . e q.c.c.c.c.c.c.c.' - . . . o o o o . . . . . . o o o o o o . . o o o . . o o o o o . . . - #.c.c.c.c.c.c.c.c.c.c.c.f.c.c.f.c.c.c.g.c.f.c.c.c.c.f.c.f.a.c.c.c.c.f.f.c.c.c.f.c.c.c.c.f.c.c.f.f.c.c.c.c.a.c.c.c.c.c.c.c.f.f.c.c.c.c.c.c.c.c.c.c.c.f.c.c.c.c.c.c.c.c.c.c.c.g.g.c.c.c.a.c.c.c.f.c.c.c.c.a.c.c.c.c.c.c.t.f + . o o o o o o o o . . . o o o o o o . o o o o o o . . & Q c.c.c.c.c.c.c.,.5 . o o . . . . . . . . Z.Z.Z.Z.Z.Z.Z.Z.Z.Z.Z.Z.Z.Z.Z.Z.Z.Z.Z.Z.Z.",
"Z.Z.Z.Z.Z.Z.Z.Z.Z.Z.Z.Z.Z.Z.Z.Z.Z.Z.Z.Z.. . . . . . . . . . @ v c.c.c.c.c.c.c.c.l + . . o o o o . . . . . . o o o o o o o . . . . o o o o o o o . . . - #.c.c.c.c.c.c.c.c.f.c.c.c.c.c.c.c.c.c.c.c.c.c.a.c.c.c.c.f.c.f.c.g.c.f.f.a.c.c.c.c.c.c.c.c.g.f.f.c.c.c.c.c.f.c.c.f.f.c.c.c.f.c.c.c.c.c.f.c.f.f.f.c.g.c.c.c.f.c.c.c.f.f.c.c.c.g.c.c.c.c.f.c.c.c.c.f.c.c.c.g.c.c.c.c.c.t.h @ . o . . o o o o o o o . . o o o o o o o o o o o o o . o h c.c.c.c.c.c.c.c.h o o o o . . . . . . . Z.Z.Z.Z.Z.Z.Z.Z.Z.Z.Z.Z.Z.Z.Z.Z.Z.Z.Z.Z.Z.Z.",
"Z.Z.Z.Z.Z.Z.Z.Z.Z.Z.Z.Z.Z.Z.Z.Z.Z.Z.Z.Z.Z.. . . . . . . . . . 1 #.c.c.c.c.c.c.c.8.e . o o . . . . . . . . o o o o o . o o o . . o o o o o o o . . . . - #.c.c.c.c.c.c.c.a.c.c.c.c.c.c.c.c.c.c.c.c.c.f.f.c.f.a.c.g.f.c.c.f.c.c.c.g.c.c.g.c.g.c.c.f.c.g.g.c.c.c.f.f.f.a.f.f.c.c.c.f.f.f.c.f.c.c.f.c.c.c.f.f.g.f.f.c.c.a.f.c.f.c.f.f.f.c.c.c.c.f.a.f.f.g.f.c.c.c.c.c.c.c.c.c.a.h @ . o o o o o o . . . . . . . o o o o o o o o o . o o o o w 4.c.c.c.c.c.c.c.' - . o . . . . . . . . . Z.Z.Z.Z.Z.Z.Z.Z.Z.Z.Z.Z.Z.Z.Z.Z.Z.Z.Z.Z.Z.Z.",
"Z.Z.Z.Z.Z.Z.Z.Z.Z.Z.Z.Z.Z.Z.Z.Z.Z.Z.Z.Z.Z.. . . . . . . . . . . i a.c.c.c.c.c.c.c.+., . . . . . . . . . . . o o o . . . o o o o o o o o o o o . . . . - #.c.c.c.c.f.c.c.f.c.c.c.c.f.c.c.c.c.c.g.a.f.c.f.f.c.f.c.c.g.c.c.c.c.c.g.c.c.c.f.c.c.c.c.c.g.c.f.c.c.f.c.f.a.c.c.c.c.c.c.f.a.a.a.c.c.c.f.c.c.c.c.c.f.f.c.c.c.c.c.c.c.f.c.c.f.c.c.f.f.c.f.f.f.c.f.c.c.c.c.c.c.c.c.t.h @ . o o . o . . . . . . . . o o o o o o o o o o o . o o o > { c.c.c.c.c.c.c.8.0 . . . . . o o . . . o Z.Z.Z.Z.Z.Z.Z.Z.Z.Z.Z.Z.Z.Z.Z.Z.Z.Z.Z.Z.Z.Z.Z.",
"Z.Z.Z.Z.Z.Z.Z.Z.Z.Z.Z.Z.Z.Z.Z.Z.Z.Z.Z.Z.Z.Z.. . . . . . . . . . $ V c.c.c.c.c.c.c.c.V % . . . . . . . . o . o . . . . . . . . . . . o o o o o o o . . * #.c.c.c.c.c.f.c.c.c.c.c.c.f.c.c.c.c.c.g.c.c.f.f.c.f.c.c.c.c.f.f.a.c.a.f.c.f.c.c.c.c.f.c.c.c.c.c.c.c.f.f.c.c.f.c.c.c.c.c.f.f.f.g.c.f.c.c.c.c.f.c.a.f.c.c.c.c.c.c.f.c.c.f.f.c.c.c.f.c.c.c.c.f.c.c.c.c.c.c.c.c.c.,.a + . . . . o . . . . . . . . o o o o o o o o o o o o o o o % b c.c.c.c.c.c.c.c.l + o o . . . o o o . . Z.Z.Z.Z.Z.Z.Z.Z.Z.Z.Z.Z.Z.Z.Z.Z.Z.Z.Z.Z.Z.Z.Z.Z.",
"Z.Z.Z.Z.Z.Z.Z.Z.Z.Z.Z.Z.Z.Z.Z.Z.Z.Z.Z.Z.Z.Z.. . . . . . . . . . . 2 =.c.c.c.c.c.c.c.a.f . . . . . . . . o o . . . . . . . . . . . . . . . . . . o . . * +.c.c.c.c.c.f.c.c.c.c.c.c.f.c.f.f.c.c.g.c.c.f.c.c.c.c.f.c.c.c.c.c.f.a.a.c.c.c.c.c.c.g.c.c.c.c.f.c.c.c.c.c.f.c.c.g.c.f.c.c.g.g.c.c.c.f.c.f.c.f.c.a.c.c.c.c.c.c.c.f.c.c.f.c.c.c.c.c.c.c.c.c.c.c.c.c.c.c.c.c.c.X.q o . . . . . . . . . . . . . . . o o o o o o o o o o o o o o s a.c.c.c.c.c.c.c.' - . o o o o o o o o . . Z.Z.Z.Z.Z.Z.Z.Z.Z.Z.Z.Z.Z.Z.Z.Z.Z.Z.Z.Z.Z.Z.Z.Z.",
"Z.Z.Z.Z.Z.Z.Z.Z.Z.Z.Z.Z.Z.Z.Z.Z.Z.Z.Z.Z.Z.Z.Z.. . . . . . . . . . . u t.c.c.c.c.c.c.c.4.q . . . . . . . o . . . . . . . . . . . o . . . . . . o o . . * +.c.c.c.c.c.f.c.c.f.c.c.c.c.c.c.c.c.c.f.f.f.c.c.c.c.c.f.f.c.c.c.f.f.c.f.f.f.c.c.f.f.c.c.c.c.c.c.c.c.c.f.c.f.c.c.c.c.c.f.f.g.f.c.c.f.f.c.c.c.c.c.c.c.c.f.c.c.g.c.c.f.c.c.f.f.c.c.c.c.c.c.c.c.c.c.c.c.c.c.a.V , . . o o o o o . o o . . . . o o . o o o o o o o o o o o o . 0 ,.c.c.c.c.c.c.c.4.0 . o o o o o o o o o . Z.Z.Z.Z.Z.Z.Z.Z.Z.Z.Z.Z.Z.Z.Z.Z.Z.Z.Z.Z.Z.Z.Z.Z.Z.",
"Z.Z.Z.Z.Z.Z.Z.Z.Z.Z.Z.Z.Z.Z.Z.Z.Z.Z.Z.Z.Z.Z.Z.Z.. . . . . . . . . . @ v c.c.c.c.c.c.c.c.+.< . o o . . . o o . . . . o o . . . . . o . . . o o o o o . - +.c.c.c.c.c.c.f.c.c.c.f.g.g.g.f.c.c.c.f.f.f.c.c.c.c.c.c.c.c.c.c.c.f.c.f.c.c.f.c.c.c.c.c.f.f.c.c.c.c.f.f.f.c.c.c.c.g.c.f.g.c.c.g.c.c.c.c.c.c.c.c.c.c.c.c.c.f.f.c.f.f.c.c.c.c.c.f.g.c.c.c.c.c.c.c.c.c.c.=.s % . o o . . o o o o o o o o . o o o . . . . o o o o o o o o o , ] c.c.c.c.c.c.c.f.h o . o o o o o o o o o o Z.Z.Z.Z.Z.Z.Z.Z.Z.Z.Z.Z.Z.Z.Z.Z.Z.Z.Z.Z.Z.Z.Z.Z.Z.",
"Z.Z.Z.Z.Z.Z.Z.Z.Z.Z.Z.Z.Z.Z.Z.Z.Z.Z.Z.Z.Z.Z.Z.Z.. . . . . . . . o o . : ] c.c.c.c.c.c.c.c.E = . o o . . . . . . . o o o . . . o o o o o . o o o o o . - #.c.c.c.c.c.c.f.c.c.f.c.g.c.c.c.c.g.g.f.c.c.c.c.c.a.c.c.c.c.c.c.c.c.c.g.f.c.c.c.c.c.c.f.c.f.f.c.c.f.f.c.c.c.c.c.c.f.f.f.c.g.c.c.c.f.c.c.c.c.c.c.c.c.c.f.c.g.c.f.c.c.c.c.c.a.c.a.c.c.c.c.c.c.c.c.c.0.m 2 o . . . o o o o o o o o o o o o o o o . . . . o o o o o o o . & F c.c.c.c.c.c.c.c.F & . . . o o o o o o o o Z.Z.Z.Z.Z.Z.Z.Z.Z.Z.Z.Z.Z.Z.Z.Z.Z.Z.Z.Z.Z.Z.Z.Z.Z.Z.",
"Z.Z.Z.Z.Z.Z.Z.Z.Z.Z.Z.Z.Z.Z.Z.Z.Z.Z.Z.Z.Z.Z.Z.Z.Z.. . . . . . . o o o . 0 ,.c.c.c.c.c.c.c.c.v $ . o . . . . . . . o o o o . . o o o o o o o o o o o o - #.c.c.c.c.f.c.c.c.c.c.c.f.c.c.c.c.c.c.f.f.c.c.c.c.c.f.f.c.f.c.c.c.c.f.c.c.f.c.c.c.c.c.f.c.c.c.c.c.f.f.c.c.f.c.c.c.c.f.f.c.c.f.c.c.c.c.c.c.c.f.f.f.c.c.f.c.a.c.c.c.c.c.f.c.c.c.f.c.c.c.c.c.c.c.a.Q e @ . . . o o o o o o o o o o o o o o o o . . . . . o o o o o o o @ z c.c.c.c.c.c.c.c.#.2 . . . . o o o . o o o Z.Z.Z.Z.Z.Z.Z.Z.Z.Z.Z.Z.Z.Z.Z.Z.Z.Z.Z.Z.Z.Z.Z.Z.Z.Z.Z.",
"Z.Z.Z.Z.Z.Z.Z.Z.Z.Z.Z.Z.Z.Z.Z.Z.Z.Z.Z.Z.Z.Z.Z.Z.Z.Z.. . . . . . o o o o o d a.c.c.c.c.c.c.c.a.f o . . . . . . . o o o o . o . o o o o . o o o o o o o - #.c.c.c.c.c.c.c.c.c.c.c.f.c.c.c.c.c.c.c.f.c.c.c.c.c.c.c.c.c.c.c.c.c.c.c.a.c.c.c.c.c.f.c.c.c.c.c.f.c.c.c.c.c.c.g.c.c.g.c.c.c.c.f.c.g.c.c.c.c.c.c.f.a.c.c.c.c.c.c.c.c.c.c.c.c.c.c.c.c.c.c.c.t.Q y & . . . . . . o o o o o o o o o o o o o o . . . . . . o o o o o o o f a.c.c.c.c.c.c.c.8.r o o . . . o . . . . o o Z.Z.Z.Z.Z.Z.Z.Z.Z.Z.Z.Z.Z.Z.Z.Z.Z.Z.Z.Z.Z.Z.Z.Z.Z.Z.Z.",
"Z.Z.Z.Z.Z.Z.Z.Z.Z.Z.Z.Z.Z.Z.Z.Z.Z.Z.Z.Z.Z.Z.Z.Z.Z.Z.. . . . . o o o o o o % b c.c.c.c.c.c.c.c.8.y . . . . . . . . o . . . o . . . o o o o o o o . o o - +.c.c.c.c.c.c.c.c.c.c.c.c.c.g.c.c.c.c.c.c.c.c.c.c.c.c.c.c.c.c.c.c.c.c.c.c.g.c.c.c.c.a.c.c.a.c.c.c.c.c.c.c.c.g.g.g.c.c.c.c.c.c.c.c.c.c.c.c.c.c.c.c.c.c.c.c.c.c.c.c.c.c.c.c.c.c.c.c.c.c.4.C r & . . . . . . . o o o o o o o o o o o o o o o . . . o o o o o o o o o r 4.c.c.c.c.c.c.c.f.h o o o . . . . . . . . . Z.Z.Z.Z.Z.Z.Z.Z.Z.Z.Z.Z.Z.Z.Z.Z.Z.Z.Z.Z.Z.Z.Z.Z.Z.Z.Z.Z.",
"Z.Z.Z.Z.Z.Z.Z.Z.Z.Z.Z.Z.Z.Z.Z.Z.Z.Z.Z.Z.Z.Z.Z.Z.Z.Z.Z.. . . . o o o o o o o : _ c.c.c.c.c.c.c.c.,.0 . . . . . . . . . . . . . . o . o o o o . . . . . - +.c.c.c.c.c.c.c.c.c.c.c.c.c.c.c.c.c.c.c.c.c.c.c.c.c.c.c.c.c.c.c.c.c.c.c.c.c.c.c.c.c.c.c.c.c.c.c.c.c.c.c.c.c.c.c.g.c.c.c.c.c.c.c.c.c.c.c.c.c.c.c.c.c.c.c.c.c.c.c.c.c.c.c.c.c.c.c.t.] l 5 @ . . . . . . . . . . o o o o o o o o o o o o o . . . . . o o o o o o o w :.c.c.c.c.c.c.c.c.b % . o . . . . . . . . . Z.Z.Z.Z.Z.Z.Z.Z.Z.Z.Z.Z.Z.Z.Z.Z.Z.Z.Z.Z.Z.Z.Z.Z.Z.Z.Z.Z.Z.",
"Z.Z.Z.Z.Z.Z.Z.Z.Z.Z.Z.Z.Z.Z.Z.Z.Z.Z.Z.Z.Z.Z.Z.Z.Z.Z.Z.Z.o . . . . . o o o o . 5 =.c.c.c.c.c.c.c.c.$.5 . o . . . . . . . . . . . o o o . o o . . . . . * #.c.c.c.c.c.c.c.c.c.c.c.c.c.c.c.c.c.c.c.c.c.c.c.c.c.c.c.c.c.f.c.c.c.c.c.c.c.c.c.c.c.c.c.c.c.c.c.c.c.c.c.c.c.c.c.c.c.c.c.c.c.c.c.c.c.c.c.c.c.c.c.c.c.c.c.c.c.c.c.c.c.c.c.c.4.' l q & o . o o . . . . . . o o . . o o o o o o o o o o o . . . . o o o o o o o o 6 $.c.c.c.c.c.c.c.c._ - . o . . . . . . . . . . Z.Z.Z.Z.Z.Z.Z.Z.Z.Z.Z.Z.Z.Z.Z.Z.Z.Z.Z.Z.Z.Z.Z.Z.Z.Z.Z.Z.Z.",
"Z.Z.Z.Z.Z.Z.Z.Z.Z.Z.Z.Z.Z.Z.Z.Z.Z.Z.Z.Z.Z.Z.Z.Z.Z.Z.Z.Z.Z.o . . . . . o o o o . r 4.c.c.c.c.c.c.c.c.] 2 . . . . o o . . . . o o o o . . . . . . . . . - #.c.c.c.c.c.c.c.c.c.c.c.c.c.c.c.c.c.c.c.c.c.c.c.c.c.c.c.c.c.c.f.c.c.c.c.c.c.c.c.c.c.c.c.c.c.c.c.c.c.c.c.c.c.c.c.c.c.c.c.c.c.c.c.c.c.c.c.c.c.f.c.c.c.c.c.c.c.c.c.a.,.] b s 5 & o . . o o o o o o . . . . o o . . . o o o o o o o o o o . . . . o o o o o o o 3 X.c.c.c.c.c.c.c.c.#.5 . . . . o . . . . . . . Z.Z.Z.Z.Z.Z.Z.Z.Z.Z.Z.Z.Z.Z.Z.Z.Z.Z.Z.Z.Z.Z.Z.Z.Z.Z.Z.Z.Z.Z.",
"Z.Z.Z.Z.Z.Z.Z.Z.Z.Z.Z.Z.Z.Z.Z.Z.Z.Z.Z.Z.Z.Z.Z.Z.Z.Z.Z.Z.Z.o . . . . . . . o o o o f a.c.c.c.c.c.c.c.c.' > . o o o o . . . o o o o o . . . . . o . . . - $.c.c.c.c.c.c.c.c.c.c.c.c.c.c.c.c.c.c.c.c.c.c.c.c.c.c.c.c.c.c.c.c.c.c.c.c.c.c.c.c.c.c.c.c.c.c.c.c.c.c.c.c.c.c.c.c.c.c.c.c.c.c.c.c.c.c.c.c.c.c.c.c.a.0.,.+.Q v f e 2 & + . . . . o o o . o o o o o o . o o o . . . . . . o o o o o o . . . o o o o o o o . 2 ] c.c.c.c.c.c.c.c.4.e . . . . . o . . . . . . Z.Z.Z.Z.Z.Z.Z.Z.Z.Z.Z.Z.Z.Z.Z.Z.Z.Z.Z.Z.Z.Z.Z.Z.Z.Z.Z.Z.Z.Z.Z.",
"Z.Z.Z.Z.Z.Z.Z.Z.Z.Z.Z.Z.Z.Z.Z.Z.Z.Z.Z.Z.Z.Z.Z.Z.Z.Z.Z.Z.Z.Z.. . . . . . . . o o . @ z c.c.c.c.c.c.c.c.c.Q : . o o o o o . o o o o o . . . . . o o o . % z V V V C C V V C C C V V V C C V V C V V V V V V V V V V V C C C C V V V V C V V V C V C V V C C C V V V V V V V V V V V V C C C V V m v z h s i e 5 1 * $ o . . . o . . . . o o o o . . o o o o o o . . o o . . . . o o o o o o o o o o o o o o o o . 1 ' c.c.c.c.c.c.c.c.t.i o . . . . . . . . . . . Z.Z.Z.Z.Z.Z.Z.Z.Z.Z.Z.Z.Z.Z.Z.Z.Z.Z.Z.Z.Z.Z.Z.Z.Z.Z.Z.Z.Z.Z.Z.Z.",
"Z.Z.Z.Z.Z.Z.Z.Z.Z.Z.Z.Z.Z.Z.Z.Z.Z.Z.Z.Z.Z.Z.Z.Z.Z.Z.Z.Z.Z.Z.Z.. . . . . . o o . . . & m c.c.c.c.c.c.c.c.c.F - . o o o o o o o o o o . . o . . o o o o o o + + + + + + + + + + + + + + + + + + + + + + + + + + + + + + + + + + + + + + + + + + + + + + + + + + + + + + + + + + + + + + + + + + o o o . . . . . . . . . . . o o . . . . . o o . . . o o o o o o . o o o . . . o . . o o o o o o o . . o o o o . 2 ' c.c.c.c.c.c.c.c.a.g + . . . . . . . . . . . Z.Z.Z.Z.Z.Z.Z.Z.Z.Z.Z.Z.Z.Z.Z.Z.Z.Z.Z.Z.Z.Z.Z.Z.Z.Z.Z.Z.Z.Z.Z.Z.Z.",
"Z.Z.Z.Z.Z.Z.Z.Z.Z.Z.Z.Z.Z.Z.Z.Z.Z.Z.Z.Z.Z.Z.Z.Z.Z.Z.Z.Z.Z.Z.Z.Z.. . . . . . . . . . . - Q c.c.c.c.c.c.c.c.c.E : . o o o . o o o . . . o o o o o o o o o o . . . . . . . o . . . . o . . . . . . . . . . . . . . . . o o o . . . . . . . o o . . . . . . . . . . . . o . o . . . . . . . . o . o o o o o o . . o o . . . . . . . . . . . o . . . . o o . . o o . . . . . . o . o o o o o o o o o o o o o o o 3 ' c.c.c.c.c.c.c.c.f.l @ . . . . . . . . . . . . Z.Z.Z.Z.Z.Z.Z.Z.Z.Z.Z.Z.Z.Z.Z.Z.Z.Z.Z.Z.Z.Z.Z.Z.Z.Z.Z.Z.Z.Z.Z.Z.Z.",
"Z.Z.Z.Z.Z.Z.Z.Z.Z.Z.Z.Z.Z.Z.Z.Z.Z.Z.Z.Z.Z.Z.Z.Z.Z.Z.Z.Z.Z.Z.Z.Z.o o . . . . . . . . . . , ' c.c.c.c.c.c.c.c.c.E : . o o o o o o . . . o o o o o o o o o o . . . . . o o o o o o o o o o o . . . . . . . . . . . . o o o o o . . . . . o o o . . . . . . . . . . . o o o o o o . . o o o o o o o o o o o o o o o o o . . . . . o . . . . . . . o o . . . . o o o . . . . . o o o o o o o o o . o o o . . o 6 ] c.c.c.c.c.g.c.c.c.v % . . . . . . . . . . . . Z.Z.Z.Z.Z.Z.Z.Z.Z.Z.Z.Z.Z.Z.Z.Z.Z.Z.Z.Z.Z.Z.Z.Z.Z.Z.Z.Z.Z.Z.Z.Z.Z.Z.",
"Z.Z.Z.Z.Z.Z.Z.Z.Z.Z.Z.Z.Z.Z.Z.Z.Z.Z.Z.Z.Z.Z.Z.Z.Z.Z.Z.Z.Z.Z.Z.Z.Z.o . . . . . . o . . . . 2 +.c.c.c.c.c.c.c.c.c.Q > o o o o o o . . . . . . o o o o o o o . . . . . o o o o o o o . o o o . . . . . . . . . . . o o o o o o o o . . . o o . . . . . . . . . . . . o o o . o o o o o o o o o o o o o o o o o o o o o o o . . . o o o . . . . o o o o o o o o o o . . o o o o o o . o o o o o . . o o . . 6 +.c.c.c.c.c.c.c.c.c.b & . . . . . . . . o . . . Z.Z.Z.Z.Z.Z.Z.Z.Z.Z.Z.Z.Z.Z.Z.Z.Z.Z.Z.Z.Z.Z.Z.Z.Z.Z.Z.Z.Z.Z.Z.Z.Z.Z.Z.",
"Z.Z.Z.Z.Z.Z.Z.Z.Z.Z.Z.Z.Z.Z.Z.Z.Z.Z.Z.Z.Z.Z.Z.Z.Z.Z.Z.Z.Z.Z.Z.Z.Z.Z.. . . . . . . o . . . o 6 #.c.c.c.c.c.c.c.c.c.' 3 . o o o o . . . . . . o o o o o o o . . . . o o . . . . . . . . o . . . . . . . . . . . o o o o o o o o o . . o o o o . . . . . . . . o o . . . o o o o o o o o o o o o o o o o o o o o o o o o o o . . o o o o o o o . o o o o o o o o o . o o o o o o . . o o o o o o o . . o 0 #.c.c.c.c.c.c.c.c.c.V * . . . . . . . . . . . . Z.Z.Z.Z.Z.Z.Z.Z.Z.Z.Z.Z.Z.Z.Z.Z.Z.Z.Z.Z.Z.Z.Z.Z.Z.Z.Z.Z.Z.Z.Z.Z.Z.Z.Z.Z.",
"Z.Z.Z.Z.Z.Z.Z.Z.Z.Z.Z.Z.Z.Z.Z.Z.Z.Z.Z.Z.Z.Z.Z.Z.Z.Z.Z.Z.Z.Z.Z.Z.Z.Z.Z.. . . . . . . . . o o o 6 $.c.c.c.c.c.c.c.c.c.{ 7 o o o o . . . . . . . o o o o o . . . . . . . . . . . . . . . . o o o o o . . . . . . . o o o o o o o o . . o o o o . . . . . . . o o o o . o o o o o o o o o o o o o o o o o o o o o o o o o o o o o o o o o o o o o . o o o o o o o o o o o o o o o . . o o o o o o . . + u :.c.c.c.c.c.c.c.c.c.V * . . . . . . . . . . . . Z.Z.Z.Z.Z.Z.Z.Z.Z.Z.Z.Z.Z.Z.Z.Z.Z.Z.Z.Z.Z.Z.Z.Z.Z.Z.Z.Z.Z.Z.Z.Z.Z.Z.Z.Z.Z.",
"Z.Z.Z.Z.Z.Z.Z.Z.Z.Z.Z.Z.Z.Z.Z.Z.Z.Z.Z.Z.Z.Z.Z.Z.Z.Z.Z.Z.Z.Z.Z.Z.Z.Z.Z.Z.. . . . . . . . o o o . 8 =.c.c.c.c.c.c.c.c.c.=.e o o o o . . . . . . o o o o o . . . . . . . . . . . . . . o . o o o . o o o o . . . . o o o o o . o o o . . o o o o o o o o o o o o o o o o o o o o o o o o o o o o o o o o o o o o o o o o o o o o o o o o o o o o o o o o o o o o o o o o o o o . o o o o o o o o . @ f 8.c.c.c.c.c.c.c.c.c.V * . . . . . . . . o o . . . Z.Z.Z.Z.Z.Z.Z.Z.Z.Z.Z.Z.Z.Z.Z.Z.Z.Z.Z.Z.Z.Z.Z.Z.Z.Z.Z.Z.Z.Z.Z.Z.Z.Z.Z.Z.Z.",
"Z.Z.Z.Z.Z.Z.Z.Z.Z.Z.Z.Z.Z.Z.Z.Z.Z.Z.Z.Z.Z.Z.Z.Z.Z.Z.Z.Z.Z.Z.Z.Z.Z.Z.Z.Z.Z.. . . . . . . . o o o o 8 =.c.c.c.c.c.c.c.c.c.,.i + . . . . . . . . o o o o o . . . . . . . . . . . . . o o o o o o o o o o o o . . o o o o o o o . . . . o o o o o o o o o o o o o o o o o o o o o o o o o o o o o o o o o o o o o o o o o o o o o o o o o o o o o o o o o o o o o o o o o o o o o o o o o o o o o & z t.c.c.c.c.c.c.c.c.c.b * . . . . . . . . . o o o . Z.Z.Z.Z.Z.Z.Z.Z.Z.Z.Z.Z.Z.Z.Z.Z.Z.Z.Z.Z.Z.Z.Z.Z.Z.Z.Z.Z.Z.Z.Z.Z.Z.Z.Z.Z.Z.Z.",
"Z.Z.Z.Z.Z.Z.Z.Z.Z.Z.Z.Z.Z.Z.Z.Z.Z.Z.Z.Z.Z.Z.Z.Z.Z.Z.Z.Z.Z.Z.Z.Z.Z.Z.Z.Z.Z.Z.. . . . . . . . o o o o 6 #.c.c.c.c.c.c.c.c.c.0.h % . . . . . . . o o o o o . . . o . . . . . . . o o o o o o o o o o o o o o o o o o o o o o o o . . . . o o o o o o o o o o o o o o o o o o o o o o o o o o o o o o o o o o o o o o o o o o o o o o o o o o o o o o o o o o o o o o o o o o o o o o o o o o o 2 F f.c.c.c.c.c.c.c.c.a.z & . . . . . . . . . . . . . Z.Z.Z.Z.Z.Z.Z.Z.Z.Z.Z.Z.Z.Z.Z.Z.Z.Z.Z.Z.Z.Z.Z.Z.Z.Z.Z.Z.Z.Z.Z.Z.Z.Z.Z.Z.Z.Z.Z.",
"Z.Z.Z.Z.Z.Z.Z.Z.Z.Z.Z.Z.Z.Z.Z.Z.Z.Z.Z.Z.Z.Z.Z.Z.Z.Z.Z.Z.Z.Z.Z.Z.Z.Z.Z.Z.Z.Z.o o . . . . . . . o o o o 5 { c.c.c.c.c.c.c.c.c.f.b * . . . . . o . o o o o o o o o o . . . . . o o o o o o o o o o o o o o o o o o o o o o o . o . . . . o o o o o o o o o o o o o o o o o o o o o . . o o o o . o o o o o o o o o o o o o o o o o o o o o o o o o o o o o o o o o o o o o o o o o o o o o + w X.c.c.c.c.c.c.c.c.c.t.h $ . . . . . . . . . . . . . Z.Z.Z.Z.Z.Z.Z.Z.Z.Z.Z.Z.Z.Z.Z.Z.Z.Z.Z.Z.Z.Z.Z.Z.Z.Z.Z.Z.Z.Z.Z.Z.Z.Z.Z.Z.Z.Z.Z.Z.",
"Z.Z.Z.Z.Z.Z.Z.Z.Z.Z.Z.Z.Z.Z.Z.Z.Z.Z.Z.Z.Z.Z.Z.Z.Z.Z.Z.Z.Z.Z.Z.Z.Z.Z.Z.Z.Z.Z.Z.o . . . . . . . o o o o . 2 ' c.c.c.c.c.c.c.c.c.c.Q 5 . . . o . . . . . o o . o o o o o . . . o o o o o o o o o o o o o o o o o o o o o o . o o o . . . o o o o o o o o o o o o o o o o o o o o o . . o o o o . o o o o o o o o o o o o o o o o o o o o o o o o o o o o o o o o o o o o o o o o o o o o % d 4.c.c.c.c.c.c.c.c.c.8.d @ . . . . . . . o o o . . . Z.Z.Z.Z.Z.Z.Z.Z.Z.Z.Z.Z.Z.Z.Z.Z.Z.Z.Z.Z.Z.Z.Z.Z.Z.Z.Z.Z.Z.Z.Z.Z.Z.Z.Z.Z.Z.Z.Z.Z.Z.",
"Z.Z.Z.Z.Z.Z.Z.Z.Z.Z.Z.Z.Z.Z.Z.Z.Z.Z.Z.Z.Z.Z.Z.Z.Z.Z.Z.Z.Z.Z.Z.Z.Z.Z.Z.Z.Z.Z.Z.Z.. . . . . . . o o o o . . > R c.c.c.c.c.c.c.c.c.c.=.t + . . . . . . . . . . o o o o o . . o o o o o o o o o o o o o o o . o o . . . o . . o o o . . . o o o o o o o o o o o o o o o o o o o o o . . . o o o o o o o o o o o o o o o o o o o o o o o o o o o o o o o o o o o o o o o o o o o o o o o 1 m a.c.c.c.c.c.c.c.c.c.:.y o o o . . . . . . o o o . . Z.Z.Z.Z.Z.Z.Z.Z.Z.Z.Z.Z.Z.Z.Z.Z.Z.Z.Z.Z.Z.Z.Z.Z.Z.Z.Z.Z.Z.Z.Z.Z.Z.Z.Z.Z.Z.Z.Z.Z.Z.Z.",
"Z.Z.Z.Z.Z.Z.Z.Z.Z.Z.Z.Z.Z.Z.Z.Z.Z.Z.Z.Z.Z.Z.Z.Z.Z.Z.Z.Z.Z.Z.Z.Z.Z.Z.Z.Z.Z.Z.Z.Z.Z.o o . . . . . o . . . . . * b f.c.c.c.c.c.c.c.g.c.8.l & . . o o . . . . . . o o o o . . o o o o o o o o o o o o o . . . . . . . . o o o . . . . o . o o o . . . . . . o o o o o o o o o o o o o . . o o o o o o o o o o o o o o o o o o o o o o o o o o o . o o o o o o . o o o o o o o o o o + e X.c.c.c.c.c.c.c.c.c.c.{ 8 o . o o o o . . . o o o . . Z.Z.Z.Z.Z.Z.Z.Z.Z.Z.Z.Z.Z.Z.Z.Z.Z.Z.Z.Z.Z.Z.Z.Z.Z.Z.Z.Z.Z.Z.Z.Z.Z.Z.Z.Z.Z.Z.Z.Z.Z.Z.Z.",
"Z.Z.Z.Z.Z.Z.Z.Z.Z.Z.Z.Z.Z.Z.Z.Z.Z.Z.Z.Z.Z.Z.Z.Z.Z.Z.Z.Z.Z.Z.Z.Z.Z.Z.Z.Z.Z.Z.Z.Z.Z.Z.o o . . . . . . . . . . . % l t.c.c.c.c.c.c.c.g.c.c.E 5 . . o o o o o o o o o o o . . o o o o o o o o o o o o o . o o o o o . o o o . . . . . . . o o o . . . . . . o o o o o o o o o o o o o o o . . o o o o o o o o o o o o o o o o o o o o o o o o o . o o o o o . . o o o o o o o o o - l 8.c.c.c.c.c.c.c.c.c.c.Q 2 . o . . . o o . o . o . . . Z.Z.Z.Z.Z.Z.Z.Z.Z.Z.Z.Z.Z.Z.Z.Z.Z.Z.Z.Z.Z.Z.Z.Z.Z.Z.Z.Z.Z.Z.Z.Z.Z.Z.Z.Z.Z.Z.Z.Z.Z.Z.Z.Z.",
"Z.Z.Z.Z.Z.Z.Z.Z.Z.Z.Z.Z.Z.Z.Z.Z.Z.Z.Z.Z.Z.Z.Z.Z.Z.Z.Z.Z.Z.Z.Z.Z.Z.Z.Z.Z.Z.Z.Z.Z.Z.Z.Z.o . . . . . . . . . . . . @ a ,.c.c.c.c.c.c.g.g.g.c.-.s % . o o o o o o . o o . . . o o o o o o o o o o o o . o o o o o . . . o . . o . o . o o o o . . . . o . o o o o o o o o o o o o o o o o o o o o o o o o o o o o o o o o o o o o o o o o o o o o o o o o o . . . o o o o o o + w ' c.c.c.c.c.c.c.c.c.c.t.z * . . . . . . . . . . . . . . Z.Z.Z.Z.Z.Z.Z.Z.Z.Z.Z.Z.Z.Z.Z.Z.Z.Z.Z.Z.Z.Z.Z.Z.Z.Z.Z.Z.Z.Z.Z.Z.Z.Z.Z.Z.Z.Z.Z.Z.Z.Z.Z.Z.Z.",
"Z.Z.Z.Z.Z.Z.Z.Z.Z.Z.Z.Z.Z.Z.Z.Z.Z.Z.Z.Z.Z.Z.Z.Z.Z.Z.Z.Z.Z.Z.Z.Z.Z.Z.Z.Z.Z.Z.Z.Z.Z.Z.Z.Z.o . . . . . o . . . . . . o w +.c.c.c.c.g.g.g.g.c.c.a.C 5 o o o o o . o o . . . . . . . o o o o o o o o o . o o . o o o o o o . o o . o o . o o o o o o . . . o o o o o o o o o o o o o o o o o o o o o o o o o o o o o o o o o o o o o o o o o o o o o o o o o . . . o o o o o : z 8.c.c.c.c.c.c.c.c.c.c.:.i @ . . . . . . . . . . . . . . Z.Z.Z.Z.Z.Z.Z.Z.Z.Z.Z.Z.Z.Z.Z.Z.Z.Z.Z.Z.Z.Z.Z.Z.Z.Z.Z.Z.Z.Z.Z.Z.Z.Z.Z.Z.Z.Z.Z.Z.Z.Z.Z.Z.Z.Z.",
"Z.Z.Z.Z.Z.Z.Z.Z.Z.Z.Z.Z.Z.Z.Z.Z.Z.Z.Z.Z.Z.Z.Z.Z.Z.Z.Z.Z.Z.Z.Z.Z.Z.Z.Z.Z.Z.Z.Z.Z.Z.Z.Z.Z.Z.. . . . . o o . . . . o o o 2 Q c.c.c.c.c.c.c.c.c.c.c.:.f & . . o o o . . . o . . . . o o o o o o o o o o o o o o o o o o o o o o o . . . o o o o o . . . . o o o o o o o o o o o o o o o o o o . . o o o o o o o o o o o o o o o o o o o o o o o o o o o o o . . . o o . $ u X.c.c.c.c.c.c.c.c.c.c.c.' 6 . . . . . . . . . . . . . . . Z.Z.Z.Z.Z.Z.Z.Z.Z.Z.Z.Z.Z.Z.Z.Z.Z.Z.Z.Z.Z.Z.Z.Z.Z.Z.Z.Z.Z.Z.Z.Z.Z.Z.Z.Z.Z.Z.Z.Z.Z.Z.Z.Z.Z.Z.Z.",
"Z.Z.Z.Z.Z.Z.Z.Z.Z.Z.Z.Z.Z.Z.Z.Z.Z.Z.Z.Z.Z.Z.Z.Z.Z.Z.Z.Z.Z.Z.Z.Z.Z.Z.Z.Z.Z.Z.Z.Z.Z.Z.Z.Z.Z.Z.Z.. . . o . . . . . o o o . = z t.c.c.c.c.c.c.c.c.c.c.f.Q q + . . o o o . . . . . o . . o o o o o o o o o o o o o o o o o o o o o o o . o o o o o . . . . o o o o o o o o o o o o o o o o o . o . o o o o o o o o o o o o o o o o o o o o o o o o o o o o o o o . . + 6 C t.c.c.c.c.c.c.c.c.c.c.t.z - . . . . . . . . . . . . . . . Z.Z.Z.Z.Z.Z.Z.Z.Z.Z.Z.Z.Z.Z.Z.Z.Z.Z.Z.Z.Z.Z.Z.Z.Z.Z.Z.Z.Z.Z.Z.Z.Z.Z.Z.Z.Z.Z.Z.Z.Z.Z.Z.Z.Z.Z.Z.Z.",
"Z.Z.Z.Z.Z.Z.Z.Z.Z.Z.Z.Z.Z.Z.Z.Z.Z.Z.Z.Z.Z.Z.Z.Z.Z.Z.Z.Z.Z.Z.Z.Z.Z.Z.Z.Z.Z.Z.Z.Z.Z.Z.Z.Z.Z.Z.Z.Z.. o o . . . . . . . o o . @ i =.c.c.c.c.c.c.c.c.c.c.c.8.v 1 . . o o o . . . . o o . o o o o o o o . o o o o o o o o o o o o o o o o . o o . . o o . o o o o o o o o o o o o o o o o o o . . . o o o o o o o o o o o o o o o . o o o o o o o o o o o o o . . o 2 x 4.c.c.c.c.c.c.c.c.c.c.c.$.y + . . o o . . . . . . . . . . Z.Z.Z.Z.Z.Z.Z.Z.Z.Z.Z.Z.Z.Z.Z.Z.Z.Z.Z.Z.Z.Z.Z.Z.Z.Z.Z.Z.Z.Z.Z.Z.Z.Z.Z.Z.Z.Z.Z.Z.Z.Z.Z.Z.Z.Z.Z.Z.Z.Z.",
"Z.Z.Z.Z.Z.Z.Z.Z.Z.Z.Z.Z.Z.Z.Z.Z.Z.Z.Z.Z.Z.Z.Z.Z.Z.Z.Z.Z.Z.Z.Z.Z.Z.Z.Z.Z.Z.Z.Z.Z.Z.Z.Z.Z.Z.Z.Z.Z.Z.o o o . . . . . . . . . . o 5 Q c.c.c.c.c.c.c.c.c.c.c.c.=.g - . . o o o o . o o o o o . . o o . o o o o o o o o o o o . o o o o o o . . . . . o o o . . o o o o o o o o o o o o o o o o o o o o o o o o o o o o o o o o o o o o o o o o o o o o o o . o > h =.c.c.c.c.c.c.c.c.c.c.c.a.V 2 . . . . . o . . . . . . o . . Z.Z.Z.Z.Z.Z.Z.Z.Z.Z.Z.Z.Z.Z.Z.Z.Z.Z.Z.Z.Z.Z.Z.Z.Z.Z.Z.Z.Z.Z.Z.Z.Z.Z.Z.Z.Z.Z.Z.Z.Z.Z.Z.Z.Z.Z.Z.Z.Z.Z.Z.",
"Z.Z.Z.Z.Z.Z.Z.Z.Z.Z.Z.Z.Z.Z.Z.Z.Z.Z.Z.Z.Z.Z.Z.Z.Z.Z.Z.Z.Z.Z.Z.Z.Z.Z.Z.Z.Z.Z.Z.Z.Z.Z.Z.Z.Z.Z.Z.Z.Z.Z.o o . . . . . . . . . . o . & j 4.c.c.c.c.c.c.c.c.c.c.c.c.{ a - . . o o o o o o o . . . . . o o o o o o o o o o o o . o o o o o o . . . . . o o o . . . o o o o o o o o . o o o o o o . o o . . o o o o o o o o o o o . . o o o o o o o o o o . o > g #.c.c.c.c.c.c.c.c.c.c.c.c.=.a $ . . . . . . . . . . . . . . . Z.Z.Z.Z.Z.Z.Z.Z.Z.Z.Z.Z.Z.Z.Z.Z.Z.Z.Z.Z.Z.Z.Z.Z.Z.Z.Z.Z.Z.Z.Z.Z.Z.Z.Z.Z.Z.Z.Z.Z.Z.Z.Z.Z.Z.Z.Z.Z.Z.Z.Z.Z.",
"Z.Z.Z.Z.Z.Z.Z.Z.Z.Z.Z.Z.Z.Z.Z.Z.Z.Z.Z.Z.Z.Z.Z.Z.Z.Z.Z.Z.Z.Z.Z.Z.Z.Z.Z.Z.Z.Z.Z.Z.Z.Z.Z.Z.Z.Z.Z.Z.Z.Z.Z.o . . . . . . . . . . . . . + q ' c.c.c.c.c.c.c.c.c.c.c.c.f.] a - . . o o o o o . . . . o o o o o o o o o o o o . o o o o o o o o o . . o o o o o o o o o o o o o o . . . . . o . . . o o . o . o o o o o o o o o o . . . o o o o o o o o + 1 h #.c.c.c.c.c.c.c.c.c.c.c.c.t.m 2 o . o . . . . . . . . . . . . . Z.Z.Z.Z.Z.Z.Z.Z.Z.Z.Z.Z.Z.Z.Z.Z.Z.Z.Z.Z.Z.Z.Z.Z.Z.Z.Z.Z.Z.Z.Z.Z.Z.Z.Z.Z.Z.Z.Z.Z.Z.Z.Z.Z.Z.Z.Z.Z.Z.Z.Z.Z.Z.",
"Z.Z.Z.Z.Z.Z.Z.Z.Z.Z.Z.Z.Z.Z.Z.Z.Z.Z.Z.Z.Z.Z.Z.Z.Z.Z.Z.Z.Z.Z.Z.Z.Z.Z.Z.Z.Z.Z.Z.Z.Z.Z.Z.Z.Z.Z.Z.Z.Z.Z.Z.Z.. . . . . . . . . . . . . . . - l 4.c.c.c.c.c.c.c.c.c.c.c.c.f.] f > o . o o o o . . o o o o o o o o o o o o o o o o o o o o o o o o o o o o o o o o o . . o o o o o o . . . . . . . o o . o . o o o o o o o o o o . . . o o o o o o % 6 x -.c.c.c.c.c.c.c.c.c.c.c.c.c.' r @ . . . . . . . . . . . . . . . . Z.Z.Z.Z.Z.Z.Z.Z.Z.Z.Z.Z.Z.Z.Z.Z.Z.Z.Z.Z.Z.Z.Z.Z.Z.Z.Z.Z.Z.Z.Z.Z.Z.Z.Z.Z.Z.Z.Z.Z.Z.Z.Z.Z.Z.Z.Z.Z.Z.Z.Z.Z.Z.Z.",
"Z.Z.Z.Z.Z.Z.Z.Z.Z.Z.Z.Z.Z.Z.Z.Z.Z.Z.Z.Z.Z.Z.Z.Z.Z.Z.Z.Z.Z.Z.Z.Z.Z.Z.Z.Z.Z.Z.Z.Z.Z.Z.Z.Z.Z.Z.Z.Z.Z.Z.Z.Z.Z.Z.. . . . . . . . . . . . . . + 0 Q f.c.c.c.c.c.c.c.c.c.c.c.c.c.#.l 5 @ . o o o o o o o o o o o o o o o o o o o o o o o o o o o o o o o . . . o o o o o o o o o o . . . o . . o . o o o o . . o o o o o o o o o . . . . . . o - t F 4.c.c.c.c.c.c.c.c.c.c.c.c.c.-.h - . . . . . . . . . . . o . . . o Z.Z.Z.Z.Z.Z.Z.Z.Z.Z.Z.Z.Z.Z.Z.Z.Z.Z.Z.Z.Z.Z.Z.Z.Z.Z.Z.Z.Z.Z.Z.Z.Z.Z.Z.Z.Z.Z.Z.Z.Z.Z.Z.Z.Z.Z.Z.Z.Z.Z.Z.Z.Z.Z.Z.Z.",
"Z.Z.Z.Z.Z.Z.Z.Z.Z.Z.Z.Z.Z.Z.Z.Z.Z.Z.Z.Z.Z.Z.Z.Z.Z.Z.Z.Z.Z.Z.Z.Z.Z.Z.Z.Z.Z.Z.Z.Z.Z.Z.Z.Z.Z.Z.Z.Z.Z.Z.Z.Z.Z.Z.Z.. . . . . . . . . . . . o o . & s #.c.c.c.c.c.c.c.c.c.c.c.c.c.c.<.C t - o . o o o o o o o o o o o o o o o o o o o o o o o o o o . . . . . . o o o o o o o o o . . o o o o . o o o o o . . o o o o o o o o o . . . . % 8 l { a.c.c.c.c.c.c.c.c.c.c.c.c.c.4.v 2 o . . . . . . . . . . . . . . . . Z.Z.Z.Z.Z.Z.Z.Z.Z.Z.Z.Z.Z.Z.Z.Z.Z.Z.Z.Z.Z.Z.Z.Z.Z.Z.Z.Z.Z.Z.Z.Z.Z.Z.Z.Z.Z.Z.Z.Z.Z.Z.Z.Z.Z.Z.Z.Z.Z.Z.Z.Z.Z.Z.Z.Z.Z.",
"Z.Z.Z.Z.Z.Z.Z.Z.Z.Z.Z.Z.Z.Z.Z.Z.Z.Z.Z.Z.Z.Z.Z.Z.Z.Z.Z.Z.Z.Z.Z.Z.Z.Z.Z.Z.Z.Z.Z.Z.Z.Z.Z.Z.Z.Z.Z.Z.Z.Z.Z.Z.Z.Z.Z.Z.. . . . . . . . . . . . o o . . , z 4.c.c.c.c.c.c.c.c.c.c.c.c.c.c.a.+.x q - o o o o o o o o o o o o o o o . o o o o o o o o o o . . . . . o o o o o o o o o o o o o o o o o o o o o o o o o o o o o o o . . % 5 g _ 8.c.c.c.c.c.c.c.c.c.c.c.c.c.c.8.V 8 + . o o o . . . . . . . . . . . . . Z.Z.Z.Z.Z.Z.Z.Z.Z.Z.Z.Z.Z.Z.Z.Z.Z.Z.Z.Z.Z.Z.Z.Z.Z.Z.Z.Z.Z.Z.Z.Z.Z.Z.Z.Z.Z.Z.Z.Z.Z.Z.Z.Z.Z.Z.Z.Z.Z.Z.Z.Z.Z.Z.Z.Z.Z.Z.",
"Z.Z.Z.Z.Z.Z.Z.Z.Z.Z.Z.Z.Z.Z.Z.Z.Z.Z.Z.Z.Z.Z.Z.Z.Z.Z.Z.Z.Z.Z.Z.Z.Z.Z.Z.Z.Z.Z.Z.Z.Z.Z.Z.Z.Z.Z.Z.Z.Z.Z.Z.Z.Z.Z.Z.Z.Z.Z.. . . . . . . . . . . . . . . + 6 m 8.c.c.c.c.c.c.c.c.c.c.c.c.c.c.c.t.{ x e : + o . o o o o o o o . . . . . o o o o o o o o . . . . . . . o o o o o o o o o o o o o o o o o o o o o o o o o . . + - 8 h Q 4.c.c.c.c.c.c.c.c.c.c.c.c.c.c.c.t.Y q @ . . o o o . . . . . . . . . . . . Z.Z.Z.Z.Z.Z.Z.Z.Z.Z.Z.Z.Z.Z.Z.Z.Z.Z.Z.Z.Z.Z.Z.Z.Z.Z.Z.Z.Z.Z.Z.Z.Z.Z.Z.Z.Z.Z.Z.Z.Z.Z.Z.Z.Z.Z.Z.Z.Z.Z.Z.Z.Z.Z.Z.Z.Z.Z.Z.Z.",
"Z.Z.Z.Z.Z.Z.Z.Z.Z.Z.Z.Z.Z.Z.Z.Z.Z.Z.Z.Z.Z.Z.Z.Z.Z.Z.Z.Z.Z.Z.Z.Z.Z.Z.Z.Z.Z.Z.Z.Z.Z.Z.Z.Z.Z.Z.Z.Z.Z.Z.Z.Z.Z.Z.Z.Z.Z.Z.Z.. . . . . . . . . . . . . . . . @ q D 8.c.c.c.c.c.c.c.c.c.c.c.c.c.c.c.c.a.$.D s 6 * + . . . . o . . . . . o o o o o o o o . . . o o o . . o o o o o o o o o o o o o o o o o o o . . . + * 5 p b { t.c.c.c.c.c.c.c.c.c.c.c.c.c.c.c.c.8.C e % . o o o . . . . . . . . . . . . . . Z.Z.Z.Z.Z.Z.Z.Z.Z.Z.Z.Z.Z.Z.Z.Z.Z.Z.Z.Z.Z.Z.Z.Z.Z.Z.Z.Z.Z.Z.Z.Z.Z.Z.Z.Z.Z.Z.Z.Z.Z.Z.Z.Z.Z.Z.Z.Z.Z.Z.Z.Z.Z.Z.Z.Z.Z.Z.Z.Z.Z.",
"Z.Z.Z.Z.Z.Z.Z.Z.Z.Z.Z.Z.Z.Z.Z.Z.Z.Z.Z.Z.Z.Z.Z.Z.Z.Z.Z.Z.Z.Z.Z.Z.Z.Z.Z.Z.Z.Z.Z.Z.Z.Z.Z.Z.Z.Z.Z.Z.Z.Z.Z.Z.Z.Z.Z.Z.Z.Z.Z.Z.o o o . . . . . . . . . . . . . . @ 0 D 8.c.c.c.c.c.c.c.c.c.c.c.c.c.c.c.c.c.c.8.{ b s 0 > % o . . . . . . o o o o o o o . . . . . . . . o o o o o o o o o o o . . . . o o + & 2 q f V { 8.c.c.c.c.c.c.c.c.c.c.c.c.c.c.c.c.c.c.4.m 0 $ . o o o o o . . . . . . . . . . . . Z.Z.Z.Z.Z.Z.Z.Z.Z.Z.Z.Z.Z.Z.Z.Z.Z.Z.Z.Z.Z.Z.Z.Z.Z.Z.Z.Z.Z.Z.Z.Z.Z.Z.Z.Z.Z.Z.Z.Z.Z.Z.Z.Z.Z.Z.Z.Z.Z.Z.Z.Z.Z.Z.Z.Z.Z.Z.Z.Z.Z.Z.Z.",
"Z.Z.Z.Z.Z.Z.Z.Z.Z.Z.Z.Z.Z.Z.Z.Z.Z.Z.Z.Z.Z.Z.Z.Z.Z.Z.Z.Z.Z.Z.Z.Z.Z.Z.Z.Z.Z.Z.Z.Z.Z.Z.Z.Z.Z.Z.Z.Z.Z.Z.Z.Z.Z.Z.Z.Z.Z.Z.Z.Z.Z.Z.o . . . . . . . o o . . . o . . . @ 0 m 4.c.c.c.c.c.c.c.c.c.c.c.c.c.c.c.c.c.c.c.c.t.=._ v f e 3 : & @ o o o . . . . . . . . . . . . . . . . . . . . o o @ % - 2 0 a l C ] ,.t.c.c.c.c.c.c.c.c.c.c.c.c.c.c.c.c.c.c.c.c.$.z 5 @ . . o o o o o . . . . . . . . . . . . Z.Z.Z.Z.Z.Z.Z.Z.Z.Z.Z.Z.Z.Z.Z.Z.Z.Z.Z.Z.Z.Z.Z.Z.Z.Z.Z.Z.Z.Z.Z.Z.Z.Z.Z.Z.Z.Z.Z.Z.Z.Z.Z.Z.Z.Z.Z.Z.Z.Z.Z.Z.Z.Z.Z.Z.Z.Z.Z.Z.Z.Z.Z.Z.",
"Z.Z.Z.Z.Z.Z.Z.Z.Z.Z.Z.Z.Z.Z.Z.Z.Z.Z.Z.Z.Z.Z.Z.Z.Z.Z.Z.Z.Z.Z.Z.Z.Z.Z.Z.Z.Z.Z.Z.Z.Z.Z.Z.Z.Z.Z.Z.Z.Z.Z.Z.Z.Z.Z.Z.Z.Z.Z.Z.Z.Z.Z.Z.o . . . . . o o o o o o o . . . . . @ 5 z =.c.c.c.c.c.c.c.c.c.c.c.c.c.c.c.c.c.c.c.c.c.c.c.a.4.$.' F v h s y q 8 5 1 , > > > > > > > 1 3 6 0 e i s h v C ' +.,.t.c.c.c.c.c.c.c.f.c.c.c.c.c.c.c.c.c.c.c.c.c.c.c.0.Q a > + . . . . o o o . o . . . . . . . . . . Z.Z.Z.Z.Z.Z.Z.Z.Z.Z.Z.Z.Z.Z.Z.Z.Z.Z.Z.Z.Z.Z.Z.Z.Z.Z.Z.Z.Z.Z.Z.Z.Z.Z.Z.Z.Z.Z.Z.Z.Z.Z.Z.Z.Z.Z.Z.Z.Z.Z.Z.Z.Z.Z.Z.Z.Z.Z.Z.Z.Z.Z.Z.Z.Z.Z.",
"Z.Z.Z.Z.Z.Z.Z.Z.Z.Z.Z.Z.Z.Z.Z.Z.Z.Z.Z.Z.Z.Z.Z.Z.Z.Z.Z.Z.Z.Z.Z.Z.Z.Z.Z.Z.Z.Z.Z.Z.Z.Z.Z.Z.Z.Z.Z.Z.Z.Z.Z.Z.Z.Z.Z.Z.Z.Z.Z.Z.Z.Z.Z.Z.Z.. . . . . o o o o o o o . . o o . . o > a Q 8.c.c.c.c.c.c.c.c.c.c.c.c.c.c.c.c.c.c.c.c.c.c.c.c.c.c.c.c.f.a.t.8.,.-.-.=.=.=.=.-.-.,.4.0.t.a.c.c.c.c.c.c.c.c.c.c.c.c.c.c.c.c.f.c.c.c.c.c.c.c.c.c.c.c.c.a.+.z 8 % . . o o o o o o . o o o . . . . . . . . Z.Z.Z.Z.Z.Z.Z.Z.Z.Z.Z.Z.Z.Z.Z.Z.Z.Z.Z.Z.Z.Z.Z.Z.Z.Z.Z.Z.Z.Z.Z.Z.Z.Z.Z.Z.Z.Z.Z.Z.Z.Z.Z.Z.Z.Z.Z.Z.Z.Z.Z.Z.Z.Z.Z.Z.Z.Z.Z.Z.Z.Z.Z.Z.Z.Z.Z.Z.",
"Z.Z.Z.Z.Z.Z.Z.Z.Z.Z.Z.Z.Z.Z.Z.Z.Z.Z.Z.Z.Z.Z.Z.Z.Z.Z.Z.Z.Z.Z.Z.Z.Z.Z.Z.Z.Z.Z.Z.Z.Z.Z.Z.Z.Z.Z.Z.Z.Z.Z.Z.Z.Z.Z.Z.Z.Z.Z.Z.Z.Z.Z.Z.Z.Z.Z.Z.o . . . . o o o o o o . . o o o o o . % 6 l { t.c.c.c.c.c.c.c.c.f.c.c.c.c.c.c.c.c.c.c.c.c.c.c.c.c.c.c.c.c.c.c.c.c.c.c.c.c.c.c.c.c.c.c.c.c.c.c.c.c.f.c.f.f.c.c.c.c.c.c.c.c.c.c.c.c.c.c.c.c.f.=.m t - o . . . . o o o o o o . o o o o . . . . . . Z.Z.Z.Z.Z.Z.Z.Z.Z.Z.Z.Z.Z.Z.Z.Z.Z.Z.Z.Z.Z.Z.Z.Z.Z.Z.Z.Z.Z.Z.Z.Z.Z.Z.Z.Z.Z.Z.Z.Z.Z.Z.Z.Z.Z.Z.Z.Z.Z.Z.Z.Z.Z.Z.Z.Z.Z.Z.Z.Z.Z.Z.Z.Z.Z.Z.Z.Z.Z.",
"Z.Z.Z.Z.Z.Z.Z.Z.Z.Z.Z.Z.Z.Z.Z.Z.Z.Z.Z.Z.Z.Z.Z.Z.Z.Z.Z.Z.Z.Z.Z.Z.Z.Z.Z.Z.Z.Z.Z.Z.Z.Z.Z.Z.Z.Z.Z.Z.Z.Z.Z.Z.Z.Z.Z.Z.Z.Z.Z.Z.Z.Z.Z.Z.Z.Z.Z.Z.o . . . . o o o o o o . . o o o o o . . o - e v { t.c.c.c.c.c.c.c.c.c.c.c.c.c.c.c.c.c.c.c.c.c.c.c.c.c.c.c.c.c.c.c.c.g.g.c.c.c.c.c.c.c.c.c.c.c.c.c.c.c.f.c.c.c.c.c.c.c.c.c.c.c.c.c.t.+.m u > + . . . . . . . . o o o o . . . o o o . . . . Z.Z.Z.Z.Z.Z.Z.Z.Z.Z.Z.Z.Z.Z.Z.Z.Z.Z.Z.Z.Z.Z.Z.Z.Z.Z.Z.Z.Z.Z.Z.Z.Z.Z.Z.Z.Z.Z.Z.Z.Z.Z.Z.Z.Z.Z.Z.Z.Z.Z.Z.Z.Z.Z.Z.Z.Z.Z.Z.Z.Z.Z.Z.Z.Z.Z.Z.Z.Z.Z.Z.",
"Z.Z.Z.Z.Z.Z.Z.Z.Z.Z.Z.Z.Z.Z.Z.Z.Z.Z.Z.Z.Z.Z.Z.Z.Z.Z.Z.Z.Z.Z.Z.Z.Z.Z.Z.Z.Z.Z.Z.Z.Z.Z.Z.Z.Z.Z.Z.Z.Z.Z.Z.Z.Z.Z.Z.Z.Z.Z.Z.Z.Z.Z.Z.Z.Z.Z.Z.Z.Z.Z.. o . . o o . . o o o o o o o o . . o o . o - 0 h Q ,.c.c.c.c.c.c.c.c.c.c.c.c.c.c.c.c.c.g.c.c.c.c.c.c.c.c.c.c.c.c.c.c.c.c.c.c.c.c.c.c.c.c.c.c.c.c.c.c.c.c.c.c.c.c.c.c.a.:.Q k q - + o . o o . . . . . . . o o . . . o . o o o o o Z.Z.Z.Z.Z.Z.Z.Z.Z.Z.Z.Z.Z.Z.Z.Z.Z.Z.Z.Z.Z.Z.Z.Z.Z.Z.Z.Z.Z.Z.Z.Z.Z.Z.Z.Z.Z.Z.Z.Z.Z.Z.Z.Z.Z.Z.Z.Z.Z.Z.Z.Z.Z.Z.Z.Z.Z.Z.Z.Z.Z.Z.Z.Z.Z.Z.Z.Z.Z.Z.Z.Z.Z.",
"Z.Z.Z.Z.Z.Z.Z.Z.Z.Z.Z.Z.Z.Z.Z.Z.Z.Z.Z.Z.Z.Z.Z.Z.Z.Z.Z.Z.Z.Z.Z.Z.Z.Z.Z.Z.Z.Z.Z.Z.Z.Z.Z.Z.Z.Z.Z.Z.Z.Z.Z.Z.Z.Z.Z.Z.Z.Z.Z.Z.Z.Z.Z.Z.Z.Z.Z.Z.Z.Z.Z.Z.o o o o o . . . o o o o o o o . . o o o o o o % 2 u v ' ,.a.c.c.c.c.c.c.c.c.c.c.c.c.c.c.c.c.c.c.c.c.c.c.c.c.c.c.c.c.c.c.c.c.c.c.c.c.c.c.c.c.c.c.c.c.c.c.c.t.$.Q l r , $ o . o o o o o o o o o o o o . . . o o . . . o o o Z.Z.Z.Z.Z.Z.Z.Z.Z.Z.Z.Z.Z.Z.Z.Z.Z.Z.Z.Z.Z.Z.Z.Z.Z.Z.Z.Z.Z.Z.Z.Z.Z.Z.Z.Z.Z.Z.Z.Z.Z.Z.Z.Z.Z.Z.Z.Z.Z.Z.Z.Z.Z.Z.Z.Z.Z.Z.Z.Z.Z.Z.Z.Z.Z.Z.Z.Z.Z.Z.Z.Z.Z.Z.Z.",
"Z.Z.Z.Z.Z.Z.Z.Z.Z.Z.Z.Z.Z.Z.Z.Z.Z.Z.Z.Z.Z.Z.Z.Z.Z.Z.Z.Z.Z.Z.Z.Z.Z.Z.Z.Z.Z.Z.Z.Z.Z.Z.Z.Z.Z.Z.Z.Z.Z.Z.Z.Z.Z.Z.Z.Z.Z.Z.Z.Z.Z.Z.Z.Z.Z.Z.Z.Z.Z.Z.Z.Z.Z.Z.o o o . . o o o o o o o . . . . o o o o o . . . o & 2 r h F X.,.a.c.c.c.c.c.c.c.c.c.c.c.c.c.c.c.c.c.c.c.c.c.c.c.c.c.c.c.c.c.c.c.c.c.c.c.c.f.8.=.' v s 0 : % o . . o o o o o o o o o o o o o o o . . o o o . . . o Z.Z.Z.Z.Z.Z.Z.Z.Z.Z.Z.Z.Z.Z.Z.Z.Z.Z.Z.Z.Z.Z.Z.Z.Z.Z.Z.Z.Z.Z.Z.Z.Z.Z.Z.Z.Z.Z.Z.Z.Z.Z.Z.Z.Z.Z.Z.Z.Z.Z.Z.Z.Z.Z.Z.Z.Z.Z.Z.Z.Z.Z.Z.Z.Z.Z.Z.Z.Z.Z.Z.Z.Z.Z.Z.Z.Z.",
"Z.Z.Z.Z.Z.Z.Z.Z.Z.Z.Z.Z.Z.Z.Z.Z.Z.Z.Z.Z.Z.Z.Z.Z.Z.Z.Z.Z.Z.Z.Z.Z.Z.Z.Z.Z.Z.Z.Z.Z.Z.Z.Z.Z.Z.Z.Z.Z.Z.Z.Z.Z.Z.Z.Z.Z.Z.Z.Z.Z.Z.Z.Z.Z.Z.Z.Z.Z.Z.Z.Z.Z.Z.Z.Z.Z.o . . . . o . o . . . . o o o o o o o o o o o o . . o @ - 2 e d z F ] $.,.0.f.c.c.c.c.c.c.c.c.c.c.c.c.c.c.c.c.c.c.c.c.t.8.,.+.' C x f t 6 : % + o o o o o o o o o o o o o o o o o o o o o o . . . o o o . Z.Z.Z.Z.Z.Z.Z.Z.Z.Z.Z.Z.Z.Z.Z.Z.Z.Z.Z.Z.Z.Z.Z.Z.Z.Z.Z.Z.Z.Z.Z.Z.Z.Z.Z.Z.Z.Z.Z.Z.Z.Z.Z.Z.Z.Z.Z.Z.Z.Z.Z.Z.Z.Z.Z.Z.Z.Z.Z.Z.Z.Z.Z.Z.Z.Z.Z.Z.Z.Z.Z.Z.Z.Z.Z.Z.Z.Z.Z.",
"Z.Z.Z.Z.Z.Z.Z.Z.Z.Z.Z.Z.Z.Z.Z.Z.Z.Z.Z.Z.Z.Z.Z.Z.Z.Z.Z.Z.Z.Z.Z.Z.Z.Z.Z.Z.Z.Z.Z.Z.Z.Z.Z.Z.Z.Z.Z.Z.Z.Z.Z.Z.Z.Z.Z.Z.Z.Z.Z.Z.Z.Z.Z.Z.Z.Z.Z.Z.Z.Z.Z.Z.Z.Z.Z.Z.Z.Z.o o . . o . . . . o o o o o o o o o o o o o o o o o o . . . o @ & : 2 6 r i f h z v V C F Y F F C C V v z h g a y e 6 1 - & @ o o . o o o o o o o o o o o o o o o o o . o o o o . o o . . . . o Z.Z.Z.Z.Z.Z.Z.Z.Z.Z.Z.Z.Z.Z.Z.Z.Z.Z.Z.Z.Z.Z.Z.Z.Z.Z.Z.Z.Z.Z.Z.Z.Z.Z.Z.Z.Z.Z.Z.Z.Z.Z.Z.Z.Z.Z.Z.Z.Z.Z.Z.Z.Z.Z.Z.Z.Z.Z.Z.Z.Z.Z.Z.Z.Z.Z.Z.Z.Z.Z.Z.Z.Z.Z.Z.Z.Z.Z.Z.Z.Z.Z.",
"Z.Z.Z.Z.Z.Z.Z.Z.Z.Z.Z.Z.Z.Z.Z.Z.Z.Z.Z.Z.Z.Z.Z.Z.Z.Z.Z.Z.Z.Z.Z.Z.Z.Z.Z.Z.Z.Z.Z.Z.Z.Z.Z.Z.Z.Z.Z.Z.Z.Z.Z.Z.Z.Z.Z.Z.Z.Z.Z.Z.Z.Z.Z.Z.Z.Z.Z.Z.Z.Z.Z.Z.Z.Z.Z.Z.Z.Z.Z.Z.o o o o . . . o o o o o o o o o o o o o o o o o o o o o o o o . . . . . . . . o + + @ @ @ @ + + + o o . . . . . . . . o o o o o o o o o o o o o o o o o o o o o o . o o . . o . . . . . Z.Z.Z.Z.Z.Z.Z.Z.Z.Z.Z.Z.Z.Z.Z.Z.Z.Z.Z.Z.Z.Z.Z.Z.Z.Z.Z.Z.Z.Z.Z.Z.Z.Z.Z.Z.Z.Z.Z.Z.Z.Z.Z.Z.Z.Z.Z.Z.Z.Z.Z.Z.Z.Z.Z.Z.Z.Z.Z.Z.Z.Z.Z.Z.Z.Z.Z.Z.Z.Z.Z.Z.Z.Z.Z.Z.Z.Z.Z.Z.Z.Z.Z.Z.",
"Z.Z.Z.Z.Z.Z.Z.Z.Z.Z.Z.Z.Z.Z.Z.Z.Z.Z.Z.Z.Z.Z.Z.Z.Z.Z.Z.Z.Z.Z.Z.Z.Z.Z.Z.Z.Z.Z.Z.Z.Z.Z.Z.Z.Z.Z.Z.Z.Z.Z.Z.Z.Z.Z.Z.Z.Z.Z.Z.Z.Z.Z.Z.Z.Z.Z.Z.Z.Z.Z.Z.Z.Z.Z.Z.Z.Z.Z.Z.Z.Z.Z.Z.o o o . . . . o o o o o o o o o o o o o o o o o o o o o o . . . . . . . . . . . . . . . . . o o o o o . o o o o o o . o o o o o o o o o o o o o o o o o o o . . . . . o o o o Z.Z.Z.Z.Z.Z.Z.Z.Z.Z.Z.Z.Z.Z.Z.Z.Z.Z.Z.Z.Z.Z.Z.Z.Z.Z.Z.Z.Z.Z.Z.Z.Z.Z.Z.Z.Z.Z.Z.Z.Z.Z.Z.Z.Z.Z.Z.Z.Z.Z.Z.Z.Z.Z.Z.Z.Z.Z.Z.Z.Z.Z.Z.Z.Z.Z.Z.Z.Z.Z.Z.Z.Z.Z.Z.Z.Z.Z.Z.Z.Z.Z.Z.Z.Z.Z.",
"Z.Z.Z.Z.Z.Z.Z.Z.Z.Z.Z.Z.Z.Z.Z.Z.Z.Z.Z.Z.Z.Z.Z.Z.Z.Z.Z.Z.Z.Z.Z.Z.Z.Z.Z.Z.Z.Z.Z.Z.Z.Z.Z.Z.Z.Z.Z.Z.Z.Z.Z.Z.Z.Z.Z.Z.Z.Z.Z.Z.Z.Z.Z.Z.Z.Z.Z.Z.Z.Z.Z.Z.Z.Z.Z.Z.Z.Z.Z.Z.Z.Z.Z.Z.Z.o o . . . . o o o o o o o o o o o o o o o o o o o o o . . . . . . . . . . . o . . . . o o o o o o o o o o o . . o o o o o o o o o o o o o o o o o o o . . . . o o o Z.Z.Z.Z.Z.Z.Z.Z.Z.Z.Z.Z.Z.Z.Z.Z.Z.Z.Z.Z.Z.Z.Z.Z.Z.Z.Z.Z.Z.Z.Z.Z.Z.Z.Z.Z.Z.Z.Z.Z.Z.Z.Z.Z.Z.Z.Z.Z.Z.Z.Z.Z.Z.Z.Z.Z.Z.Z.Z.Z.Z.Z.Z.Z.Z.Z.Z.Z.Z.Z.Z.Z.Z.Z.Z.Z.Z.Z.Z.Z.Z.Z.Z.Z.Z.Z.Z.Z.Z.",
"Z.Z.Z.Z.Z.Z.Z.Z.Z.Z.Z.Z.Z.Z.Z.Z.Z.Z.Z.Z.Z.Z.Z.Z.Z.Z.Z.Z.Z.Z.Z.Z.Z.Z.Z.Z.Z.Z.Z.Z.Z.Z.Z.Z.Z.Z.Z.Z.Z.Z.Z.Z.Z.Z.Z.Z.Z.Z.Z.Z.Z.Z.Z.Z.Z.Z.Z.Z.Z.Z.Z.Z.Z.Z.Z.Z.Z.Z.Z.Z.Z.Z.Z.Z.Z.Z.Z.Z.. . . . . o o o o o o o o o o o o o o o o o o . . . . . . o o . . . . . o . . o o o o o o o o o o o o o . o o o o o o o o o o o o o o . o o o o . . o o Z.Z.Z.Z.Z.Z.Z.Z.Z.Z.Z.Z.Z.Z.Z.Z.Z.Z.Z.Z.Z.Z.Z.Z.Z.Z.Z.Z.Z.Z.Z.Z.Z.Z.Z.Z.Z.Z.Z.Z.Z.Z.Z.Z.Z.Z.Z.Z.Z.Z.Z.Z.Z.Z.Z.Z.Z.Z.Z.Z.Z.Z.Z.Z.Z.Z.Z.Z.Z.Z.Z.Z.Z.Z.Z.Z.Z.Z.Z.Z.Z.Z.Z.Z.Z.Z.Z.Z.Z.Z.Z.Z.",
"Z.Z.Z.Z.Z.Z.Z.Z.Z.Z.Z.Z.Z.Z.Z.Z.Z.Z.Z.Z.Z.Z.Z.Z.Z.Z.Z.Z.Z.Z.Z.Z.Z.Z.Z.Z.Z.Z.Z.Z.Z.Z.Z.Z.Z.Z.Z.Z.Z.Z.Z.Z.Z.Z.Z.Z.Z.Z.Z.Z.Z.Z.Z.Z.Z.Z.Z.Z.Z.Z.Z.Z.Z.Z.Z.Z.Z.Z.Z.Z.Z.Z.Z.Z.Z.Z.Z.Z.Z.Z.Z.o o o o o . o . . o o o o o o o o o o o . . . . o o o o o . . o . . o . o o o o o o o o o o o o o o o o o o o o o o o o o o o o . o o o o o Z.Z.Z.Z.Z.Z.Z.Z.Z.Z.Z.Z.Z.Z.Z.Z.Z.Z.Z.Z.Z.Z.Z.Z.Z.Z.Z.Z.Z.Z.Z.Z.Z.Z.Z.Z.Z.Z.Z.Z.Z.Z.Z.Z.Z.Z.Z.Z.Z.Z.Z.Z.Z.Z.Z.Z.Z.Z.Z.Z.Z.Z.Z.Z.Z.Z.Z.Z.Z.Z.Z.Z.Z.Z.Z.Z.Z.Z.Z.Z.Z.Z.Z.Z.Z.Z.Z.Z.Z.Z.Z.Z.Z.Z.Z.",
"Z.Z.Z.Z.Z.Z.Z.Z.Z.Z.Z.Z.Z.Z.Z.Z.Z.Z.Z.Z.Z.Z.Z.Z.Z.Z.Z.Z.Z.Z.Z.Z.Z.Z.Z.Z.Z.Z.Z.Z.Z.Z.Z.Z.Z.Z.Z.Z.Z.Z.Z.Z.Z.Z.Z.Z.Z.Z.Z.Z.Z.Z.Z.Z.Z.Z.Z.Z.Z.Z.Z.Z.Z.Z.Z.Z.Z.Z.Z.Z.Z.Z.Z.Z.Z.Z.Z.Z.Z.Z.Z.Z.Z.Z.Z.o . o . . . . . o o o o o o o . . . . . . . . . . . . . . . . o o o o o o o o o o o o o o o o o o o o o o o o o o o o o o o Z.Z.Z.Z.Z.Z.Z.Z.Z.Z.Z.Z.Z.Z.Z.Z.Z.Z.Z.Z.Z.Z.Z.Z.Z.Z.Z.Z.Z.Z.Z.Z.Z.Z.Z.Z.Z.Z.Z.Z.Z.Z.Z.Z.Z.Z.Z.Z.Z.Z.Z.Z.Z.Z.Z.Z.Z.Z.Z.Z.Z.Z.Z.Z.Z.Z.Z.Z.Z.Z.Z.Z.Z.Z.Z.Z.Z.Z.Z.Z.Z.Z.Z.Z.Z.Z.Z.Z.Z.Z.Z.Z.Z.Z.Z.Z.Z.Z.Z.",
"Z.Z.Z.Z.Z.Z.Z.Z.Z.Z.Z.Z.Z.Z.Z.Z.Z.Z.Z.Z.Z.Z.Z.Z.Z.Z.Z.Z.Z.Z.Z.Z.Z.Z.Z.Z.Z.Z.Z.Z.Z.Z.Z.Z.Z.Z.Z.Z.Z.Z.Z.Z.Z.Z.Z.Z.Z.Z.Z.Z.Z.Z.Z.Z.Z.Z.Z.Z.Z.Z.Z.Z.Z.Z.Z.Z.Z.Z.Z.Z.Z.Z.Z.Z.Z.Z.Z.Z.Z.Z.Z.Z.Z.Z.Z.Z.Z.Z.Z.. . . . o o o o o o . . . . . . . . . . . . . . . . . . o o . . . . . . o . . . . o . o o o o o o o o o o o Z.Z.Z.Z.Z.Z.Z.Z.Z.Z.Z.Z.Z.Z.Z.Z.Z.Z.Z.Z.Z.Z.Z.Z.Z.Z.Z.Z.Z.Z.Z.Z.Z.Z.Z.Z.Z.Z.Z.Z.Z.Z.Z.Z.Z.Z.Z.Z.Z.Z.Z.Z.Z.Z.Z.Z.Z.Z.Z.Z.Z.Z.Z.Z.Z.Z.Z.Z.Z.Z.Z.Z.Z.Z.Z.Z.Z.Z.Z.Z.Z.Z.Z.Z.Z.Z.Z.Z.Z.Z.Z.Z.Z.Z.Z.Z.Z.Z.Z.Z.Z.Z.Z.",
"Z.Z.Z.Z.Z.Z.Z.Z.Z.Z.Z.Z.Z.Z.Z.Z.Z.Z.Z.Z.Z.Z.Z.Z.Z.Z.Z.Z.Z.Z.Z.Z.Z.Z.Z.Z.Z.Z.Z.Z.Z.Z.Z.Z.Z.Z.Z.Z.Z.Z.Z.Z.Z.Z.Z.Z.Z.Z.Z.Z.Z.Z.Z.Z.Z.Z.Z.Z.Z.Z.Z.Z.Z.Z.Z.Z.Z.Z.Z.Z.Z.Z.Z.Z.Z.Z.Z.Z.Z.Z.Z.Z.Z.Z.Z.Z.Z.Z.Z.Z.Z.Z.Z.o o o o o o o . . . . . . . . . . . . . . . . . . . . . . . . . . . . . . . . o o o o o o Z.Z.Z.Z.Z.Z.Z.Z.Z.Z.Z.Z.Z.Z.Z.Z.Z.Z.Z.Z.Z.Z.Z.Z.Z.Z.Z.Z.Z.Z.Z.Z.Z.Z.Z.Z.Z.Z.Z.Z.Z.Z.Z.Z.Z.Z.Z.Z.Z.Z.Z.Z.Z.Z.Z.Z.Z.Z.Z.Z.Z.Z.Z.Z.Z.Z.Z.Z.Z.Z.Z.Z.Z.Z.Z.Z.Z.Z.Z.Z.Z.Z.Z.Z.Z.Z.Z.Z.Z.Z.Z.Z.Z.Z.Z.Z.Z.Z.Z.Z.Z.Z.Z.Z.Z.Z.Z.Z.",
"Z.Z.Z.Z.Z.Z.Z.Z.Z.Z.Z.Z.Z.Z.Z.Z.Z.Z.Z.Z.Z.Z.Z.Z.Z.Z.Z.Z.Z.Z.Z.Z.Z.Z.Z.Z.Z.Z.Z.Z.Z.Z.Z.Z.Z.Z.Z.Z.Z.Z.Z.Z.Z.Z.Z.Z.Z.Z.Z.Z.Z.Z.Z.Z.Z.Z.Z.Z.Z.Z.Z.Z.Z.Z.Z.Z.Z.Z.Z.Z.Z.Z.Z.Z.Z.Z.Z.Z.Z.Z.Z.Z.Z.Z.Z.Z.Z.Z.Z.Z.Z.Z.Z.Z.Z.Z.Z.Z.Z.Z.o . . . . . o o o . . . . . . . . . . . . . . . . o . . . . o o Z.Z.Z.Z.Z.Z.Z.Z.Z.Z.Z.Z.Z.Z.Z.Z.Z.Z.Z.Z.Z.Z.Z.Z.Z.Z.Z.Z.Z.Z.Z.Z.Z.Z.Z.Z.Z.Z.Z.Z.Z.Z.Z.Z.Z.Z.Z.Z.Z.Z.Z.Z.Z.Z.Z.Z.Z.Z.Z.Z.Z.Z.Z.Z.Z.Z.Z.Z.Z.Z.Z.Z.Z.Z.Z.Z.Z.Z.Z.Z.Z.Z.Z.Z.Z.Z.Z.Z.Z.Z.Z.Z.Z.Z.Z.Z.Z.Z.Z.Z.Z.Z.Z.Z.Z.Z.Z.Z.Z.Z.Z.Z.Z.Z.",
"Z.Z.Z.Z.Z.Z.Z.Z.Z.Z.Z.Z.Z.Z.Z.Z.Z.Z.Z.Z.Z.Z.Z.Z.Z.Z.Z.Z.Z.Z.Z.Z.Z.Z.Z.Z.Z.Z.Z.Z.Z.Z.Z.Z.Z.Z.Z.Z.Z.Z.Z.Z.Z.Z.Z.Z.Z.Z.Z.Z.Z.Z.Z.Z.Z.Z.Z.Z.Z.Z.Z.Z.Z.Z.Z.Z.Z.Z.Z.Z.Z.Z.Z.Z.Z.Z.Z.Z.Z.Z.Z.Z.Z.Z.Z.Z.Z.Z.Z.Z.Z.Z.Z.Z.Z.Z.Z.Z.Z.Z.Z.Z.Z.Z.Z.Z.Z.Z.Z.Z.Z.Z.Z.o o . Z.Z.Z.Z.Z.Z.Z.Z.Z.Z.Z.Z.Z.Z.Z.Z.Z.Z.Z.Z.Z.Z.Z.Z.Z.Z.Z.Z.Z.Z.Z.Z.Z.Z.Z.Z.Z.Z.Z.Z.Z.Z.Z.Z.Z.Z.Z.Z.Z.Z.Z.Z.Z.Z.Z.Z.Z.Z.Z.Z.Z.Z.Z.Z.Z.Z.Z.Z.Z.Z.Z.Z.Z.Z.Z.Z.Z.Z.Z.Z.Z.Z.Z.Z.Z.Z.Z.Z.Z.Z.Z.Z.Z.Z.Z.Z.Z.Z.Z.Z.Z.Z.Z.Z.Z.Z.Z.Z.Z.Z.Z.Z.Z.Z.Z.Z.Z.Z.Z.Z.Z.Z.Z.Z.Z.Z.Z.Z.Z.Z.",
"Z.Z.Z.Z.Z.Z.Z.Z.Z.Z.Z.Z.Z.Z.Z.Z.Z.Z.Z.Z.Z.Z.Z.Z.Z.Z.Z.Z.Z.Z.Z.Z.Z.Z.Z.Z.Z.Z.Z.Z.Z.Z.Z.Z.Z.Z.Z.Z.Z.Z.Z.Z.Z.Z.Z.Z.Z.Z.Z.Z.Z.Z.Z.Z.Z.Z.Z.Z.Z.Z.Z.Z.Z.Z.Z.Z.Z.Z.Z.Z.Z.Z.Z.Z.Z.Z.Z.Z.Z.Z.Z.Z.Z.Z.Z.Z.Z.Z.Z.Z.Z.Z.Z.Z.Z.Z.Z.Z.Z.Z.Z.Z.Z.Z.Z.Z.Z.Z.Z.Z.Z.Z.Z.Z.Z.Z.Z.Z.Z.Z.Z.Z.Z.Z.Z.Z.Z.Z.Z.Z.Z.Z.Z.Z.Z.Z.Z.Z.Z.Z.Z.Z.Z.Z.Z.Z.Z.Z.Z.Z.Z.Z.Z.Z.Z.Z.Z.Z.Z.Z.Z.Z.Z.Z.Z.Z.Z.Z.Z.Z.Z.Z.Z.Z.Z.Z.Z.Z.Z.Z.Z.Z.Z.Z.Z.Z.Z.Z.Z.Z.Z.Z.Z.Z.Z.Z.Z.Z.Z.Z.Z.Z.Z.Z.Z.Z.Z.Z.Z.Z.Z.Z.Z.Z.Z.Z.Z.Z.Z.Z.Z.Z.Z.Z.Z.Z.Z.Z.Z.Z.Z.Z.Z.Z.Z.Z.Z.Z.Z.Z.Z.Z.Z.Z.Z.Z.",
"Z.Z.Z.Z.Z.Z.Z.Z.Z.Z.Z.Z.Z.Z.Z.Z.Z.Z.Z.Z.Z.Z.Z.Z.Z.Z.Z.Z.Z.Z.Z.Z.Z.Z.Z.Z.Z.Z.Z.Z.Z.Z.Z.Z.Z.Z.Z.Z.Z.Z.Z.Z.Z.Z.Z.Z.Z.Z.Z.Z.Z.Z.Z.Z.Z.Z.Z.Z.Z.Z.Z.Z.Z.Z.Z.Z.Z.Z.Z.Z.Z.Z.Z.Z.Z.Z.Z.Z.Z.Z.Z.Z.Z.Z.Z.Z.Z.Z.Z.Z.Z.Z.Z.Z.Z.Z.Z.Z.Z.Z.Z.Z.Z.Z.Z.Z.Z.Z.Z.Z.Z.Z.Z.Z.Z.Z.Z.Z.Z.Z.Z.Z.Z.Z.Z.Z.Z.Z.Z.Z.Z.Z.Z.Z.Z.Z.Z.Z.Z.Z.Z.Z.Z.Z.Z.Z.Z.Z.Z.Z.Z.Z.Z.Z.Z.Z.Z.Z.Z.Z.Z.Z.Z.Z.Z.Z.Z.Z.Z.Z.Z.Z.Z.Z.Z.Z.Z.Z.Z.Z.Z.Z.Z.Z.Z.Z.Z.Z.Z.Z.Z.Z.Z.Z.Z.Z.Z.Z.Z.Z.Z.Z.Z.Z.Z.Z.Z.Z.Z.Z.Z.Z.Z.Z.Z.Z.Z.Z.Z.Z.Z.Z.Z.Z.Z.Z.Z.Z.Z.Z.Z.Z.Z.Z.Z.Z.Z.Z.Z.Z.Z.Z.Z.Z.Z.Z.",
"Z.Z.Z.Z.Z.Z.Z.Z.Z.Z.Z.Z.Z.Z.Z.Z.Z.Z.Z.Z.Z.Z.Z.Z.Z.Z.Z.Z.Z.Z.Z.Z.Z.Z.Z.Z.Z.Z.Z.Z.Z.Z.Z.Z.Z.Z.Z.Z.Z.Z.Z.Z.Z.Z.Z.Z.Z.Z.Z.Z.Z.Z.Z.Z.Z.Z.Z.Z.Z.Z.Z.Z.Z.Z.Z.Z.Z.Z.Z.Z.Z.Z.Z.Z.Z.Z.Z.Z.Z.Z.Z.Z.Z.Z.Z.Z.Z.Z.Z.Z.Z.Z.Z.Z.Z.Z.Z.Z.Z.Z.Z.Z.Z.Z.Z.Z.Z.Z.Z.Z.Z.Z.Z.Z.Z.Z.Z.Z.Z.Z.Z.Z.Z.Z.Z.Z.Z.Z.Z.Z.Z.Z.Z.Z.Z.Z.Z.Z.Z.Z.Z.Z.Z.Z.Z.Z.Z.Z.Z.Z.Z.Z.Z.Z.Z.Z.Z.Z.Z.Z.Z.Z.Z.Z.Z.Z.Z.Z.Z.Z.Z.Z.Z.Z.Z.Z.Z.Z.Z.Z.Z.Z.Z.Z.Z.Z.Z.Z.Z.Z.Z.Z.Z.Z.Z.Z.Z.Z.Z.Z.Z.Z.Z.Z.Z.Z.Z.Z.Z.Z.Z.Z.Z.Z.Z.Z.Z.Z.Z.Z.Z.Z.Z.Z.Z.Z.Z.Z.Z.Z.Z.Z.Z.Z.Z.Z.Z.Z.Z.Z.Z.Z.Z.Z.Z.Z.",
"Z.Z.Z.Z.Z.Z.Z.Z.Z.Z.Z.Z.Z.Z.Z.Z.Z.Z.Z.Z.Z.Z.Z.Z.Z.Z.Z.Z.Z.Z.Z.Z.Z.Z.Z.Z.Z.Z.Z.Z.Z.Z.Z.Z.Z.Z.Z.Z.Z.Z.Z.Z.Z.Z.Z.Z.Z.Z.Z.Z.Z.Z.Z.Z.Z.Z.Z.Z.Z.Z.Z.Z.Z.Z.Z.Z.Z.Z.Z.Z.Z.Z.Z.Z.Z.Z.Z.Z.Z.Z.Z.Z.Z.Z.Z.Z.Z.Z.Z.Z.Z.Z.Z.Z.Z.Z.Z.Z.Z.Z.Z.Z.Z.Z.Z.Z.Z.Z.Z.Z.Z.Z.Z.Z.Z.Z.Z.Z.Z.Z.Z.Z.Z.Z.Z.Z.Z.Z.Z.Z.Z.Z.Z.Z.Z.Z.Z.Z.Z.Z.Z.Z.Z.Z.Z.Z.Z.Z.Z.Z.Z.Z.Z.Z.Z.Z.Z.Z.Z.Z.Z.Z.Z.Z.Z.Z.Z.Z.Z.Z.Z.Z.Z.Z.Z.Z.Z.Z.Z.Z.Z.Z.Z.Z.Z.Z.Z.Z.Z.Z.Z.Z.Z.Z.Z.Z.Z.Z.Z.Z.Z.Z.Z.Z.Z.Z.Z.Z.Z.Z.Z.Z.Z.Z.Z.Z.Z.Z.Z.Z.Z.Z.Z.Z.Z.Z.Z.Z.Z.Z.Z.Z.Z.Z.Z.Z.Z.Z.Z.Z.Z.Z.Z.Z.Z.Z.",
"Z.Z.Z.Z.Z.Z.Z.Z.Z.Z.Z.Z.Z.Z.Z.Z.Z.Z.Z.Z.Z.Z.Z.Z.Z.Z.Z.Z.Z.Z.Z.Z.Z.Z.Z.Z.Z.Z.Z.Z.Z.Z.Z.Z.Z.Z.Z.Z.Z.Z.Z.Z.Z.Z.Z.Z.Z.Z.Z.Z.Z.Z.Z.Z.Z.Z.Z.Z.Z.Z.Z.Z.Z.Z.Z.Z.Z.Z.Z.Z.Z.Z.Z.Z.Z.Z.Z.Z.Z.Z.Z.Z.Z.Z.Z.Z.Z.Z.Z.Z.Z.Z.Z.Z.Z.Z.Z.Z.Z.Z.Z.Z.Z.Z.Z.Z.Z.Z.Z.Z.Z.Z.Z.Z.Z.Z.Z.Z.Z.Z.Z.Z.Z.Z.Z.Z.Z.Z.Z.Z.Z.Z.Z.Z.Z.Z.Z.Z.Z.Z.Z.Z.Z.Z.Z.Z.Z.Z.Z.Z.Z.Z.Z.Z.Z.Z.Z.Z.Z.Z.Z.Z.Z.Z.Z.Z.Z.Z.Z.Z.Z.Z.Z.Z.Z.Z.Z.Z.Z.Z.Z.Z.Z.Z.Z.Z.Z.Z.Z.Z.Z.Z.Z.Z.Z.Z.Z.Z.Z.Z.Z.Z.Z.Z.Z.Z.Z.Z.Z.Z.Z.Z.Z.Z.Z.Z.Z.Z.Z.Z.Z.Z.Z.Z.Z.Z.Z.Z.Z.Z.Z.Z.Z.Z.Z.Z.Z.Z.Z.Z.Z.Z.Z.Z.Z.Z.",
"Z.Z.Z.Z.Z.Z.Z.Z.Z.Z.Z.Z.Z.Z.Z.Z.Z.Z.Z.Z.Z.Z.Z.Z.Z.Z.Z.Z.Z.Z.Z.Z.Z.Z.Z.Z.Z.Z.Z.Z.Z.Z.Z.Z.Z.Z.Z.Z.Z.Z.Z.Z.Z.Z.Z.Z.Z.Z.Z.Z.Z.Z.Z.Z.Z.Z.Z.Z.Z.Z.Z.Z.Z.Z.Z.Z.Z.Z.Z.Z.Z.Z.Z.Z.Z.Z.Z.Z.Z.Z.Z.Z.Z.Z.Z.Z.Z.Z.Z.Z.Z.Z.Z.Z.Z.Z.Z.Z.Z.Z.Z.Z.Z.Z.Z.Z.Z.Z.Z.Z.Z.Z.Z.Z.Z.Z.Z.Z.Z.Z.Z.Z.Z.Z.Z.Z.Z.Z.Z.Z.Z.Z.Z.Z.Z.Z.Z.Z.Z.Z.Z.Z.Z.Z.Z.Z.Z.Z.Z.Z.Z.Z.Z.Z.Z.Z.Z.Z.Z.Z.Z.Z.Z.Z.Z.Z.Z.Z.Z.Z.Z.Z.Z.Z.Z.Z.Z.Z.Z.Z.Z.Z.Z.Z.Z.Z.Z.Z.Z.Z.Z.Z.Z.Z.Z.Z.Z.Z.Z.Z.Z.Z.Z.Z.Z.Z.Z.Z.Z.Z.Z.Z.Z.Z.Z.Z.Z.Z.Z.Z.Z.Z.Z.Z.Z.Z.Z.Z.Z.Z.Z.Z.Z.Z.Z.Z.Z.Z.Z.Z.Z.Z.Z.Z.Z.Z.",
"Z.Z.Z.Z.Z.Z.Z.Z.Z.Z.Z.Z.Z.Z.Z.Z.Z.Z.Z.Z.Z.Z.Z.Z.Z.Z.Z.Z.Z.Z.Z.Z.Z.Z.Z.Z.Z.Z.Z.Z.Z.Z.Z.Z.Z.Z.Z.Z.Z.Z.Z.Z.Z.Z.Z.Z.Z.Z.Z.Z.Z.Z.Z.Z.Z.Z.Z.Z.Z.Z.Z.Z.Z.Z.Z.Z.Z.Z.Z.Z.Z.Z.Z.Z.Z.Z.Z.Z.Z.Z.Z.Z.Z.Z.Z.Z.Z.Z.Z.Z.Z.Z.Z.Z.Z.Z.Z.Z.Z.Z.Z.Z.Z.Z.Z.Z.Z.Z.Z.Z.Z.Z.Z.Z.Z.Z.Z.Z.Z.Z.Z.Z.Z.Z.Z.Z.Z.Z.Z.Z.Z.Z.Z.Z.Z.Z.Z.Z.Z.Z.Z.Z.Z.Z.Z.Z.Z.Z.Z.Z.Z.Z.Z.Z.Z.Z.Z.Z.Z.Z.Z.Z.Z.Z.Z.Z.Z.Z.Z.Z.Z.Z.Z.Z.Z.Z.Z.Z.Z.Z.Z.Z.Z.Z.Z.Z.Z.Z.Z.Z.Z.Z.Z.Z.Z.Z.Z.Z.Z.Z.Z.Z.Z.Z.Z.Z.Z.Z.Z.Z.Z.Z.Z.Z.Z.Z.Z.Z.Z.Z.Z.Z.Z.Z.Z.Z.Z.Z.Z.Z.Z.Z.Z.Z.Z.Z.Z.Z.Z.Z.Z.Z.Z.Z.Z.Z.",
"Z.Z.Z.Z.Z.Z.Z.Z.Z.Z.Z.Z.Z.Z.Z.Z.Z.Z.Z.Z.Z.Z.Z.Z.Z.Z.Z.Z.Z.Z.Z.Z.Z.Z.Z.Z.Z.Z.Z.Z.Z.Z.Z.Z.Z.Z.Z.Z.Z.Z.Z.Z.Z.Z.Z.Z.Z.Z.Z.Z.Z.Z.Z.Z.Z.Z.Z.Z.Z.Z.Z.Z.Z.Z.Z.Z.Z.Z.Z.Z.Z.Z.Z.Z.Z.Z.Z.Z.Z.Z.Z.Z.Z.Z.Z.Z.Z.Z.Z.Z.Z.Z.Z.Z.Z.Z.Z.Z.Z.Z.Z.Z.Z.Z.Z.Z.Z.Z.Z.Z.Z.Z.Z.Z.Z.Z.Z.Z.Z.Z.Z.Z.Z.Z.Z.Z.Z.Z.Z.Z.Z.Z.Z.Z.Z.Z.Z.Z.Z.Z.Z.Z.Z.Z.Z.Z.Z.Z.Z.Z.Z.Z.Z.Z.Z.Z.Z.Z.Z.Z.Z.Z.Z.Z.Z.Z.Z.Z.Z.Z.Z.Z.Z.Z.Z.Z.Z.Z.Z.Z.Z.Z.Z.Z.Z.Z.Z.Z.Z.Z.Z.Z.Z.Z.Z.Z.Z.Z.Z.Z.Z.Z.Z.Z.Z.Z.Z.Z.Z.Z.Z.Z.Z.Z.Z.Z.Z.Z.Z.Z.Z.Z.Z.Z.Z.Z.Z.Z.Z.Z.Z.Z.Z.Z.Z.Z.Z.Z.Z.Z.Z.Z.Z.Z.Z.Z.",
"Z.Z.Z.Z.Z.Z.Z.Z.Z.Z.Z.Z.Z.Z.Z.Z.Z.Z.Z.Z.Z.Z.Z.Z.Z.Z.Z.Z.Z.Z.Z.Z.Z.Z.Z.Z.Z.Z.Z.Z.Z.Z.Z.Z.Z.Z.Z.Z.Z.Z.Z.Z.Z.Z.Z.Z.Z.Z.Z.Z.Z.Z.Z.Z.Z.Z.Z.Z.Z.Z.Z.Z.Z.Z.Z.Z.Z.Z.Z.Z.Z.Z.Z.Z.Z.Z.Z.Z.Z.Z.Z.Z.Z.Z.Z.Z.Z.Z.Z.Z.Z.Z.Z.Z.Z.Z.Z.Z.Z.Z.Z.Z.Z.Z.Z.Z.Z.Z.Z.Z.Z.Z.Z.Z.Z.Z.Z.Z.Z.Z.Z.Z.Z.Z.Z.Z.Z.Z.Z.Z.Z.Z.Z.Z.Z.Z.Z.Z.Z.Z.Z.Z.Z.Z.Z.Z.Z.Z.Z.Z.Z.Z.Z.Z.Z.Z.Z.Z.Z.Z.Z.Z.Z.Z.Z.Z.Z.Z.Z.Z.Z.Z.Z.Z.Z.Z.Z.Z.Z.Z.Z.Z.Z.Z.Z.Z.Z.Z.Z.Z.Z.Z.Z.Z.Z.Z.Z.Z.Z.Z.Z.Z.Z.Z.Z.Z.Z.Z.Z.Z.Z.Z.Z.Z.Z.Z.Z.Z.Z.Z.Z.Z.Z.Z.Z.Z.Z.Z.Z.Z.Z.Z.Z.Z.Z.Z.Z.Z.Z.Z.Z.Z.Z.Z.Z.Z."
};
