/* XPM */
static const char *bitcoin64[] = {
/* columns rows colors chars-per-pixel */
"64 64 138 2 ",
"   c #FC6E01",
".  c #FC7001",
"X  c #FC750B",
"o  c #FD780F",
"O  c #FC7711",
"+  c #FC7A14",
"@  c #FC7D1B",
"#  c #FC801F",
"$  c #FC8323",
"%  c #FC862A",
"&  c #FC882E",
"*  c #FC8C34",
"=  c #FC8F39",
"-  c #FC913E",
";  c #FC9444",
":  c #FC974A",
">  c #FC9A4D",
",  c #FC9E55",
"<  c #FC9F58",
"1  c #FCA057",
"2  c #FCA15B",
"3  c #FCA664",
"4  c #FDA866",
"5  c #FCAB6B",
"6  c #FCAE71",
"7  c #FCB175",
"8  c #FCB47C",
"9  c #FCB781",
"0  c #FCB984",
"q  c #FCBD8C",
"w  c #FDBF90",
"e  c #FCC193",
"r  c #FCC59A",
"t  c #FCC89F",
"y  c #FCCAA2",
"u  c #FCCDA9",
"i  c #FCD0AE",
"p  c #FCD3B2",
"a  c #FDD4B4",
"s  c #FCD5B7",
"d  c #FCD4B4",
"f  c #FDD7B8",
"g  c #FCD7BB",
"h  c #FDD6B9",
"j  c #FDD8BC",
"k  c #FDD9BE",
"l  c #FCDAC0",
"z  c #FDDBC1",
"x  c #FDDEC6",
"c  c #FDDDC4",
"v  c #FCDEC8",
"b  c #FCDEC8",
"n  c #FDE0CA",
"m  c #FCE1CB",
"M  c #FDE2CE",
"N  c #FDE3CE",
"B  c #FDE3CF",
"V  c #FDE2CD",
"C  c #FDE3D0",
"Z  c #FDE4D0",
"A  c #FCE4D1",
"S  c #FCE4D2",
"D  c #FDE4D2",
"F  c #FCE5D2",
"G  c #FDE5D4",
"H  c #FDE8D7",
"J  c #FCE8D7",
"K  c #FDE7D9",
"L  c #FDE7D9",
"P  c #FCE8D8",
"I  c #FDE8D8",
"U  c #FCE8D9",
"Y  c #FDE8D9",
"T  c #FCE9DB",
"R  c #FDEADB",
"E  c #FCE9DC",
"W  c #FDEADC",
"Q  c #FCEBDC",
"!  c #FDEBDD",
"~  c #FDEBDE",
"^  c #FDECDE",
"/  c #FDE9DA",
"(  c #FCECE0",
")  c #FDECE0",
"_  c #FDEDE0",
"`  c #FCEEE2",
"'  c #FDEEE2",
"]  c #FDEEE3",
"[  c #FDEEE3",
"{  c #FDF0E6",
"}  c #FDF0E7",
"|  c #FDF0E6",
" . c #FDF1E8",
".. c #FDF2EA",
"X. c #FDF3EA",
"o. c #FDF3EB",
"O. c #FDF3EC",
"+. c #FCF3ED",
"@. c #FCF4ED",
"#. c #FDF4ED",
"$. c #FDF5ED",
"%. c #FCF5EF",
"&. c #FDF5EF",
"*. c #FDF3EB",
"=. c #FDF5F0",
"-. c #FDF6F0",
";. c #FCF6F1",
":. c #FDF6F1",
">. c #FDF7F2",
",. c #FDF6F1",
"<. c #FDF8F4",
"1. c #FDF8F5",
"2. c #FDF9F6",
"3. c #FCF9F7",
"4. c #FDF9F6",
"5. c #FCFAF8",
"6. c #FCFAF9",
"7. c #FCFBF9",
"8. c #FDFBF9",
"9. c #FDFBFA",
"0. c #FCFCFB",
"q. c #FDFCFB",
"w. c gray99",
"e. c #FDFDFC",
"r. c #FCFCFD",
"t. c #FCFDFD",
"y. c #FDFDFD",
"u. c #FDFEFD",
"i. c #FCFDFE",
"p. c #FDFDFE",
"a. c #FDFEFE",
"s. c #FCFEFF",
"d. c #FDFEFF",
"f. c #FCFFFF",
"g. c #FDFFFF",
"h. c #FCFDFD",
"j. c None",
"k. c black",
/* pixels */
"j.j.j.j.j.j.j.j.j.j.j.j.j.j.j.j.j.j.j.j.j.j.j.j.j.j.j.j.j.j.j.j.j.j.j.j.j.j.j.j.j.j.j.j.j.j.j.j.j.j.j.j.j.j.j.j.j.j.j.j.j.j.j.j.",
"j.j.j.j.j.j.j.j.j.j.j.j.j.j.j.j.j.j.j.j.j.j.j.j.j.j.j.j.j.j.j.j.j.j.j.j.j.j.j.j.j.j.j.j.j.j.j.j.j.j.j.j.j.j.j.j.j.j.j.j.j.j.j.j.",
"j.j.j.j.j.j.j.j.j.j.j.j.j.j.j.j.j.j.j.j.j.j.j.j.j.j.  . .                     j.j.j.j.j.j.j.j.j.j.j.j.j.j.j.j.j.j.j.j.j.j.j.j.j.",
"j.j.j.j.j.j.j.j.j.j.j.j.j.j.j.j.j.j.j.j.j.j.                . X X .           .   . j.j.j.j.j.j.j.j.j.j.j.j.j.j.j.j.j.j.j.j.j.j.",
"j.j.j.j.j.j.j.j.j.j.j.j.j.j.j.j.j.j.j.j.        X + = 1 8 e y u u y e 8 1 = + X   . .   j.j.j.j.j.j.j.j.j.j.j.j.j.j.j.j.j.j.j.j.",
"j.j.j.j.j.j.j.j.j.j.j.j.j.j.j.j.j.j.      . $ 2 t Z $.y.y.y.y.y.y.y.y.y.y.=.Z y 2 $         j.j.j.j.j.j.j.j.j.j.j.j.j.j.j.j.j.j.",
"j.j.j.j.j.j.j.j.j.j.j.j.j.j.j.j.      X - e ! y.y.=.Z i q 7 3 2 2 3 7 q i Z =.y.y.! e - X       j.j.j.j.j.j.j.j.j.j.j.j.j.j.j.j.",
"j.j.j.j.j.j.j.j.j.j.j.j.j.j.      X - u $.y. .p 5 = + X                 X + = 6 s O.y.$.y =       j.j.j.j.j.j.j.j.j.j.j.j.j.j.j.",
"j.j.j.j.j.j.j.j.j.j.j.j.j.      $ q O.y.I 0 * X         . .       .             X = q ! y.{ 0 @   .   j.j.j.j.j.j.j.j.j.j.j.j.j.",
"j.j.j.j.j.j.j.j.j.j.j.j.    X > M y.' 8 $       . .     . . .     .     . .           % q  .y.z -       j.j.j.j.j.j.j.j.j.j.j.j.",
"j.j.j.j.j.j.j.j.j.j.j.    X 8 $.8.u *       . . . . . . . . . .       . . . .           . - k y.' 2 X     j.j.j.j.j.j.j.j.j.j.j.",
"j.j.j.j.j.j.j.j.j.j.    + e 8. .6 X   . . . . . . . . . . . . . . . . . .   . .             + q 2.=.7 X     j.j.j.j.j.j.j.j.j.j.",
"j.j.j.j.j.j.j.j.j.    + y y.H :                                             . .               X 4  .2.8 X     j.j.j.j.j.j.j.j.j.",
"j.j.j.j.j.j.j.j.    O t y.M =       X : , , , , , , , , , , , , , , , , - $ X                     , { 2.6 .     j.j.j.j.j.j.j.j.",
"j.j.j.j.j.j.j.    X q y.Z *         # I 0.8.8.8.8.8.8.8.8.8.8.8.8.8.8.8.=.' g 6 $         . . .     ,  .$.1     j.j.j.j.j.j.j.j.",
"j.j.j.j.j.j.j.    3 2.^ -       .   $ ! y.y.y.y.y.y.y.y.y.y.y.y.y.y.y.y.y.y.y.y.I 5 X   . . . . .     5 2.! *     j.j.j.j.j.j.j.",
"j.j.j.j.j.j.    = ' =.1   . . . .   $ ' y.y.y.y.y.y.y.y.y.y.y.y.y.y.y.y.y.y.y.y.y.8.r +   . .         X q y.p O     j.j.j.j.j.j.",
"j.j.j.j.j.    X p y.q X   . . . .   @ s I =.y.y.y.y.y.y.y.y.y.y.y.y.y.y.y.y.y.y.y.y.y.r X . . . .       @ z y.5     j.j.j.j.j.j.",
"j.j.j.j.j.    4 0.x @   . . . .   . X + @ > M y.y.y.y.y.y.y.y.y.y.y.y.y.y.y.y.y.y.y.y.2.3     . . . . .   ; $.I $     j.j.j.j.j.",
"j.j.j.j.    @ M 2.,       . . .   . .       : =.y.y.y.y.y.y.y.y.y.y.y.y.y.y.y.y.y.y.y.y.n +   . .   . . . X e y.q     j.j.j.j.j.",
"j.j.j.j.    5 y.i X .       . . . . . . .   @ ! y.y.y.y.O.r q q q q q t C 8.y.0.y.y.y.y.2.>     . . . . .   & ' ' %     j.j.j.j.",
"j.j.j.    + n 2.:   . .       . . . . . . . @ K y.y.y.y.U @             @ 8 $.y.y.y.y.y.y.9     . . . . . . . w y.8     j.j.j.j.",
"j.j.j.    , 8.g X   . . . . . . . . . . .   @ I y.y.y.y.I @ . . . . . .     6 8.y.w.w.y.y.r     . . . . . .   = $.v O   . j.j.j.",
"j.j.j.  X y y.5   . . . . . . . . . . . .   @ I y.y.y.y.I @   . . . . . .   + n y.y.w.w.y.r   . . . . . . .   X s 2.;   . j.j.j.",
"j.j.    # I { %   . . . . .   . . . . . .   @ K y.y.y.y.I @   . X . . . . . X i y.y.y.y.y.8   . . . . . . .     5 y.0     j.j.j.",
"j.j.    : 8.s X . . . . . .   . . . . . .   @ K y.0.y.y.I @   X % X . . .   + v y.y.y.y.<.;   . . . . . .       = =.k X   j.j.j.",
"j.j.    8 y.9     . . . . . . . . . . . .   @ I y.y.y.y.I @   X 7 X . .   . 5 2.y.y.y.y.k +   . . . . . . .     + M ' $     j.j.",
"j.j.  X u y.,   . . . . . . .   . . . . .   @ I y.y.y.y.I @   & n &   X $ 0 $.y.y.y.y. .:   . . . . . . . . .   . u 8.;     j.j.",
"j.j.  X x =.=   . . . . . . . .   . . . .   @ K y.y.y.y.M +   0 y.8   - G y.y.y.y.y.O.5 . .   . . .   . . . . .   0 y.3     j.j.",
"j.j.  @ I ' $   . . . .   . . . . . . . .   @ K y.y.y.2.5   ; ] y.I * X e 8.y.y.y.y.r +   . .     . . . . .   .   5 y.8     j.j.",
"j.    $ ] G @ . .     . . . . . . . . . .   @ I y.y.{ 5 X ; G y.y.y.k % X 8  .y.y.y.=.g ; .   . . . . . . . .     , y.q     j.j.",
"j.    %  .C + . . . . . . . . . . . . . .   @ I O.r = $ q  .y.y.y.y.y.I 7 $ = y =.y.y.y. .5 X   . . . . . . . .   > y.e     j.j.",
"j.    %  .C +   . . . . . . . . . . . . .   @ I  .e & $ q  .y.y.y.y.y.^ 8 $ * r =.y.y.y.y.=.3       . . . . . .   > y.r     j.j.",
"j.    $ ] G @   . . . . .     . . . . . .   @ K y.y.' 5 X ; Z y.y.y.k & X 6 ' y.y.y.y.y.y.y.' *       . . . . .   , y.e     j.j.",
"j.j.  @ I ' $   . . . .       . . . . . .   @ I y.y.y.=.2   - ' y.G % X e 0.y.y.y.y.y.y.y.y.y.t X   . . . . . .   5 y.9     j.j.",
"j.j.  X x =.=   . . . . . . . . . . . . .   @ K y.y.y.y.z X   8 y.5   # 0 k $.y.y.y.y.y.y.y.y.' $   . . . . . .   0 y.4     j.j.",
"j.j.  X u y.,   . . . . . . . . . . . .     @ I y.y.y.y.I @   % z $       X ; g y.y.y.y.y.y.y.8.,   . . . . .   X u 8.;     j.j.",
"j.j.    8 y.9   . . . . . . . . . . . . .   @ I y.y.y.y.I @   X 4 X   . .     @ g y.y.y.y.y.y.y.8     . . . .   + Z ] $     j.j.",
"j.j.    : 8.g X . . . . . . . . . . . . .   @ K y.0.0.y.I @     @ .   . . .     , 2.y.y.y.y.y.y.q               ; 2.k X   j.j.j.",
"j.j.    @ I  .&   .     . . . . . . . . .   @ K y.y.y.y.I @         . . . . .   = $.y.y.y.0.y.y.q               9 y.8     j.j.j.",
"j.j.j.    t y.6   .   . . .   . . . . . .   @ K y.y.y.y.I @           . . . .   7 0.y.y.0.y.y.y.6         .   + M =.=   . j.j.j.",
"j.j.j.    > 8.x +     . . . . . . . . . .   @ I y.y.y.y.I @                 . > ' y.y.y.y.y.y.2.:       . .   1 0.s X   j.j.j.j.",
"j.j.j.j.  + z 8.1       . . . . . . . . .   = O.y.y.y.y.I % X X O O X + @ - e  .y.y.y.0.y.y.y.M @       .   X g 0.1   . j.j.j.j.",
"j.j.j.j.    3 y.z +     . . . .           $ p y.y.y.y.y.2.M x v v v v n H =.y.y.y.y.y.y.y.y.y.6   .   . .   2 8.z +   . j.j.j.j.",
"j.j.j.j.    + k y.6       . .       + 5 e Z y.y.y.y.y.y.y.y.y.y.y.y.y.y.y.y.y.y.y.y.y.y.y.y.g +       .   @ n 8.<   . j.j.j.j.j.",
"j.j.j.j.j.    > =.^ *     . .   .   $ ' y.y.y.y.y.y.y.y.y.y.y.y.y.y.y.y.y.y.y.y.y.y.y.y.y.M *   . . . . X q y.u X     j.j.j.j.j.",
"j.j.j.j.j.j.  X e y.s +         .   $ ! y.y.y.y.w.y.y.y.y.y.y.y.y.y.y.y.y.y.y.y.y.y.y.y.k *       . .   , =.^ *   . j.j.j.j.j.j.",
"j.j.j.j.j.j.    @ x y.q X       .   $ ! w.y.y.y.y.y.y.w.y.y.y.y.y.y.y.y.y.y.y.y.y.y.! 8 @   . .       = I 2.3   . j.j.j.j.j.j.j.",
"j.j.j.j.j.j.j.    - ' 2.6 X     .   $ ' y.y.y.y.y.y.y.y.y.y.y.y.y.y.y.y.y.8.=.^ s 6 $     . . .     $ x y.q X     j.j.j.j.j.j.j.",
"j.j.j.j.j.j.j.j.    2 $.=.4 .       X 3 6 6 6 6 6 6 6 6 6 6 6 6 6 6 6 6 5 1 - $ X     .     . .   $ k y.u +     j.j.j.j.j.j.j.j.",
"j.j.j.j.j.j.j.j.    . 5 <.$.5 X   . .                                             . . . . . .   & z y.d @     j.j.j.j.j.j.j.j.j.",
"j.j.j.j.j.j.j.j.j.    X 6 =.<.8 X   .       . . . . . . . . . . . . . . . . . . . . . . . . . ; M y.i @     j.j.j.j.j.j.j.j.j.j.",
"j.j.j.j.j.j.j.j.j.j.    X 3  .0.y $     . . . . . . .     . . . . . . . . . . . . . . .   o 6 { 0.r @     j.j.j.j.j.j.j.j.j.j.j.",
"j.j.j.j.j.j.j.j.j.j.j.      : G y.C 1 X     . . . . . . . .   . . . . . . . . . . .   . - i 8. .7 X     j.j.j.j.j.j.j.j.j.j.j.j.",
"j.j.j.j.j.j.j.j.j.j.j.j..     % u 8.2.u - X     . . . . .   . . . . . . . . .     X * q  .y.z ;       j.j.j.j.j.j.j.j.j.j.j.j.j.",
"j.j.j.j.j.j.j.j.j.j.j.j.j.j.    X 5 G y.$.u , @ X       . .   . .           . @ > t { y.I 7 +       j.j.j.j.j.j.j.j.j.j.j.j.j.j.",
"j.j.j.j.j.j.j.j.j.j.j.j.j.j.j.      $ 9 I y.8.H y 5 ; $ + X X X X o @ % ; 5 t G 8.y.G 9 $       j.j.j.j.j.j.j.j.j.j.j.j.j.j.j.j.",
"j.j.j.j.j.j.j.j.j.j.j.j.j.j.j.j.        $ 5 g  .y.y.2.] Z z g g k x G { 2.y.y.] i 3 @         j.j.j.j.j.j.j.j.j.j.j.j.j.j.j.j.j.",
"j.j.j.j.j.j.j.j.j.j.j.j.j.j.j.j.j.j..       X * 4 r k I  .=.2.2.2.$.' M p q , $ X       . j.j.j.j.j.j.j.j.j.j.j.j.j.j.j.j.j.j.j.",
"j.j.j.j.j.j.j.j.j.j.j.j.j.j.j.j.j.j.j.j.. .       . X @ % = - - = * $ + X .       .   j.j.j.j.j.j.j.j.j.j.j.j.j.j.j.j.j.j.j.j.j.",
"j.j.j.j.j.j.j.j.j.j.j.j.j.j.j.j.j.j.j.j.j.j.j.. . . .                 . . . . . j.j.j.j.j.j.j.j.j.j.j.j.j.j.j.j.j.j.j.j.j.j.j.j.",
"j.j.j.j.j.j.j.j.j.j.j.j.j.j.j.j.j.j.j.j.j.j.j.j.j.j.j.j.j.          j.j.j.j.j.j.j.j.j.j.j.j.j.j.j.j.j.j.j.j.j.j.j.j.j.j.j.j.j.j.",
"j.j.j.j.j.j.j.j.j.j.j.j.j.j.j.j.j.j.j.j.j.j.j.j.j.j.j.j.j.j.j.j.j.j.j.j.j.j.j.j.j.j.j.j.j.j.j.j.j.j.j.j.j.j.j.j.j.j.j.j.j.j.j.j.",
"j.j.j.j.j.j.j.j.j.j.j.j.j.j.j.j.j.j.j.j.j.j.j.j.j.j.j.j.j.j.j.j.j.j.j.j.j.j.j.j.j.j.j.j.j.j.j.j.j.j.j.j.j.j.j.j.j.j.j.j.j.j.j.j."
};
