/* XPM */
static const char *bitcoin128[] = {
/* columns rows colors chars-per-pixel */
"128 128 140 2 ",
"   c #FC6F01",
".  c #FC7001",
"X  c #FC740B",
"o  c #FD780E",
"O  c #FC7711",
"+  c #FC7913",
"@  c #FC7C1A",
"#  c #FC7F20",
"$  c #FC801E",
"%  c #FC8223",
"&  c #FC862A",
"*  c #FC882E",
"=  c #FC8731",
"-  c #FC8B33",
";  c #FC8E39",
":  c #FC913D",
">  c #FC9443",
",  c #FC9847",
"<  c #FC9649",
"1  c #FC994C",
"2  c #FC9D53",
"3  c #FB9F58",
"4  c #FCA25C",
"5  c #FCA663",
"6  c #FCA966",
"7  c #FCA768",
"8  c #FCAB6C",
"9  c #FCAF73",
"0  c #FCB175",
"q  c #FCB47C",
"w  c #FCB682",
"e  c #FCB985",
"r  c #FCBC8B",
"t  c #FCBF90",
"y  c #FCC194",
"u  c #FCC49A",
"i  c #FCC89F",
"p  c #FCC7A1",
"a  c #FCCAA4",
"s  c #FCCEAB",
"d  c #FCD0AE",
"f  c #FCD3B3",
"g  c #FDD3B2",
"h  c #FCD2B1",
"j  c #FDD4B4",
"k  c #FDD3B3",
"l  c #FCD6BA",
"z  c #FDD8BB",
"x  c #FCD9BC",
"c  c #FCD9BD",
"v  c #FCD9BE",
"b  c #FDDABF",
"n  c #FDD9BE",
"m  c #FCDAC0",
"M  c #FDDBC1",
"N  c #FDDBC2",
"B  c #FDDCC2",
"V  c #FCDDC5",
"C  c #FDDEC6",
"Z  c #FDDCC3",
"A  c #FDDFC8",
"S  c #FDDFC9",
"D  c #FCE0C9",
"F  c #FDE0C9",
"G  c #FCE2CE",
"H  c #FCE2CF",
"J  c #FCE1CC",
"K  c #FDE4D0",
"L  c #FDE5D3",
"P  c #FCE5D4",
"I  c #FCE6D5",
"U  c #FDE7D5",
"Y  c #FCE7D6",
"T  c #FDE7D7",
"R  c #FDE4D3",
"E  c #FDE8D7",
"W  c #FDE8D7",
"Q  c #FCE7D8",
"!  c #FDE8D8",
"~  c #FDE9DA",
"^  c #FCEADC",
"/  c #FDEADC",
"(  c #FDEBDD",
")  c #FDECDF",
"_  c #FDEADC",
"`  c #FDEDE0",
"'  c #FDEDE1",
"]  c #FDEEE2",
"[  c #FDEEE3",
"{  c #FCEFE5",
"}  c #FDEEE3",
"|  c #FDF0E7",
" . c #FDF0E6",
".. c #FCF1E8",
"X. c #FDF1E8",
"o. c #FDF2E9",
"O. c #FDF2EA",
"+. c #FDF2EB",
"@. c #FDF3EC",
"#. c #FDF4ED",
"$. c #FDF4EE",
"%. c #FDF5EF",
"&. c #FDF3EC",
"*. c #FDF5F0",
"=. c #FDF6F0",
"-. c #FDF7F2",
";. c #FDF7F3",
":. c #FDF7F2",
">. c #FDF8F3",
",. c #FDF8F4",
"<. c #FDF9F5",
"1. c #FDF9F6",
"2. c #FDFAF7",
"3. c #FDF9F6",
"4. c #FCFAF8",
"5. c #FDFAF8",
"6. c #FDFAF9",
"7. c #FDFBF9",
"8. c #FDFBFA",
"9. c #FDFBFB",
"0. c #FDFCFA",
"q. c #FDFCFB",
"w. c gray99",
"e. c #FDFCFC",
"r. c #FDFDFC",
"t. c #FCFCFD",
"y. c #FDFCFD",
"u. c #FCFDFD",
"i. c #FDFDFD",
"p. c #FCFDFE",
"a. c #FDFDFE",
"s. c #FDFDFF",
"d. c #FCFEFE",
"f. c #FDFEFE",
"g. c #FCFEFF",
"h. c #FDFEFF",
"j. c #FDFFFF",
"k. c #FCFCFD",
"l. c None",
"z. c black",
/* pixels */
"l.l.l.l.l.l.l.l.l.l.l.l.l.l.l.l.l.l.l.l.l.l.l.l.l.l.l.l.l.l.l.l.l.l.l.l.l.l.l.l.l.l.l.l.l.l.l.l.l.l.l.l.l.l.l.l.l.l.l.l.l.l.l.l.l.l.l.l.l.l.l.l.l.l.l.l.l.l.l.l.l.l.l.l.l.l.l.l.l.l.l.l.l.l.l.l.l.l.l.l.l.l.l.l.l.l.l.l.l.l.l.l.l.l.l.l.l.l.l.l.l.l.l.l.l.l.l.l.",
"l.l.l.l.l.l.l.l.l.l.l.l.l.l.l.l.l.l.l.l.l.l.l.l.l.l.l.l.l.l.l.l.l.l.l.l.l.l.l.l.l.l.l.l.l.l.l.l.l.l.l.l.l.l.l.l.l.l.l.l.l.l.l.l.l.l.l.l.l.l.l.l.l.l.l.l.l.l.l.l.l.l.l.l.l.l.l.l.l.l.l.l.l.l.l.l.l.l.l.l.l.l.l.l.l.l.l.l.l.l.l.l.l.l.l.l.l.l.l.l.l.l.l.l.l.l.l.l.",
"l.l.l.l.l.l.l.l.l.l.l.l.l.l.l.l.l.l.l.l.l.l.l.l.l.l.l.l.l.l.l.l.l.l.l.l.l.l.l.l.l.l.l.l.l.l.l.l.l.l.l.l.l.l.l.l.l.l.l.l.l.l.l.l.l.l.l.l.l.l.l.l.l.l.l.l.l.l.l.l.l.l.l.l.l.l.l.l.l.l.l.l.l.l.l.l.l.l.l.l.l.l.l.l.l.l.l.l.l.l.l.l.l.l.l.l.l.l.l.l.l.l.l.l.l.l.l.l.",
"l.l.l.l.l.l.l.l.l.l.l.l.l.l.l.l.l.l.l.l.l.l.l.l.l.l.l.l.l.l.l.l.l.l.l.l.l.l.l.l.l.l.l.l.l.l.l.l.l.l.l.l.l.l.l.l.l.l.l.l.l.l.l.l.l.l.l.l.l.l.l.l.l.l.l.l.l.l.l.l.l.l.l.l.l.l.l.l.l.l.l.l.l.l.l.l.l.l.l.l.l.l.l.l.l.l.l.l.l.l.l.l.l.l.l.l.l.l.l.l.l.l.l.l.l.l.l.l.",
"l.l.l.l.l.l.l.l.l.l.l.l.l.l.l.l.l.l.l.l.l.l.l.l.l.l.l.l.l.l.l.l.l.l.l.l.l.l.l.l.l.l.l.l.l.l.l.l.l.l.l.l.l.l.. . . .   .                               l.l.l.l.l.l.l.l.l.l.l.l.l.l.l.l.l.l.l.l.l.l.l.l.l.l.l.l.l.l.l.l.l.l.l.l.l.l.l.l.l.l.l.l.l.l.l.l.l.l.l.l.l.",
"l.l.l.l.l.l.l.l.l.l.l.l.l.l.l.l.l.l.l.l.l.l.l.l.l.l.l.l.l.l.l.l.l.l.l.l.l.l.l.l.l.l.l.l.l.l.l.l.l.          . . . .                         .               . l.l.l.l.l.l.l.l.l.l.l.l.l.l.l.l.l.l.l.l.l.l.l.l.l.l.l.l.l.l.l.l.l.l.l.l.l.l.l.l.l.l.l.l.l.l.l.l.l.",
"l.l.l.l.l.l.l.l.l.l.l.l.l.l.l.l.l.l.l.l.l.l.l.l.l.l.l.l.l.l.l.l.l.l.l.l.l.l.l.l.l.l.l.l.l.l.              . . . . .                 . . . . .     . . .   . . .   . . l.l.l.l.l.l.l.l.l.l.l.l.l.l.l.l.l.l.l.l.l.l.l.l.l.l.l.l.l.l.l.l.l.l.l.l.l.l.l.l.l.l.l.l.l.",
"l.l.l.l.l.l.l.l.l.l.l.l.l.l.l.l.l.l.l.l.l.l.l.l.l.l.l.l.l.l.l.l.l.l.l.l.l.l.l.l.l.l.l.          . . . . . . . .                                   . . . . . . .     . . . l.l.l.l.l.l.l.l.l.l.l.l.l.l.l.l.l.l.l.l.l.l.l.l.l.l.l.l.l.l.l.l.l.l.l.l.l.l.l.l.l.l.l.",
"l.l.l.l.l.l.l.l.l.l.l.l.l.l.l.l.l.l.l.l.l.l.l.l.l.l.l.l.l.l.l.l.l.l.l.l.l.l.l.l.            . . . . .         . O % - > 2 4 6 6 6 6 5 3 , ; % @ X         . . .   . . . . .     l.l.l.l.l.l.l.l.l.l.l.l.l.l.l.l.l.l.l.l.l.l.l.l.l.l.l.l.l.l.l.l.l.l.l.l.l.l.l.l.",
"l.l.l.l.l.l.l.l.l.l.l.l.l.l.l.l.l.l.l.l.l.l.l.l.l.l.l.l.l.l.l.l.l.l.l.l.l.l..               . . .   . @ : 5 r d D / o.-.8.8.p.p.p.p.q.8.2.@.' J h t 6 : @ .       . . . .       . . l.l.l.l.l.l.l.l.l.l.l.l.l.l.l.l.l.l.l.l.l.l.l.l.l.l.l.l.l.l.l.l.l.l.l.l.l.l.",
"l.l.l.l.l.l.l.l.l.l.l.l.l.l.l.l.l.l.l.l.l.l.l.l.l.l.l.l.l.l.l.l.l.l.l.l.                      O : 9 s I %.q.p.p.p.p.p.p.p.p.p.p.p.p.p.p.p.p.p.p.p.p.p.-.I d 0 : O               .       l.l.l.l.l.l.l.l.l.l.l.l.l.l.l.l.l.l.l.l.l.l.l.l.l.l.l.l.l.l.l.l.l.l.l.l.",
"l.l.l.l.l.l.l.l.l.l.l.l.l.l.l.l.l.l.l.l.l.l.l.l.l.l.l.l.l.l.l.l.l.l.          . . .     o > e C %.p.p.p.p.p.p.p.p.p.p.p.p.p.p.p.p.p.p.p.p.p.p.p.p.p.p.p.p.p.p.%.C e : o       .             l.l.l.l.l.l.l.l.l.l.l.l.l.l.l.l.l.l.l.l.l.l.l.l.l.l.l.l.l.l.l.l.l.l.",
"l.l.l.l.l.l.l.l.l.l.l.l.l.l.l.l.l.l.l.l.l.l.l.l.l.l.l.l.l.l.l.l.l.      . . . .   . & 8 v %.p.p.p.p.p.p.p.p.p.q.-.| E D v h s a a s h v D I { -.q.p.p.p.p.p.p.p.p.p.%.z 8 %                   l.l.l.l.l.l.l.l.l.l.l.l.l.l.l.l.l.l.l.l.l.l.l.l.l.l.l.l.l.l.l.l.l.",
"l.l.l.l.l.l.l.l.l.l.l.l.l.l.l.l.l.l.l.l.l.l.l.l.l.l.l.l.l.l.l.          . .   . ; y / p.p.p.p.p.p.p.p.%.K d e 5 > * @ O X . . . . . . X O @ & > 5 e d I %.p.p.p.p.p.p.p.q.~ r *         . .       l.l.l.l.l.l.l.l.l.l.l.l.l.l.l.l.l.l.l.l.l.l.l.l.l.l.l.l.l.l.l.",
"l.l.l.l.l.l.l.l.l.l.l.l.l.l.l.l.l.l.l.l.l.l.l.l.l.l.l.l.l.l.        .     . : i o.p.p.p.p.p.p.8./ s 8 ; @ .                                         . @ : 8 s / 8.p.p.p.p.p.p.' y *                 l.l.l.l.l.l.l.l.l.l.l.l.l.l.l.l.l.l.l.l.l.l.l.l.l.l.l.l.l.l.",
"l.l.l.l.l.l.l.l.l.l.l.l.l.l.l.l.l.l.l.l.l.l.l.l.l.l.l.l.      .   . . . * y o.p.p.p.p.p.q.) p 4 % .       . .                       . .           . . .     . % 4 a ' p.p.p.p.p.p.' w $     .           l.l.l.l.l.l.l.l.l.l.l.l.l.l.l.l.l.l.l.l.l.l.l.l.l.l.l.l.",
"l.l.l.l.l.l.l.l.l.l.l.l.l.l.l.l.l.l.l.l.l.l.l.l.l.l.l.      . . .   @ q / p.p.p.p.p.-.v 6 & .   . . . .       . . . .               . .           . . . . . .     . & 0 A 2.p.p.p.p.p.J 5 o         . .   l.l.l.l.l.l.l.l.l.l.l.l.l.l.l.l.l.l.l.l.l.l.l.l.l.l.l.",
"l.l.l.l.l.l.l.l.l.l.l.l.l.l.l.l.l.l.l.l.l.l.l.l.l.l.      . . . . 1 M q.p.p.p.p.%.s 1 O       . . . . . .     . . . .             . . .           . . . . . .     .     @ 4 z 2.p.p.p.p.2.s -       . .     l.l.l.l.l.l.l.l.l.l.l.l.l.l.l.l.l.l.l.l.l.l.l.l.l.l.",
"l.l.l.l.l.l.l.l.l.l.l.l.l.l.l.l.l.l.l.l.l.l.l.l.      . . .   @ r %.p.p.p.p.>.s , X             . . . .   .     . . .   . .       . . .           . . .             . .     O 3 M 8.p.p.p.p./ 5 X       .     l.l.l.l.l.l.l.l.l.l.l.l.l.l.l.l.l.l.l.l.l.l.l.l.l.",
"l.l.l.l.l.l.l.l.l.l.l.l.l.l.l.l.l.l.l.l.l.l.l.      . . . . : v p.p.p.p.q.B 2 X             .   . . . .             . . . . .       . .         . . .                           @ 8 ~ p.p.p.p.2.u @       .   . l.l.l.l.l.l.l.l.l.l.l.l.l.l.l.l.l.l.l.l.l.l.l.l.",
"l.l.l.l.l.l.l.l.l.l.l.l.l.l.l.l.l.l.l.l.l.l.        .   . 5 ' p.p.p.p.' q @               . . . . . . .   . .   . . . . . . .                   . . . . .                   .       & u -.p.p.p.p.M ;             l.l.l.l.l.l.l.l.l.l.l.l.l.l.l.l.l.l.l.l.l.l.l.",
"l.l.l.l.l.l.l.l.l.l.l.l.l.l.l.l.l.l.l.l.l.        .   O e -.p.p.p.q.j ;     . .       . . . . . . . . . . . . . . . . . . . . .             . . . . .   . . .               .         X 4 I p.p.p.p.~ 2               l.l.l.l.l.l.l.l.l.l.l.l.l.l.l.l.l.l.l.l.l.",
"l.l.l.l.l.l.l.l.l.l.l.l.l.l.l.l.l.l.l.l.        .   @ i 8.p.p.p.o.q O     . . . . . . . . . . . . . . . . . . . . . . . . . . . . . . .     . . . . .   . . . .                 .         & s 8.p.p.p.o.6 .           l.l.l.l.l.l.l.l.l.l.l.l.l.l.l.l.l.l.l.l.l.",
"l.l.l.l.l.l.l.l.l.l.l.l.l.l.l.l.l.l.l.            % h p.p.p.p.K 1 .   .   . . . . . . . . . . . . . . . . . . . . . . . . . . . . . . . . . . . . . . . . . . .                 . .         O q -.p.p.p.-.0 .           l.l.l.l.l.l.l.l.l.l.l.l.l.l.l.l.l.l.l.l.",
"l.l.l.l.l.l.l.l.l.l.l.l.l.l.l.l.l.l.        .   & v p.p.p.p.j &   . .     . . . . . . . . . . . . . . . . . . . . . . . . . . . . . . . . .   . .     . . . . .                 .             . 4 ' p.p.p.-.q X           l.l.l.l.l.l.l.l.l.l.l.l.l.l.l.l.l.l.l.",
"l.l.l.l.l.l.l.l.l.l.l.l.l.l.l.l.l.        .   & M p.p.p.8.i @     .       . . . . .     . . . . . . . . . . . . . . . . . . . . . . . . .     .     .   . . .                               .     , I p.p.p.2.q .           l.l.l.l.l.l.l.l.l.l.l.l.l.l.l.l.l.l.",
"l.l.l.l.l.l.l.l.l.l.l.l.l.l.l.l.        .   % v p.p.p.2.r o   .             . . . .       . . . . . . . . . . . . . . . . . .   . . . .                 . . .         . .         .           .     ; J p.p.p.-.8     . .     l.l.l.l.l.l.l.l.l.l.l.l.l.l.l.l.l.",
"l.l.l.l.l.l.l.l.l.l.l.l.l.l.l.l.      .   @ j p.p.p.2.w X   . .           @ e u u u u u u u u u u u u u u u u u u u u u u u u u u u u u u u y r 9 3 ; @ .             .             .       . . .     - A p.p.p.%.4             l.l.l.l.l.l.l.l.l.l.l.l.l.l.l.l.",
"l.l.l.l.l.l.l.l.l.l.l.l.l.l.l.          O p p.p.p.2.w X                   % ' p.p.p.p.p.p.p.p.p.p.p.p.p.p.p.p.p.p.p.p.p.p.p.p.p.p.p.p.p.p.p.p.p.p.8.%.I s 8 * .     .               . .     . . .       - J p.p.p.' >           l.l.l.l.l.l.l.l.l.l.l.l.l.l.l.l.",
"l.l.l.l.l.l.l.l.l.l.l.l.l.l.          . e 8.p.p.8.r X                 .   % / p.p.p.p.p.q.q.q.p.p.p.p.p.p.p.p.p.q.q.q.p.p.p.p.p.p.p.q.q.p.q.q.q.p.p.p.p.p.p.{ a 1 X                 . . . . . . .         ; I p.p.p.J &           l.l.l.l.l.l.l.l.l.l.l.l.l.l.l.",
"l.l.l.l.l.l.l.l.l.l.l.l.l.            5 -.p.p.p.u o               . . .   % / p.p.p.p.p.q.q.p.p.p.p.p.p.p.p.p.p.q.q.p.p.p.p.p.p.p.p.p.p.p.p.q.q.p.p.p.p.p.p.p.p.-.s : .           . . . . . . . . .   .     < { p.p.p.d O           l.l.l.l.l.l.l.l.l.l.l.l.l.l.",
"l.l.l.l.l.l.l.l.l.l.l.l.l.      .   : ' p.p.p.h @   . . . . . . . . . .   % / p.p.p.p.p.q.q.p.p.p.p.p.p.p.p.p.p.q.q.p.p.p.p.p.p.p.p.p.p.p.p.q.q.p.p.p.p.p.p.p.p.p.p.| q O       . . . . . . . . . . . .       5 -.p.p.q.q             l.l.l.l.l.l.l.l.l.l.l.l.l.",
"l.l.l.l.l.l.l.l.l.l.l.l.          @ v p.p.p.J &     . . . . . . . . . .   % / p.p.p.p.p.p.p.q.q.q.p.p.p.p.p.p.p.p.q.p.p.p.p.p.p.q.q.q.p.p.p.q.q.q.q.q.p.p.p.p.p.p.p.p.8.s %   . . . . . . .           .       . r p.p.p.o.<           l.l.l.l.l.l.l.l.l.l.l.l.l.",
"l.l.l.l.l.l.l.l.l.l.l.      .   . e p.p.p.| ,         . . . . . . . . .   # / p.p.p.p.p.p.p.q.q.q.p.p.p.p.p.p.p.p.q.p.q.p.p.p.p.q.q.q.p.p.p.q.p.q.q.p.p.p.p.p.p.p.p.q.q.p.v &   . . . . . .                     @ j p.p.p.C @           l.l.l.l.l.l.l.l.l.l.l.l.",
"l.l.l.l.l.l.l.l.l.l.l.      .   < @.p.p.8.0 . .     . . . . . . . . . .   % ' p.p.p.p.p.p.q.q.q.p.p.p.p.q.p.p.p.q.q.q.q.q.q.p.p.q.q.q.p.p.p.p.q.p.p.p.p.p.p.q.q.q.q.q.q.p.p.v %   . . . . . . . .                 - / p.p.p.e .         l.l.l.l.l.l.l.l.l.l.l.l.",
"l.l.l.l.l.l.l.l.l.l.          @ M p.p.p.d O   . . . . . . . . . . . .     @ s M C Q -.p.p.p.q.q.p.p.p.p.q.p.q.q.p.q.q.q.q.q.q.p.q.q.q.p.p.p.q.p.p.p.p.p.q.q.q.q.q.q.q.q.p.p.p.p o   . . . . . . . . .     .         5 2.p.p.o.:           l.l.l.l.l.l.l.l.l.l.l.",
"l.l.l.l.l.l.l.l.l.l.    . . . 0 8.p.p.) -   . . . . . . . . . .     . . . . X X X @ < s 2.p.w.w.p.q.p.p.p.p.q.q.p.q.q.q.q.q.q.q.p.p.p.p.q.p.p.p.p.p.p.p.p.q.q.q.p.p.p.q.p.p.p.8.9         .   . . . . . . . .       o s p.p.p.d o         l.l.l.l.l.l.l.l.l.l.l.",
"l.l.l.l.l.l.l.l.l.    . . . & ~ p.p.q.9   . . . . . . . . . .       . . .             o q 2.p.w.q.q.p.p.q.p.q.q.p.q.q.p.q.q.p.p.p.p.p.p.q.p.p.p.p.q.q.q.p.p.q.p.p.p.q.p.p.p.p.p./ *             . . . . . . . . . .   - ' p.p.2.3           l.l.l.l.l.l.l.l.l.l.",
"l.l.l.l.l.l.l.l.l.    . . . t p.p.p.v @     . . .   . . . . .       . . . .     . . .   X a p.w.q.q.q.q.q.p.p.q.p.q.p.p.p.p.p.p.p.p.q.q.q.q.p.p.q.q.q.q.p.p.p.p.p.p.q.q.q.q.p.p.p.r .         . . .     . . . . . .     q p.p.p.M O         l.l.l.l.l.l.l.l.l.l.",
"l.l.l.l.l.l.l.l.    . .   ; | p.p.-.2   . .         . . . . . .       . . . .   . . .     > -.p.q.q.q.q.p.p.p.p.p.p.p.p.p.p.p.p.p.p.p.p.p.p.p.p.q.q.q.q.p.p.q.p.p.p.q.q.q.q.p.p.p./ %       . . .       . . . . . .     @ J p.p.8.5           l.l.l.l.l.l.l.l.l.",
"l.l.l.l.l.l.l.l.    . . . y p.p.p.s X . . .           . . . . . . . . . . . . . . . . .   @ ~ p.q.q.p.p.p.p.q.q.p.8.%.@.@.@.@.@.@.@.@.@.@.%.-.q.p.p.p.p.p.p.q.q.q.p.q.q.q.q.q.p.p.q.7       . . .     . . .   . . . . .   5 8.p.p.M O         l.l.l.l.l.l.l.l.l.",
"l.l.l.l.l.l.l.      .   - { p.p.%.,   . . .             . . . . . . . . . . . . . . . .   @ I p.q.q.q.p.p.p.q.q.p./ < - - - - - - - - - - - > 5 i / p.p.p.p.p.p.p.p.q.q.q.q.q.q.p.p.s .           . . . . . . . . . .     @ C p.p.2.3           l.l.l.l.l.l.l.l.",
"l.l.l.l.l.l.l.        . r p.p.p.s X .       . .             . . . . . . . . . . . . . .   @ I p.q.q.p.p.p.p.q.q.p.K +                           . & r %.p.q.p.p.p.p.q.q.q.q.p.p.p.p.I @         . . . . . . . . .     . .   5 8.p.p.h X         l.l.l.l.l.l.l.l.",
"l.l.l.l.l.l.l.        % ~ p.p.-.1   .   . . . .             . .   . . . . . . . . . . .   @ I p.q.q.p.p.p.p.q.q.p.K @     .   . . . .   . .         . 3 ) p.p.p.p.q.q.q.q.q.p.p.p.p.o.-       . . .   . . . . . .     . .   @ K p.p.@.;           l.l.l.l.l.l.l.",
"l.l.l.l.l.l.          6 q.p.p.l o     . . . . . . . . . . . . . . . . . . . . . . . . .   @ I p.q.p.p.p.p.p.p.q.p.K @   . . . . . . . . . . . . . .     1 | p.p.p.p.q.q.q.q.p.p.p.p.>.<         .     . . . . .     . . . .   q p.p.p.e           l.l.l.l.l.l.l.",
"l.l.l.l.l.l.        o l p.p.8.6     . . . . . . . . . . . . . . . . . . . . . . . . . .   @ I p.q.p.p.p.p.p.p.p.p.K @ . . . .   . . . . . . . . . . . .   q q.p.p.p.q.q.q.q.p.p.p.p.2.1   . .     . .     . . . . . . . .     - { p.p.J @     . . l.l.l.l.l.l.l.",
"l.l.l.l.l.      .   ; @.p.p.~ %     . . . . . . . . . . . . . . . . . . . . . . . . . .   @ I p.p.q.p.p.p.p.p.p.p.K @ . . . . . . . . . . . . . . . . .   @ K p.p.p.p.q.q.p.p.p.p.p.2.1   . . . . . . .   . . . . . . . .   . . s p.p.2.1       . . l.l.l.l.l.l.",
"l.l.l.l.l.      .   q p.p.p.u .   . . . .     . . . . . .     . . . . . . . . . . . . .   @ I p.p.p.p.q.p.p.p.p.p.K +   . . . . . . . . . . . . . .   . . . y p.p.p.p.p.q.q.p.p.p.p.-.>       . . . . . . . . . . . . . .   .   4 8.p.p.t           l.l.l.l.l.l.",
"l.l.l.l.l.      . o v p.p.2.2   . . . . .     . . . . .     . . . . . . . . . . . .   .   @ I p.p.q.q.q.q.q.q.p.p.K @       . . .   . . . .     . . . . .   8 p.q.p.p.p.q.q.q.q.p.p.| *     . . . . . . . . . . . . . . .   .   % / p.p.J @         l.l.l.l.l.l.",
"l.l.l.l.l.        - o.p.p.I @   . . . . . . . . .   .     . . . . . . . . . .   . .   .   @ R p.q.q.q.q.q.q.q.q.p.K @           X X   . . . . . . . . . .   6 p.q.q.p.p.p.q.q.q.p.p.J +     . . . . . . . . . . . . . . .     . . s p.p.-.>         l.l.l.l.l.l.",
"l.l.l.l.      .   5 p.p.p.p .   . . . . .   . . . . . .   . . . . . .   . . .   . . .     @ R p.p.p.q.p.p.p.p.q.p.K @   .       % %   . . . . . . . . . .   r p.q.q.p.p.p.p.q.q.p.p.i       . . . . . . . . . . . . .             6 p.p.p.q         . l.l.l.l.l.",
"l.l.l.l.        . i p.p.p.5     . .   . .   . . .     .   . . . . . . . . . . . . . .     @ I p.p.q.q.p.p.q.q.p.p.K @       .   < >   . . . . . . . . .   + A p.q.q.p.p.q.p.p.p.p.2.2       . . . . . . . . .     .               ; @.p.p.d .         l.l.l.l.l.",
"l.l.l.l.        O D p.p.@.-           . . . . . . . .     . . . . . . . . . . . . . . .   @ I p.p.q.q.q.q.p.p.p.p.K @       .   9 9   . . . . . .   . .   9 8.p.q.q.p.p.p.p.p.q.p.D @     . . . . . . . . . . . . .           . . @ J p.p.I @         l.l.l.l.l.",
"l.l.l.l.. .     - o.p.p.J +       . . . . . . . . . . . . . . . . . .   . . . . . . . .   @ I p.p.p.q.q.p.q.p.p.p.K @   . .   . p a . . . . . . .       1 { p.p.q.q.q.p.p.p.p.p.8.6   .   . . .   . . . . . . . . . . .     . . . . p p.p.%.;         l.l.l.l.l.",
"l.l.l.l.    .   2 8.p.p.s .   . . . . . . . . . . . . . . .     . . . .   . . . . .       @ I p.p.p.q.q.p.q.q.p.p.K @     .   $ I I @   . . . .     X 6 ' p.p.p.p.p.p.p.p.p.p.p.j O . .   . . . . . . . . . . . . . . . .           9 p.p.8.4         l.l.l.l.l.",
"l.l.l.      .   0 p.p.p.w     . . . . . . . . . . . . . . . .     . . . . . . . . . .     @ I p.p.p.q.q.p.q.p.p.p.K @         4 8.2.2   . . . . X > a 2.p.p.p.q.p.p.p.p.p.p.p./ ;   . . . . . . . . .   . . . . . . . . . .         2 2.p.p.w           l.l.l.l.",
"l.l.l.          u p.p.q.4     . . . . . . . . . . . . . . . . .     . . . . . . . . . .   @ I p.q.q.q.q.p.p.p.p.p.K +       o j p.p.a X .   X 6 j %.p.q.p.p.p.p.p.p.p.p.p.p.o.3 . . . .     . . . . . . .     . . . . . . . .       - o.p.p.p           l.l.l.l.",
"l.l.l.        X j p.p.-.>     . . . . . . . . .   . . . . . . .     . . . . . . . . . .   @ R p.p.q.q.q.p.p.p.p.p.s X       3 2.p.p.@.>     . w p.p.p.q.q.p.p.p.q.p.q.q.p.| 4 . . . . .       . .   . .       . . . . . . . . .     @ ~ p.p.l X         l.l.l.l.",
"l.l.l..       O A p.p.| *   . . . . . . . . . .   . . . . . . . . . . . . . . . . .   .   @ I p.p.p.q.q.p.p.p.p.o.>   .   % J p.p.p.p.s X     + p p.p.q.q.q.p.p.q.q.q.p.J , . . . . . . .             . . .   . . . . . .   . .     o C p.p.K +         l.l.l.l.",
"l.l.l.        @ ~ p.p.~ @   . . . . . . . .     .     . . . . . .     . . . . . . . . .   @ I p.p.p.q.q.p.p.p.2.0 .     O p p.p.p.p.q.2.0 .     @ s p.p.q.q.p.p.q.q.q.p.B 2 @     . . . . . .         . . . . . . . . .     . .     X h p.p./ %         l.l.l.l.",
"l.l.l.        & ' p.p.J +   . . . .   .       . . .     . . . . .   . . . . . . . . . .   @ I p.p.p.p.p.p.p.%.0 X . . o y 8.p.p.p.p.q.p.o.3   . . @ y 2.p.p.p.p.q.q.q.p.p.2.M 4 o   . . . .   . . . . . . . . . . . . .             . p p.p.o.*         l.l.l.l.",
"l.l.l.        - o.p.p.C X . . . .     .     . . . . . . . . . . .   . . . . . . . . . . . @ I p.p.p.p.p.p.K 3 .     & a 8.p.p.p.p.p.q.q.p.o.6 X     X 5 E p.p.p.q.q.q.p.p.p.p.2.s -         . . . . . . . . . . . . .   . . .         y p.p.%.;         l.l.l.l.",
"l.l.l.        ; %.p.p.v X . . . .   . . . . . . . . . . . . . . . . . . . . . . . . . .   @ K p.p.p.p./ w %   . O 4 J p.p.p.p.p.q.p.p.p.p.p.2.p - .     & r | p.p.q.p.p.p.p.p.p.p.~ 2             . . . . . . . . . . . . . .         r p.p.-.>         l.l.l.l.",
"l.l.l.        ; %.p.p.c X   . . . . . . . . . . . . . . . . .   . . . . . . . . . . . .   @ K p.2.M 9 %     @ 6 v 2.p.q.p.p.p.p.p.p.p.p.p.p.p.p.o.a 3 $   . - r ' p.p.p.p.p.p.p.p.p.o.5 .         . . . . . . . . . . . . . .     .   e p.p.2.<         l.l.l.l.",
"l.l.l.        ; %.p.p.c X   . . . . . . . . . . . . . . . . . . . . . . . . . . . . .     @ I p.2.l 5 @ .   % 9 A 8.p.p.p.p.p.q.q.p.p.p.p.p.p.p.-.j 8 &   . $ 9 ~ p.p.p.q.q.q.q.p.p.p.o.4         . . . . . . . . . . . . . . .   .   e p.p.2.<         l.l.l.l.",
"l.l.l.    .   ; %.p.p.v X   . . . . . . . . . . . . . . . . . . . . . . . . . . . . .     @ I p.w.p.8.K 0 $ .   + 5 J p.p.p.p.p.p.q.p.p.p.p.2.h < X     $ q I p.p.p.q.q.q.q.q.q.p.p.p.p.' >             . . . . . . . . . . . . . .   r p.p.2.<         l.l.l.l.",
"l.l.l.    .   - o.p.p.C X   . . . . . . . . . . . . . . . . . . . . . . . . . . . . . .   @ I p.w.w.w.p.q.C 1 .     % p 8.p.p.p.p.q.q.q.p.| 8 o     . 2 D p.p.p.p.p.p.q.q.q.p.p.p.p.p.p.p.C @             . . . . . . . . . . . .     y p.p.-.:         l.l.l.l.",
"l.l.l.    .   & { p.p.J +   . . . . . . .   . . .           . . . . . . . . . . . . . .   @ I p.p.w.p.w.p.p.o.6       X r 8.p.p.p.q.q.p.| 3       O e %.p.p.p.p.q.p.p.q.q.p.p.p.p.p.p.p.p.p.w             . . . . . . . . . . .       p p.p.%.;         l.l.l.l.",
"l.l.l.        @ ~ p.p.~ @   . . . . . .   . . .               . . . . . . . . . . .       @ I p.q.q.p.q.p.p.p.%.4 .     o u p.p.p.p.p.-.5   .   + i q.p.p.p.p.p.p.p.q.q.q.q.p.p.q.q.p.p.p.p.' *         . . . . . . .   . . . .     . h p.p.| &         l.l.l.l.",
"l.l.l.        O D p.p.| *   . . . . . . . . . .   . . . .     . . . . . . . . . . .       @ I p.p.q.q.p.p.q.p.p.~ &       @ C p.p.p.p.u X     @ p p.p.p.p.p.p.p.p.q.q.q.q.p.p.p.q.p.p.p.p.p.p.w         . . . . . . .     . . .     O C p.p.~ @         l.l.l.l.",
"l.l.l..       X j p.p.-.>   . . . . . . . . . . . . . . . . . . . . . . .     . . . . .   @ I p.p.p.p.q.q.p.p.p.p.w         2 -.p.p./ *       5 ) -.p.p.p.q.p.p.p.p.p.q.q.p.p.p.q.q.p.p.p.p.p.J @       . . . . . . . .   . . . .   @ ~ p.p.C O         l.l.l.l.",
"l.l.l.          u p.p.8.4       . . . . . . . . . . . . . . . . . . . . .     . . . . .   @ I p.p.p.p.q.q.p.p.p.p.M o       X s p.p.r       . + % > 9 h o.p.p.p.p.p.p.q.q.p.p.p.p.p.p.q.q.p.p.2.1   . . . . . . . . . . . . .   .   ; @.p.p.s .       . l.l.l.l.",
"l.l.l.          q p.p.p.w       . . . . . . . . . . . . . . . . . . . . . . . .   .   .   @ I p.p.p.p.p.q.q.q.q.p.K +         3 2.@.;       .         X ; u %.p.p.p.p.p.q.q.p.p.q.q.p.p.p.q.q.p.w     . . . . . . . . . . .         3 8.p.p.r         . l.l.l.l.",
"l.l.l.l.        3 8.p.p.s .     . . . . . . . . . . . . . . . . . . . . . . . .           @ R p.p.p.p.p.q.q.q.q.p.K @         @ K N X   . . .   .         . 2 I p.p.p.p.q.q.p.p.q.q.p.p.p.p.q.p.s .     . . . . . . .     . .       q p.p.p.6         . l.l.l.l.",
"l.l.l.l.        - o.p.p.J @     . . . . . . . . . . . . . . . . . .   . . . . . .         @ R p.q.q.p.q.q.q.p.p.p.K @           i t   . . . . . .         .   ; K p.q.p.q.q.p.p.q.p.p.p.p.q.q.p.J +       . . . . . .     . . .   . s p.p.-.:         l.l.l.l.l.",
"l.l.l.l.        O A p.p.%.;   . . . . . . . . . . . . . . . . . . . . . . . . . . .       @ R p.q.q.q.q.q.p.p.p.p.K @           6 4   .   . . . . .             1 %.p.q.q.q.p.p.p.p.p.p.p.q.q.p.' %           . . . . . .   . .   @ ~ p.p.I @         l.l.l.l.l.",
"l.l.l.l..         i p.p.p.7   . . . . . . . . . . . . . . . . . . . . . . . . . . . .     + I p.q.q.p.q.q.q.p.p.p.K @           ; -         . . .               . a p.p.p.p.p.p.p.p.p.p.q.p.p.p.o.=                   . .     .   < 2.p.p.s .         l.l.l.l.l.",
"l.l.l.l.l.        5 q.p.p.a . . . . .       . . . . . . . . . . . . . . . . . . . . .     + I p.q.q.q.p.q.p.p.p.p.K @           @ O         . . . . . .           5 q.p.q.q.p.p.q.p.p.p.p.p.p.p.%.;                         . . . e p.p.p.9         . l.l.l.l.l.",
"l.l.l.l.l.        * | p.p./ %     . . .       . . . . . . . . . . . . . . . . . . . .     + I p.p.p.q.p.q.p.p.p.p.K @                       . . . . . . . .       1 2.p.q.q.q.p.p.q.q.q.q.q.p.p.%.-                   . .     . O C p.p.%.;   .     l.l.l.l.l.l.",
"l.l.l.l.l.        X l p.p.8.4     . . .         . . . .     . . . . .     . . . . . .     @ R p.p.p.p.p.q.q.q.p.p.K @                 . . . . . . . . . . . . .   4 8.p.q.q.q.p.p.p.q.q.q.p.p.p.| *                   . .       > -.p.p.B O   .     l.l.l.l.l.l.",
"l.l.l.l.l..         9 p.p.p.s .   .           .   . . .     . . . . .     . . . . . .     @ I p.q.q.q.q.p.p.p.p.p.K @ . . .               . . . . . . . . . . . . i p.p.p.p.q.q.p.q.8.p.p.p.p.p.~ @   . .         . . .         t p.p.p.q   . . . . l.l.l.l.l.l.",
"l.l.l.l.l.l.        - | p.p.{ -   . .       . . . . . . .     . . . .   . . . . . . .     @ I p.q.q.q.q.p.p.p.q.p.K @ . . .               . . . . .       .     : | p.p.p.p.p.q.q.8.p.p.p.p.p.p.M X .             . . .       % ~ p.p.o.-     . . l.l.l.l.l.l.l.",
"l.l.l.l.l.l.    .   X s p.p.p.q             . . . . . . .     . . . . . . . . . . .       @ I p.q.p.p.q.p.p.q.q.p.K @ . . .         .       . . . .       .   @ v p.p.p.p.p.q.q.q.q.q.p.p.p.q.p.y   .           . . . .       6 q.p.p.d X   . .   l.l.l.l.l.l.l.",
"l.l.l.l.l.l.. .       4 8.p.p.K @       . .   . . . . . . . . . . . . . . . . . .         @ I p.p.p.p.p.p.p.q.q.p.K @   . . .     . .     .   . . . . . .   * j p.p.p.p.p.p.p.q.q.q.p.p.q.q.q.8.4               . . . . .   @ C p.p.8.4     . . . l.l.l.l.l.l.l.",
"l.l.l.l.l.l.l.        @ J p.p.8.6               . . . . . . . . . . . . . . . . . . .     - o.p.p.p.p.p.p.p.q.q.p.K @   . . .     . . .       . . .     @ 8 E p.p.q.p.q.p.p.q.q.p.p.p.p.q.p.p.) &               . . .   .   4 8.p.p.D @       . l.l.l.l.l.l.l.l.",
"l.l.l.l.l.l.l.    . .   9 p.p.p.A @               . . . . . . . . . . . .     . . . . .   9 p.p.p.p.p.p.p.p.q.q.p.I @ . . . . . . . . . . . . X o % , e J 8.p.q.q.p.p.p.p.p.q.q.q.p.p.p.p.p.p.u . .             . .       @ M p.p.p.8         . l.l.l.l.l.l.l.l.",
"l.l.l.l.l.l.l.l.        % I p.p.8.8               . . .   . . .       . .     . . .     : / p.p.q.q.p.p.p.p.p.p.p.-.j d s s s s s s s s s s s h B / -.p.p.q.p.p.p.q.q.p.p.q.p.q.p.q.p.p.p.p.@.:   . . . .   . . . .       5 8.p.p.K @     . . . l.l.l.l.l.l.l.l.",
"l.l.l.l.l.l.l.l.    . .   q p.p.p.I %             . . . . .             . . .       . , K p.p.p.q.q.p.q.p.p.p.p.p.p.p.p.p.p.p.p.p.p.p.p.p.p.p.p.p.p.p.p.p.q.p.p.q.q.q.p.p.p.q.q.q.q.p.p.p.p.u .   . . . .   . . .       @ J p.p.p.9   . . .   l.l.l.l.l.l.l.l.l.",
"l.l.l.l.l.l.l.l.l.        $ K p.p.p.r             . . . . .     .         . @ @ & 1 u o.p.p.p.p.q.q.q.p.p.p.p.q.q.q.q.q.q.q.p.p.p.p.p.p.q.q.q.q.p.p.q.q.q.q.p.p.q.q.q.q.p.p.p.p.q.q.p.p.p.I &   . . .       . . .       w p.p.p.A @     . . . l.l.l.l.l.l.l.l.l.",
"l.l.l.l.l.l.l.l.l.          6 8.p.p.o.:             . . . .     .         @ v ~ { 2.p.p.p.p.p.p.q.q.p.p.p.p.q.q.p.p.q.q.q.q.p.p.p.p.p.p.q.q.p.p.p.p.q.q.q.q.p.p.p.q.q.q.p.p.p.p.q.q.p.p.-.4     . .     . . . . .     : | p.p.2.4         . l.l.l.l.l.l.l.l.l.l.",
"l.l.l.l.l.l.l.l.l.l.        O l p.p.p.l @   . .       . . .   . .   . .   % ' p.p.p.q.q.p.p.p.p.q.p.p.p.p.q.q.q.p.p.p.p.q.p.p.p.p.p.p.p.p.p.p.p.p.p.p.p.p.p.p.p.p.p.q.q.p.p.p.p.q.p.p.2.q . . . . .   . . . . . .   O j p.p.p.d o           l.l.l.l.l.l.l.l.l.l.",
"l.l.l.l.l.l.l.l.l.l.          , o.p.p.q.q             . . . .   . . . .   % / p.p.p.q.q.q.q.p.p.q.p.p.p.q.q.q.q.p.p.p.p.p.p.p.p.p.p.q.p.p.p.p.p.p.q.p.p.q.q.p.p.p.p.q.p.q.q.q.q.q.p.8.e X   . . . .   . . . . . . . q 8.p.p.{ ;           l.l.l.l.l.l.l.l.l.l.l.",
"l.l.l.l.l.l.l.l.l.l.l.        . r p.p.p.o.<           .         . . . .   # / p.p.p.p.p.q.q.q.p.p.q.p.p.p.p.p.p.q.p.p.p.p.p.p.q.q.p.p.p.q.q.p.q.q.q.q.p.p.p.p.p.p.p.p.p.q.p.p.q.p.-.q X             . . . . . .   , o.p.p.p.q .   . .   l.l.l.l.l.l.l.l.l.l.l.l.",
"l.l.l.l.l.l.l.l.l.l.l.          @ C p.p.p.J %       .                 .   # / p.p.p.p.p.q.p.q.q.q.q.p.p.p.p.q.q.q.q.q.p.p.p.p.p.p.p.p.p.p.p.q.q.q.q.q.p.p.p.p.p.p.p.p.p.p.p.p.p./ 4 .               . . . . .   % D p.p.p.j @   . . .   l.l.l.l.l.l.l.l.l.l.l.l.",
"l.l.l.l.l.l.l.l.l.l.l.l.          > | p.p.p.s O           .     . . . .   % / p.q.q.p.p.q.p.p.p.p.p.q.q.q.p.p.p.q.q.p.p.q.p.p.q.p.q.p.q.p.q.q.q.q.q.p.p.p.p.q.q.q.q.p.q.p.p.2.s -     . . . . . .     . . .   O a p.p.p.) ;   . . . . l.l.l.l.l.l.l.l.l.l.l.l.l.",
"l.l.l.l.l.l.l.l.l.l.l.l.l.      . . 9 8.p.p.q.r .       . . . . . . . .   % / p.q.q.q.q.q.q.q.p.p.p.q.q.q.p.p.p.q.q.p.p.q.p.p.p.q.q.p.p.p.q.q.q.q.q.q.p.p.p.q.q.q.q.p.p.2.v 3 o   . . . . . . . .     . . . . e q.p.p.2.5     .   . l.l.l.l.l.l.l.l.l.l.l.l.l.l.",
"l.l.l.l.l.l.l.l.l.l.l.l.l.      . . o i p.p.p.2.8               . . .     % / p.p.p.p.p.p.p.p.p.p.p.p.p.p.p.p.p.p.p.p.p.p.p.p.p.q.p.q.q.p.p.p.p.p.p.p.p.p.p.p.p.p.q.' a 2 O       . . . . . . .     . . . . 8 -.p.p.p.r X           l.l.l.l.l.l.l.l.l.l.l.l.l.l.",
"l.l.l.l.l.l.l.l.l.l.l.l.l.l..     .   @ v p.p.p.%.4             .         % ' p.p.p.p.p.p.p.p.p.p.p.p.p.p.p.p.p.p.p.p.p.p.p.p.p.p.p.p.p.p.p.p.p.p.p.p.p.p.8.o.K p 6 & .         .   . . . . . .     . . . 4 %.p.p.p.d +           l.l.l.l.l.l.l.l.l.l.l.l.l.l.l.",
"l.l.l.l.l.l.l.l.l.l.l.l.l.l.l.          - I p.p.p.| 2   . . . . .         @ h J D D D D D D D D D D D D D D D D D D D D D D D D D D D D D D D D M j s y 0 3 - @ .       . . . . .       . . . . . . . . 4 o.p.p.p.C %           l.l.l.l.l.l.l.l.l.l.l.l.l.l.l.l.",
"l.l.l.l.l.l.l.l.l.l.l.l.l.l.l.l.          , ' p.p.p.' 1 . . . .     . . . . o O O O O O O O O O O O O O O O O O O O O O O O O O O O O O O O O O o X .                     . . .       . . . . . . . . 4 | p.p.p.I -             l.l.l.l.l.l.l.l.l.l.l.l.l.l.l.l.",
"l.l.l.l.l.l.l.l.l.l.l.l.l.l.l.l.            3 o.p.p.p.' 2 . . .     . . . .                                                                 . . . . . . . .           . .   . .   . . . . . . .   . 5 o.p.p.p./ >             l.l.l.l.l.l.l.l.l.l.l.l.l.l.l.l.l.",
"l.l.l.l.l.l.l.l.l.l.l.l.l.l.l.l.l.          . 5 %.p.p.p.| 4 . .       . . .                 .           . . . .   . .         .   . . . . . . . . . . . . . . . . . . . . . . . . . . . . . .   X 8 %.p.p.p./ <             l.l.l.l.l.l.l.l.l.l.l.l.l.l.l.l.l.l.",
"l.l.l.l.l.l.l.l.l.l.l.l.l.l.l.l.l.l.        . . 6 %.p.p.p.%.0 X       . . .               . . . . . . . . . .     . . . . . . . . . . . . . . . . . . . . . . . . . . . . . . . . . . . . . . O e 2.p.p.p.~ <         .   l.l.l.l.l.l.l.l.l.l.l.l.l.l.l.l.l.l.l.",
"l.l.l.l.l.l.l.l.l.l.l.l.l.l.l.l.l.l.l.        . . 5 o.p.p.p.2.r O       . .   .       . . . . . . . . . . . .     . . . . . . . . . . . . . . . . . . . . . . . . . . . . . . . . . . . .   & s 8.p.p.p.K :             l.l.l.l.l.l.l.l.l.l.l.l.l.l.l.l.l.l.l.l.",
"l.l.l.l.l.l.l.l.l.l.l.l.l.l.l.l.l.l.l.l.      . . . 3 ' p.p.p.q.d &           . . .   . . . . . . . . . . .   .     . . . . . . . . . .   . . . . . . . . . . . . . . . . . . . . . . . . 1 D p.p.p.p.B -         .   l.l.l.l.l.l.l.l.l.l.l.l.l.l.l.l.l.l.l.l.l.",
"l.l.l.l.l.l.l.l.l.l.l.l.l.l.l.l.l.l.l.l.l.            , K p.p.p.p.K 2 .   .   . . . . . . . . . .   .     .       . .       . . . . . . . . . . . . . . . . . . . . . . . . . . . .   @ q o.p.p.p.q.s %   .     .   l.l.l.l.l.l.l.l.l.l.l.l.l.l.l.l.l.l.l.l.l.l.",
"l.l.l.l.l.l.l.l.l.l.l.l.l.l.l.l.l.l.l.l.l.l.            * l p.p.p.p.%.r $   . . .       . . . . . . . . . . . . . . .     . . . . . . . . . . . . . . . . . . . . . . . . .       . > l 8.p.p.p.%.w O             l.l.l.l.l.l.l.l.l.l.l.l.l.l.l.l.l.l.l.l.l.l.l.",
"l.l.l.l.l.l.l.l.l.l.l.l.l.l.l.l.l.l.l.l.l.l.l.    .       @ u 2.p.p.p.p.D 3 X   .       . . . . . . . . . . . .   . . .   . . . . . . . . . . . . . . . . . . . . . . . . .     % r o.p.p.p.p.I 3 .             l.l.l.l.l.l.l.l.l.l.l.l.l.l.l.l.l.l.l.l.l.l.l.l.",
"l.l.l.l.l.l.l.l.l.l.l.l.l.l.l.l.l.l.l.l.l.l.l.l.  .         X 6 ' p.p.p.p.-.a ; .     . . . . . . . . . . . . . . .     . . . . . . . . . . . . . . . . . . . . . . . . .   @ 8 I p.p.p.p.8.s &               l.l.l.l.l.l.l.l.l.l.l.l.l.l.l.l.l.l.l.l.l.l.l.l.l.",
"l.l.l.l.l.l.l.l.l.l.l.l.l.l.l.l.l.l.l.l.l.l.l.l.l..             ; l q.p.p.p.p.| y ; .   . .     . . . . . . . . . .     . . . . . . .   . .   . . . . . . . .   . .   . $ 6 D 8.p.q.p.p.~ 6 o               l.l.l.l.l.l.l.l.l.l.l.l.l.l.l.l.l.l.l.l.l.l.l.l.l.l.",
"l.l.l.l.l.l.l.l.l.l.l.l.l.l.l.l.l.l.l.l.l.l.l.l.l.l.              @ 0 ' p.p.p.p.p.| u > o     . . . . . . . . . . . . . . . . . . . .         . .   . . . .       X - w K 8.p.p.p.p.%.u &               l.l.l.l.l.l.l.l.l.l.l.l.l.l.l.l.l.l.l.l.l.l.l.l.l.l.l.l.",
"l.l.l.l.l.l.l.l.l.l.l.l.l.l.l.l.l.l.l.l.l.l.l.l.l.l.l.l.              - p -.p.p.p.p.p.%.l 8 * X     . . . . . . . . . .       . . . . . . . . . . . . .     . % 5 s | p.p.p.p.p.>.h , .               l.l.l.l.l.l.l.l.l.l.l.l.l.l.l.l.l.l.l.l.l.l.l.l.l.l.l.l.l.",
"l.l.l.l.l.l.l.l.l.l.l.l.l.l.l.l.l.l.l.l.l.l.l.l.l.l.l.l.l.              X 1 h -.p.p.p.p.p.p.{ h 0 : @ .         . . . .     . . . . . . .           . @ ; 8 s / 8.p.p.p.p.p.-.j 2 o                 l.l.l.l.l.l.l.l.l.l.l.l.l.l.l.l.l.l.l.l.l.l.l.l.l.l.l.l.l.l.",
"l.l.l.l.l.l.l.l.l.l.l.l.l.l.l.l.l.l.l.l.l.l.l.l.l.l.l.l.l.l.l.              o 1 h -.p.p.p.p.p.p.p.%.K s q 3 - % O X .               . . o @ & : 4 w s K %.p.p.p.p.p.p.p.o.s 1 o                 l.l.l.l.l.l.l.l.l.l.l.l.l.l.l.l.l.l.l.l.l.l.l.l.l.l.l.l.l.l.l.l.",
"l.l.l.l.l.l.l.l.l.l.l.l.l.l.l.l.l.l.l.l.l.l.l.l.l.l.l.l.l.l.l.l.      . . .     X , u / q.p.p.p.p.p.p.p.p.8.@.~ A j a u r e e e r y p h v K ' -.8.p.p.p.p.p.p.p.p.2.J e ; X     . .           l.l.l.l.l.l.l.l.l.l.l.l.l.l.l.l.l.l.l.l.l.l.l.l.l.l.l.l.l.l.l.l.l.",
"l.l.l.l.l.l.l.l.l.l.l.l.l.l.l.l.l.l.l.l.l.l.l.l.l.l.l.l.l.l.l.l.l.l.    . . . .     . & 6 h { q.p.p.p.p.p.p.p.p.p.p.p.p.p.p.p.p.p.p.p.p.p.p.p.p.p.p.p.p.p.p.-.K u 2 @     . . . . . .     l.l.l.l.l.l.l.l.l.l.l.l.l.l.l.l.l.l.l.l.l.l.l.l.l.l.l.l.l.l.l.l.l.l.l.",
"l.l.l.l.l.l.l.l.l.l.l.l.l.l.l.l.l.l.l.l.l.l.l.l.l.l.l.l.l.l.l.l.l.l.l.  . .     . . .     X & 5 i J o.8.p.p.p.p.p.p.p.w.p.p.p.p.p.p.p.p.p.p.p.p.p.p.-.~ h q , @ .           .     . . l.l.l.l.l.l.l.l.l.l.l.l.l.l.l.l.l.l.l.l.l.l.l.l.l.l.l.l.l.l.l.l.l.l.l.l.l.",
"l.l.l.l.l.l.l.l.l.l.l.l.l.l.l.l.l.l.l.l.l.l.l.l.l.l.l.l.l.l.l.l.l.l.l.l.l..     . .     . . .   . @ ; 4 e s C ~ o.-.2.8.p.p.p.p.p.8.2.-.| ~ C d r 6 : $ X     . . . . . .     .   l.l.l.l.l.l.l.l.l.l.l.l.l.l.l.l.l.l.l.l.l.l.l.l.l.l.l.l.l.l.l.l.l.l.l.l.l.l.l.",
"l.l.l.l.l.l.l.l.l.l.l.l.l.l.l.l.l.l.l.l.l.l.l.l.l.l.l.l.l.l.l.l.l.l.l.l.l.l.l.. . .     . . . . . .       . O $ * > 1 4 5 6 6 5 5 3 1 : * $ O . . . . . . . . . . . . .       l.l.l.l.l.l.l.l.l.l.l.l.l.l.l.l.l.l.l.l.l.l.l.l.l.l.l.l.l.l.l.l.l.l.l.l.l.l.l.l.l.",
"l.l.l.l.l.l.l.l.l.l.l.l.l.l.l.l.l.l.l.l.l.l.l.l.l.l.l.l.l.l.l.l.l.l.l.l.l.l.l.l.l.l..     . . . . . . . . . .                                 . . . . . . . . .     . . l.l.l.l.l.l.l.l.l.l.l.l.l.l.l.l.l.l.l.l.l.l.l.l.l.l.l.l.l.l.l.l.l.l.l.l.l.l.l.l.l.l.l.l.",
"l.l.l.l.l.l.l.l.l.l.l.l.l.l.l.l.l.l.l.l.l.l.l.l.l.l.l.l.l.l.l.l.l.l.l.l.l.l.l.l.l.l.l.l.l.  . . . . . . . . . .     .         . . . . . . . . . . . . . . . . .   l.l.l.l.l.l.l.l.l.l.l.l.l.l.l.l.l.l.l.l.l.l.l.l.l.l.l.l.l.l.l.l.l.l.l.l.l.l.l.l.l.l.l.l.l.l.l.",
"l.l.l.l.l.l.l.l.l.l.l.l.l.l.l.l.l.l.l.l.l.l.l.l.l.l.l.l.l.l.l.l.l.l.l.l.l.l.l.l.l.l.l.l.l.l.l.l.      . . . .                 . . .   . . . . . . . . . . l.l.l.l.l.l.l.l.l.l.l.l.l.l.l.l.l.l.l.l.l.l.l.l.l.l.l.l.l.l.l.l.l.l.l.l.l.l.l.l.l.l.l.l.l.l.l.l.l.l.l.",
"l.l.l.l.l.l.l.l.l.l.l.l.l.l.l.l.l.l.l.l.l.l.l.l.l.l.l.l.l.l.l.l.l.l.l.l.l.l.l.l.l.l.l.l.l.l.l.l.l.l.l.l.l.. .                               . . . l.l.l.l.l.l.l.l.l.l.l.l.l.l.l.l.l.l.l.l.l.l.l.l.l.l.l.l.l.l.l.l.l.l.l.l.l.l.l.l.l.l.l.l.l.l.l.l.l.l.l.l.l.l.l.",
"l.l.l.l.l.l.l.l.l.l.l.l.l.l.l.l.l.l.l.l.l.l.l.l.l.l.l.l.l.l.l.l.l.l.l.l.l.l.l.l.l.l.l.l.l.l.l.l.l.l.l.l.l.l.l.l.l.l.l.l.l.l.l.l.l.l.l.l.l.l.l.l.l.l.l.l.l.l.l.l.l.l.l.l.l.l.l.l.l.l.l.l.l.l.l.l.l.l.l.l.l.l.l.l.l.l.l.l.l.l.l.l.l.l.l.l.l.l.l.l.l.l.l.l.l.l.l.l.",
"l.l.l.l.l.l.l.l.l.l.l.l.l.l.l.l.l.l.l.l.l.l.l.l.l.l.l.l.l.l.l.l.l.l.l.l.l.l.l.l.l.l.l.l.l.l.l.l.l.l.l.l.l.l.l.l.l.l.l.l.l.l.l.l.l.l.l.l.l.l.l.l.l.l.l.l.l.l.l.l.l.l.l.l.l.l.l.l.l.l.l.l.l.l.l.l.l.l.l.l.l.l.l.l.l.l.l.l.l.l.l.l.l.l.l.l.l.l.l.l.l.l.l.l.l.l.l.l.",
"l.l.l.l.l.l.l.l.l.l.l.l.l.l.l.l.l.l.l.l.l.l.l.l.l.l.l.l.l.l.l.l.l.l.l.l.l.l.l.l.l.l.l.l.l.l.l.l.l.l.l.l.l.l.l.l.l.l.l.l.l.l.l.l.l.l.l.l.l.l.l.l.l.l.l.l.l.l.l.l.l.l.l.l.l.l.l.l.l.l.l.l.l.l.l.l.l.l.l.l.l.l.l.l.l.l.l.l.l.l.l.l.l.l.l.l.l.l.l.l.l.l.l.l.l.l.l.l.",
"l.l.l.l.l.l.l.l.l.l.l.l.l.l.l.l.l.l.l.l.l.l.l.l.l.l.l.l.l.l.l.l.l.l.l.l.l.l.l.l.l.l.l.l.l.l.l.l.l.l.l.l.l.l.l.l.l.l.l.l.l.l.l.l.l.l.l.l.l.l.l.l.l.l.l.l.l.l.l.l.l.l.l.l.l.l.l.l.l.l.l.l.l.l.l.l.l.l.l.l.l.l.l.l.l.l.l.l.l.l.l.l.l.l.l.l.l.l.l.l.l.l.l.l.l.l.l.l.",
"l.l.l.l.l.l.l.l.l.l.l.l.l.l.l.l.l.l.l.l.l.l.l.l.l.l.l.l.l.l.l.l.l.l.l.l.l.l.l.l.l.l.l.l.l.l.l.l.l.l.l.l.l.l.l.l.l.l.l.l.l.l.l.l.l.l.l.l.l.l.l.l.l.l.l.l.l.l.l.l.l.l.l.l.l.l.l.l.l.l.l.l.l.l.l.l.l.l.l.l.l.l.l.l.l.l.l.l.l.l.l.l.l.l.l.l.l.l.l.l.l.l.l.l.l.l.l.l."
};
